(Exported by FreeCAD)
(Post Processor: grbl_post)
(Output Time:2021-12-28 04:09:48.099323)
(begin preamble)
G17 G90
G21
(begin operation: T2: 1/4inENDMILL002)
(Path: T2: 1/4inENDMILL002)
(T2: 1/4inENDMILL002)
(begin toolchange)
; M6 T2
M3 S0.0000
(finish operation: T2: 1/4inENDMILL002)
(begin operation: Pocket_Shape)
(Path: Pocket_Shape)
(Pocket_Shape)
G0 Z5.0000
G0 X20.0026 Y139.1614
G0 Z3.0000
G1 X20.0026 Y139.1614 Z-1.2000 F1170.00
G2 X20.0026 Y139.9114 Z-1.2000 I26.7672 J0.3750 F1170.00
G1 X13.9644 Y139.9114 Z-1.2000 F1170.00
G1 X13.2144 Y139.1614 Z-1.2000 F1170.00
G1 X6.4262 Y139.1614 Z-1.2000 F1170.00
G1 X7.1762 Y139.9114 Z-1.2000 F1170.00
G1 X3.0023 Y139.9114 Z-1.2000 F1170.00
G3 X3.0023 Y139.1614 Z-1.2000 I31.1069 J-0.3750 F1170.00
G1 X6.4262 Y139.1614 Z-1.2000 F1170.00
G1 X6.4262 Y139.1614 Z-2.4000 F1170.00
G1 X3.0023 Y139.1614 Z-2.4000 F1170.00
G2 X3.0023 Y139.9114 Z-2.4000 I31.1069 J0.3750 F1170.00
G1 X7.1762 Y139.9114 Z-2.4000 F1170.00
G1 X6.4262 Y139.1614 Z-2.4000 F1170.00
G1 X13.2144 Y139.1614 Z-2.4000 F1170.00
G1 X13.9644 Y139.9114 Z-2.4000 F1170.00
G1 X20.0026 Y139.9114 Z-2.4000 F1170.00
G3 X20.0026 Y139.1614 Z-2.4000 I26.7672 J-0.3750 F1170.00
G1 X20.0026 Y139.1614 Z-3.0000 F1170.00
G2 X20.0026 Y139.9114 Z-3.0000 I26.7672 J0.3750 F1170.00
G1 X13.9644 Y139.9114 Z-3.0000 F1170.00
G1 X13.2144 Y139.1614 Z-3.0000 F1170.00
G1 X6.4262 Y139.1614 Z-3.0000 F1170.00
G1 X7.1762 Y139.9114 Z-3.0000 F1170.00
G1 X3.0023 Y139.9114 Z-3.0000 F1170.00
G3 X3.0023 Y139.1614 Z-3.0000 I31.1069 J-0.3750 F1170.00
G1 X6.4262 Y139.1614 Z-3.0000 F1170.00
G0 Z5.0000
G0 X276.9989 Y139.1614
G0 Z3.0000
G1 X276.9989 Y139.1614 Z-1.2000 F1170.00
G3 X276.9989 Y139.9114 Z-1.2000 I-62.2116 J0.3750 F1170.00
G1 X270.9606 Y139.9114 Z-1.2000 F1170.00
G1 X270.2106 Y139.1614 Z-1.2000 F1170.00
G1 X263.4224 Y139.1614 Z-1.2000 F1170.00
G1 X264.1724 Y139.9114 Z-1.2000 F1170.00
G1 X259.9987 Y139.9114 Z-1.2000 F1170.00
G2 X259.9987 Y139.1614 Z-1.2000 I-52.7538 J-0.3750 F1170.00
G1 X263.4224 Y139.1614 Z-1.2000 F1170.00
G1 X263.4224 Y139.1614 Z-2.4000 F1170.00
G1 X259.9987 Y139.1614 Z-2.4000 F1170.00
G3 X259.9987 Y139.9114 Z-2.4000 I-52.7538 J0.3750 F1170.00
G1 X264.1724 Y139.9114 Z-2.4000 F1170.00
G1 X263.4224 Y139.1614 Z-2.4000 F1170.00
G1 X270.2106 Y139.1614 Z-2.4000 F1170.00
G1 X270.9606 Y139.9114 Z-2.4000 F1170.00
G1 X276.9989 Y139.9114 Z-2.4000 F1170.00
G2 X276.9989 Y139.1614 Z-2.4000 I-62.2116 J-0.3750 F1170.00
G1 X276.9989 Y139.1614 Z-3.0000 F1170.00
G3 X276.9989 Y139.9114 Z-3.0000 I-62.2116 J0.3750 F1170.00
G1 X270.9606 Y139.9114 Z-3.0000 F1170.00
G1 X270.2106 Y139.1614 Z-3.0000 F1170.00
G1 X263.4224 Y139.1614 Z-3.0000 F1170.00
G1 X264.1724 Y139.9114 Z-3.0000 F1170.00
G1 X259.9987 Y139.9114 Z-3.0000 F1170.00
G2 X259.9987 Y139.1614 Z-3.0000 I-52.7538 J-0.3750 F1170.00
G1 X263.4224 Y139.1614 Z-3.0000 F1170.00
G0 Z5.0000
(finish operation: Pocket_Shape)
(begin operation: Helix002)
(Path: Helix002)
(Helix002)
(helix cut operation)
G0 Z5.0000
G0 X140.6000 Y12.0364
G0 Z3.0000
G1 Z0.0000 F1170.00
G2 X139.4000 Y12.0364 Z-0.5938 I-0.6000 J0.0000 F1170.00
G2 X140.6000 Y12.0364 Z-1.1875 I0.6000 J0.0000 F1170.00
G2 X139.4000 Y12.0364 Z-1.7812 I-0.6000 J0.0000 F1170.00
G2 X140.6000 Y12.0364 Z-2.3750 I0.6000 J0.0000 F1170.00
G2 X139.4000 Y12.0364 Z-2.9688 I-0.6000 J0.0000 F1170.00
G2 X140.6000 Y12.0364 Z-3.5625 I0.6000 J0.0000 F1170.00
G2 X139.4000 Y12.0364 Z-4.1562 I-0.6000 J0.0000 F1170.00
G2 X140.6000 Y12.0364 Z-4.7500 I0.6000 J0.0000 F1170.00
G2 X139.4000 Y12.0364 Z-5.3438 I-0.6000 J0.0000 F1170.00
G2 X140.6000 Y12.0364 Z-5.9375 I0.6000 J0.0000 F1170.00
G2 X139.4000 Y12.0364 Z-6.5312 I-0.6000 J0.0000 F1170.00
G2 X140.6000 Y12.0364 Z-7.1250 I0.6000 J0.0000 F1170.00
G2 X139.4000 Y12.0364 Z-7.7188 I-0.6000 J0.0000 F1170.00
G2 X140.6000 Y12.0364 Z-8.3125 I0.6000 J0.0000 F1170.00
G2 X139.4000 Y12.0364 Z-8.9062 I-0.6000 J0.0000 F1170.00
G2 X140.6000 Y12.0364 Z-9.5000 I0.6000 J0.0000 F1170.00
G2 X139.4000 Y12.0364 Z-10.0938 I-0.6000 J0.0000 F1170.00
G2 X140.6000 Y12.0364 Z-10.6875 I0.6000 J0.0000 F1170.00
G2 X139.4000 Y12.0364 Z-11.2812 I-0.6000 J0.0000 F1170.00
G2 X140.6000 Y12.0364 Z-11.8750 I0.6000 J0.0000 F1170.00
G2 X139.4000 Y12.0364 Z-12.4688 I-0.6000 J0.0000 F1170.00
G2 X140.6000 Y12.0364 Z-13.0625 I0.6000 J0.0000 F1170.00
G2 X139.4000 Y12.0364 Z-13.6562 I-0.6000 J0.0000 F1170.00
G2 X140.6000 Y12.0364 Z-14.2500 I0.6000 J0.0000 F1170.00
G2 X139.4000 Y12.0364 Z-14.8438 I-0.6000 J0.0000 F1170.00
G2 X140.6000 Y12.0364 Z-15.4375 I0.6000 J0.0000 F1170.00
G2 X139.4000 Y12.0364 Z-16.0312 I-0.6000 J0.0000 F1170.00
G2 X140.6000 Y12.0364 Z-16.6250 I0.6000 J0.0000 F1170.00
G2 X139.4000 Y12.0364 Z-17.2188 I-0.6000 J0.0000 F1170.00
G2 X140.6000 Y12.0364 Z-17.8125 I0.6000 J0.0000 F1170.00
G2 X139.4000 Y12.0364 Z-18.4062 I-0.6000 J0.0000 F1170.00
G2 X140.6000 Y12.0364 Z-19.0000 I0.6000 J0.0000 F1170.00
G2 X139.4000 Y12.0364 Z-19.0000 I-0.6000 J0.0000 F1170.00
G2 X140.6000 Y12.0364 Z-19.0000 I0.6000 J0.0000 F1170.00
G0 Z3.0000
G0 X140.6000 Y267.0364
G0 Z3.0000
G1 Z0.0000 F1170.00
G2 X139.4000 Y267.0364 Z-0.5938 I-0.6000 J0.0000 F1170.00
G2 X140.6000 Y267.0364 Z-1.1875 I0.6000 J0.0000 F1170.00
G2 X139.4000 Y267.0364 Z-1.7812 I-0.6000 J0.0000 F1170.00
G2 X140.6000 Y267.0364 Z-2.3750 I0.6000 J0.0000 F1170.00
G2 X139.4000 Y267.0364 Z-2.9688 I-0.6000 J0.0000 F1170.00
G2 X140.6000 Y267.0364 Z-3.5625 I0.6000 J0.0000 F1170.00
G2 X139.4000 Y267.0364 Z-4.1562 I-0.6000 J0.0000 F1170.00
G2 X140.6000 Y267.0364 Z-4.7500 I0.6000 J0.0000 F1170.00
G2 X139.4000 Y267.0364 Z-5.3438 I-0.6000 J0.0000 F1170.00
G2 X140.6000 Y267.0364 Z-5.9375 I0.6000 J0.0000 F1170.00
G2 X139.4000 Y267.0364 Z-6.5312 I-0.6000 J0.0000 F1170.00
G2 X140.6000 Y267.0364 Z-7.1250 I0.6000 J0.0000 F1170.00
G2 X139.4000 Y267.0364 Z-7.7188 I-0.6000 J0.0000 F1170.00
G2 X140.6000 Y267.0364 Z-8.3125 I0.6000 J0.0000 F1170.00
G2 X139.4000 Y267.0364 Z-8.9062 I-0.6000 J0.0000 F1170.00
G2 X140.6000 Y267.0364 Z-9.5000 I0.6000 J0.0000 F1170.00
G2 X139.4000 Y267.0364 Z-10.0938 I-0.6000 J0.0000 F1170.00
G2 X140.6000 Y267.0364 Z-10.6875 I0.6000 J0.0000 F1170.00
G2 X139.4000 Y267.0364 Z-11.2812 I-0.6000 J0.0000 F1170.00
G2 X140.6000 Y267.0364 Z-11.8750 I0.6000 J0.0000 F1170.00
G2 X139.4000 Y267.0364 Z-12.4688 I-0.6000 J0.0000 F1170.00
G2 X140.6000 Y267.0364 Z-13.0625 I0.6000 J0.0000 F1170.00
G2 X139.4000 Y267.0364 Z-13.6562 I-0.6000 J0.0000 F1170.00
G2 X140.6000 Y267.0364 Z-14.2500 I0.6000 J0.0000 F1170.00
G2 X139.4000 Y267.0364 Z-14.8438 I-0.6000 J0.0000 F1170.00
G2 X140.6000 Y267.0364 Z-15.4375 I0.6000 J0.0000 F1170.00
G2 X139.4000 Y267.0364 Z-16.0312 I-0.6000 J0.0000 F1170.00
G2 X140.6000 Y267.0364 Z-16.6250 I0.6000 J0.0000 F1170.00
G2 X139.4000 Y267.0364 Z-17.2188 I-0.6000 J0.0000 F1170.00
G2 X140.6000 Y267.0364 Z-17.8125 I0.6000 J0.0000 F1170.00
G2 X139.4000 Y267.0364 Z-18.4062 I-0.6000 J0.0000 F1170.00
G2 X140.6000 Y267.0364 Z-19.0000 I0.6000 J0.0000 F1170.00
G2 X139.4000 Y267.0364 Z-19.0000 I-0.6000 J0.0000 F1170.00
G2 X140.6000 Y267.0364 Z-19.0000 I0.6000 J0.0000 F1170.00
G0 Z3.0000
G0 Z5.0000
(finish operation: Helix002)
(begin operation: Profile_Faces002)
(Path: Profile_Faces002)
(Profile_Faces002)
(Compensated Tool Path. Diameter: 6.0)
G0 Z5.0000
G0 X220.6100 Y220.1464
G0 Z3.0000
G1 X220.6100 Y220.1464 Z-1.2000 F1170.00
G2 X145.8686 Y25.6878 Z-1.2000 I-80.6100 J-80.6100 F1170.00
G2 X26.1514 Y133.6678 Z-1.2000 I-5.8686 J113.8486 F1170.00
G2 X134.1314 Y253.3850 Z-1.2000 I113.8486 J5.8686 F1170.00
G2 X220.6100 Y220.1464 Z-1.2000 I5.8686 J-113.8486 F1170.00
G1 X220.6100 Y220.1464 Z-2.4000 F1170.00
G2 X145.8686 Y25.6878 Z-2.4000 I-80.6100 J-80.6100 F1170.00
G2 X26.1514 Y133.6678 Z-2.4000 I-5.8686 J113.8486 F1170.00
G2 X134.1314 Y253.3850 Z-2.4000 I113.8486 J5.8686 F1170.00
G2 X220.6100 Y220.1464 Z-2.4000 I5.8686 J-113.8486 F1170.00
G1 X220.6100 Y220.1464 Z-3.6000 F1170.00
G2 X145.8686 Y25.6878 Z-3.6000 I-80.6100 J-80.6100 F1170.00
G2 X26.1514 Y133.6678 Z-3.6000 I-5.8686 J113.8486 F1170.00
G2 X134.1314 Y253.3850 Z-3.6000 I113.8486 J5.8686 F1170.00
G2 X220.6100 Y220.1464 Z-3.6000 I5.8686 J-113.8486 F1170.00
G1 X220.6100 Y220.1464 Z-4.8000 F1170.00
G2 X145.8686 Y25.6878 Z-4.8000 I-80.6100 J-80.6100 F1170.00
G2 X26.1514 Y133.6678 Z-4.8000 I-5.8686 J113.8486 F1170.00
G2 X134.1314 Y253.3850 Z-4.8000 I113.8486 J5.8686 F1170.00
G2 X220.6100 Y220.1464 Z-4.8000 I5.8686 J-113.8486 F1170.00
G1 X220.6100 Y220.1464 Z-6.0000 F1170.00
G2 X145.8686 Y25.6878 Z-6.0000 I-80.6100 J-80.6100 F1170.00
G2 X26.1514 Y133.6678 Z-6.0000 I-5.8686 J113.8486 F1170.00
G2 X134.1314 Y253.3850 Z-6.0000 I113.8486 J5.8686 F1170.00
G2 X220.6100 Y220.1464 Z-6.0000 I5.8686 J-113.8486 F1170.00
G1 X220.6100 Y220.1464 Z-7.2000 F1170.00
G2 X145.8686 Y25.6878 Z-7.2000 I-80.6100 J-80.6100 F1170.00
G2 X26.1514 Y133.6678 Z-7.2000 I-5.8686 J113.8486 F1170.00
G2 X134.1314 Y253.3850 Z-7.2000 I113.8486 J5.8686 F1170.00
G2 X220.6100 Y220.1464 Z-7.2000 I5.8686 J-113.8486 F1170.00
G1 X220.6100 Y220.1464 Z-8.4000 F1170.00
G2 X145.8686 Y25.6878 Z-8.4000 I-80.6100 J-80.6100 F1170.00
G2 X26.1514 Y133.6678 Z-8.4000 I-5.8686 J113.8486 F1170.00
G2 X134.1314 Y253.3850 Z-8.4000 I113.8486 J5.8686 F1170.00
G2 X220.6100 Y220.1464 Z-8.4000 I5.8686 J-113.8486 F1170.00
G1 X220.6100 Y220.1464 Z-9.6000 F1170.00
G2 X145.8686 Y25.6878 Z-9.6000 I-80.6100 J-80.6100 F1170.00
G2 X26.1514 Y133.6678 Z-9.6000 I-5.8686 J113.8486 F1170.00
G2 X134.1314 Y253.3850 Z-9.6000 I113.8486 J5.8686 F1170.00
G2 X220.6100 Y220.1464 Z-9.6000 I5.8686 J-113.8486 F1170.00
G1 X220.6100 Y220.1464 Z-10.8000 F1170.00
G2 X145.8686 Y25.6878 Z-10.8000 I-80.6100 J-80.6100 F1170.00
G2 X26.1514 Y133.6678 Z-10.8000 I-5.8686 J113.8486 F1170.00
G2 X134.1314 Y253.3850 Z-10.8000 I113.8486 J5.8686 F1170.00
G2 X220.6100 Y220.1464 Z-10.8000 I5.8686 J-113.8486 F1170.00
G1 X220.6100 Y220.1464 Z-12.0000 F1170.00
G2 X145.8686 Y25.6878 Z-12.0000 I-80.6100 J-80.6100 F1170.00
G2 X26.1514 Y133.6678 Z-12.0000 I-5.8686 J113.8486 F1170.00
G2 X134.1314 Y253.3850 Z-12.0000 I113.8486 J5.8686 F1170.00
G2 X220.6100 Y220.1464 Z-12.0000 I5.8686 J-113.8486 F1170.00
G1 X220.6100 Y220.1464 Z-13.2000 F1170.00
G2 X145.8686 Y25.6878 Z-13.2000 I-80.6100 J-80.6100 F1170.00
G2 X26.1514 Y133.6678 Z-13.2000 I-5.8686 J113.8486 F1170.00
G2 X134.1314 Y253.3850 Z-13.2000 I113.8486 J5.8686 F1170.00
G2 X220.6100 Y220.1464 Z-13.2000 I5.8686 J-113.8486 F1170.00
G1 X220.6100 Y220.1464 Z-14.4000 F1170.00
G2 X145.8686 Y25.6878 Z-14.4000 I-80.6100 J-80.6100 F1170.00
G2 X26.1514 Y133.6678 Z-14.4000 I-5.8686 J113.8486 F1170.00
G2 X134.1314 Y253.3850 Z-14.4000 I113.8486 J5.8686 F1170.00
G2 X220.6100 Y220.1464 Z-14.4000 I5.8686 J-113.8486 F1170.00
G1 X220.6100 Y220.1464 Z-15.6000 F1170.00
G2 X145.8686 Y25.6878 Z-15.6000 I-80.6100 J-80.6100 F1170.00
G2 X26.1514 Y133.6678 Z-15.6000 I-5.8686 J113.8486 F1170.00
G2 X134.1314 Y253.3850 Z-15.6000 I113.8486 J5.8686 F1170.00
G2 X220.6100 Y220.1464 Z-15.6000 I5.8686 J-113.8486 F1170.00
G1 X220.6100 Y220.1464 Z-16.8000 F1170.00
G2 X145.8686 Y25.6878 Z-16.8000 I-80.6100 J-80.6100 F1170.00
G2 X26.1514 Y133.6678 Z-16.8000 I-5.8686 J113.8486 F1170.00
G2 X134.1314 Y253.3850 Z-16.8000 I113.8486 J5.8686 F1170.00
G2 X220.6100 Y220.1464 Z-16.8000 I5.8686 J-113.8486 F1170.00
G1 X220.6100 Y220.1464 Z-18.0000 F1170.00
G2 X145.8686 Y25.6878 Z-18.0000 I-80.6100 J-80.6100 F1170.00
G2 X26.1514 Y133.6678 Z-18.0000 I-5.8686 J113.8486 F1170.00
G2 X134.1314 Y253.3850 Z-18.0000 I113.8486 J5.8686 F1170.00
G2 X220.6100 Y220.1464 Z-18.0000 I5.8686 J-113.8486 F1170.00
G1 X220.6100 Y220.1464 Z-19.2000 F1170.00
G2 X145.8686 Y25.6878 Z-19.2000 I-80.6100 J-80.6100 F1170.00
G2 X26.1514 Y133.6678 Z-19.2000 I-5.8686 J113.8486 F1170.00
G2 X134.1314 Y253.3850 Z-19.2000 I113.8486 J5.8686 F1170.00
G2 X220.6100 Y220.1464 Z-19.2000 I5.8686 J-113.8486 F1170.00
G1 X220.6100 Y220.1464 Z-19.5000 F1170.00
G2 X145.8686 Y25.6878 Z-19.5000 I-80.6100 J-80.6100 F1170.00
G2 X26.1514 Y133.6678 Z-19.5000 I-5.8686 J113.8486 F1170.00
G2 X134.1314 Y253.3850 Z-19.5000 I113.8486 J5.8686 F1170.00
G2 X220.6100 Y220.1464 Z-19.5000 I5.8686 J-113.8486 F1170.00
G0 Z5.0000
(finish operation: Profile_Faces002)
(begin operation: Contour002)
(Path: Contour002)
(Contour002)
(Compensated Tool Path. Diameter: 6.0)
G0 Z5.0000
G0 X241.1161 Y240.6525
G0 Z3.0000
G1 X241.1161 Y240.6525 Z-1.2000 F1170.00
G2 X146.8399 Y-3.2997 Z-1.2000 I-101.1161 J-101.1161 F1170.00
G2 X133.1601 Y282.3725 Z-1.2000 I-6.8399 J142.8361 F1170.00
G2 X241.1161 Y240.6525 Z-1.2000 I6.8399 J-142.8361 F1170.00
G1 X241.1161 Y240.6525 Z-2.4000 F1170.00
G2 X146.8399 Y-3.2997 Z-2.4000 I-101.1161 J-101.1161 F1170.00
G2 X133.1601 Y282.3725 Z-2.4000 I-6.8399 J142.8361 F1170.00
G2 X241.1161 Y240.6525 Z-2.4000 I6.8399 J-142.8361 F1170.00
G1 X241.1161 Y240.6525 Z-3.6000 F1170.00
G2 X146.8399 Y-3.2997 Z-3.6000 I-101.1161 J-101.1161 F1170.00
G2 X133.1601 Y282.3725 Z-3.6000 I-6.8399 J142.8361 F1170.00
G2 X241.1161 Y240.6525 Z-3.6000 I6.8399 J-142.8361 F1170.00
G1 X241.1161 Y240.6525 Z-4.8000 F1170.00
G2 X146.8399 Y-3.2997 Z-4.8000 I-101.1161 J-101.1161 F1170.00
G2 X133.1601 Y282.3725 Z-4.8000 I-6.8399 J142.8361 F1170.00
G2 X241.1161 Y240.6525 Z-4.8000 I6.8399 J-142.8361 F1170.00
G1 X241.1161 Y240.6525 Z-6.0000 F1170.00
G2 X146.8399 Y-3.2997 Z-6.0000 I-101.1161 J-101.1161 F1170.00
G2 X133.1601 Y282.3725 Z-6.0000 I-6.8399 J142.8361 F1170.00
G2 X241.1161 Y240.6525 Z-6.0000 I6.8399 J-142.8361 F1170.00
G1 X241.1161 Y240.6525 Z-7.2000 F1170.00
G2 X146.8399 Y-3.2997 Z-7.2000 I-101.1161 J-101.1161 F1170.00
G2 X133.1601 Y282.3725 Z-7.2000 I-6.8399 J142.8361 F1170.00
G2 X241.1161 Y240.6525 Z-7.2000 I6.8399 J-142.8361 F1170.00
G1 X241.1161 Y240.6525 Z-8.4000 F1170.00
G2 X146.8399 Y-3.2997 Z-8.4000 I-101.1161 J-101.1161 F1170.00
G2 X133.1601 Y282.3725 Z-8.4000 I-6.8399 J142.8361 F1170.00
G2 X241.1161 Y240.6525 Z-8.4000 I6.8399 J-142.8361 F1170.00
G1 X241.1161 Y240.6525 Z-9.6000 F1170.00
G2 X146.8399 Y-3.2997 Z-9.6000 I-101.1161 J-101.1161 F1170.00
G2 X133.1601 Y282.3725 Z-9.6000 I-6.8399 J142.8361 F1170.00
G2 X241.1161 Y240.6525 Z-9.6000 I6.8399 J-142.8361 F1170.00
G1 X241.1161 Y240.6525 Z-10.8000 F1170.00
G2 X146.8399 Y-3.2997 Z-10.8000 I-101.1161 J-101.1161 F1170.00
G2 X133.1601 Y282.3725 Z-10.8000 I-6.8399 J142.8361 F1170.00
G2 X241.1161 Y240.6525 Z-10.8000 I6.8399 J-142.8361 F1170.00
G1 X241.1161 Y240.6525 Z-12.0000 F1170.00
G2 X146.8399 Y-3.2997 Z-12.0000 I-101.1161 J-101.1161 F1170.00
G2 X133.1601 Y282.3725 Z-12.0000 I-6.8399 J142.8361 F1170.00
G2 X241.1161 Y240.6525 Z-12.0000 I6.8399 J-142.8361 F1170.00
G1 X241.1161 Y240.6525 Z-13.2000 F1170.00
G2 X146.8399 Y-3.2997 Z-13.2000 I-101.1161 J-101.1161 F1170.00
G2 X133.1601 Y282.3725 Z-13.2000 I-6.8399 J142.8361 F1170.00
G2 X241.1161 Y240.6525 Z-13.2000 I6.8399 J-142.8361 F1170.00
G1 X241.1161 Y240.6525 Z-14.4000 F1170.00
G2 X146.8399 Y-3.2997 Z-14.4000 I-101.1161 J-101.1161 F1170.00
G2 X133.1601 Y282.3725 Z-14.4000 I-6.8399 J142.8361 F1170.00
G2 X241.1161 Y240.6525 Z-14.4000 I6.8399 J-142.8361 F1170.00
G1 X241.1161 Y240.6525 Z-15.6000 F1170.00
G2 X146.8399 Y-3.2997 Z-15.6000 I-101.1161 J-101.1161 F1170.00
G2 X133.1601 Y282.3725 Z-15.6000 I-6.8399 J142.8361 F1170.00
G2 X241.1161 Y240.6525 Z-15.6000 I6.8399 J-142.8361 F1170.00
G1 X241.1161 Y240.6525 Z-16.8000 F1170.00
G2 X146.8399 Y-3.2997 Z-16.8000 I-101.1161 J-101.1161 F1170.00
G2 X133.1601 Y282.3725 Z-16.8000 I-6.8399 J142.8361 F1170.00
G2 X241.1161 Y240.6525 Z-16.8000 I6.8399 J-142.8361 F1170.00
G1 X241.1161 Y240.6525 Z-18.0000 F1170.00
G2 X146.8399 Y-3.2997 Z-18.0000 I-101.1161 J-101.1161 F1170.00
G2 X133.1601 Y282.3725 Z-18.0000 I-6.8399 J142.8361 F1170.00
G2 X241.1161 Y240.6525 Z-18.0000 I6.8399 J-142.8361 F1170.00
G1 X241.1161 Y240.6525 Z-19.2000 F1170.00
G2 X146.8399 Y-3.2997 Z-19.2000 I-101.1161 J-101.1161 F1170.00
G2 X133.1601 Y282.3725 Z-19.2000 I-6.8399 J142.8361 F1170.00
G2 X241.1161 Y240.6525 Z-19.2000 I6.8399 J-142.8361 F1170.00
G1 X241.1161 Y240.6525 Z-19.5000 F1170.00
G2 X146.8399 Y-3.2997 Z-19.5000 I-101.1161 J-101.1161 F1170.00
G2 X133.1601 Y282.3725 Z-19.5000 I-6.8399 J142.8361 F1170.00
G2 X241.1161 Y240.6525 Z-19.5000 I6.8399 J-142.8361 F1170.00
G0 Z5.0000
(finish operation: Contour002)
(begin postamble)
M5
G17 G90
; M2
