(Exported by FreeCAD)
(Post Processor: grbl_post)
(Output Time:2021-12-28 01:12:35.187872)
(begin preamble)
G17 G90
G21
(begin operation: T2: 1/4inENDMILL001)
(Path: T2: 1/4inENDMILL001)
(T2: 1/4inENDMILL001)
(begin toolchange)
; M6 T2
M3 S0.0000
(finish operation: T2: 1/4inENDMILL001)
(begin operation: Helix001)
(Path: Helix001)
(Helix001)
(helix cut operation)
G0 Z5.0000
G0 X13.1000 Y139.5218
G0 Z3.0000
G1 Z0.0000 F1140.00
G2 X11.9000 Y139.5218 Z-0.5938 I-0.6000 J0.0000 F1140.00
G2 X13.1000 Y139.5218 Z-1.1875 I0.6000 J0.0000 F1140.00
G2 X11.9000 Y139.5218 Z-1.7812 I-0.6000 J0.0000 F1140.00
G2 X13.1000 Y139.5218 Z-2.3750 I0.6000 J0.0000 F1140.00
G2 X11.9000 Y139.5218 Z-2.9688 I-0.6000 J0.0000 F1140.00
G2 X13.1000 Y139.5218 Z-3.5625 I0.6000 J0.0000 F1140.00
G2 X11.9000 Y139.5218 Z-4.1562 I-0.6000 J0.0000 F1140.00
G2 X13.1000 Y139.5218 Z-4.7500 I0.6000 J0.0000 F1140.00
G2 X11.9000 Y139.5218 Z-5.3438 I-0.6000 J0.0000 F1140.00
G2 X13.1000 Y139.5218 Z-5.9375 I0.6000 J0.0000 F1140.00
G2 X11.9000 Y139.5218 Z-6.5312 I-0.6000 J0.0000 F1140.00
G2 X13.1000 Y139.5218 Z-7.1250 I0.6000 J0.0000 F1140.00
G2 X11.9000 Y139.5218 Z-7.7188 I-0.6000 J0.0000 F1140.00
G2 X13.1000 Y139.5218 Z-8.3125 I0.6000 J0.0000 F1140.00
G2 X11.9000 Y139.5218 Z-8.9062 I-0.6000 J0.0000 F1140.00
G2 X13.1000 Y139.5218 Z-9.5000 I0.6000 J0.0000 F1140.00
G2 X11.9000 Y139.5218 Z-10.0938 I-0.6000 J0.0000 F1140.00
G2 X13.1000 Y139.5218 Z-10.6875 I0.6000 J0.0000 F1140.00
G2 X11.9000 Y139.5218 Z-11.2812 I-0.6000 J0.0000 F1140.00
G2 X13.1000 Y139.5218 Z-11.8750 I0.6000 J0.0000 F1140.00
G2 X11.9000 Y139.5218 Z-12.4688 I-0.6000 J0.0000 F1140.00
G2 X13.1000 Y139.5218 Z-13.0625 I0.6000 J0.0000 F1140.00
G2 X11.9000 Y139.5218 Z-13.6562 I-0.6000 J0.0000 F1140.00
G2 X13.1000 Y139.5218 Z-14.2500 I0.6000 J0.0000 F1140.00
G2 X11.9000 Y139.5218 Z-14.8438 I-0.6000 J0.0000 F1140.00
G2 X13.1000 Y139.5218 Z-15.4375 I0.6000 J0.0000 F1140.00
G2 X11.9000 Y139.5218 Z-16.0312 I-0.6000 J0.0000 F1140.00
G2 X13.1000 Y139.5218 Z-16.6250 I0.6000 J0.0000 F1140.00
G2 X11.9000 Y139.5218 Z-17.2188 I-0.6000 J0.0000 F1140.00
G2 X13.1000 Y139.5218 Z-17.8125 I0.6000 J0.0000 F1140.00
G2 X11.9000 Y139.5218 Z-18.4062 I-0.6000 J0.0000 F1140.00
G2 X13.1000 Y139.5218 Z-19.0000 I0.6000 J0.0000 F1140.00
G2 X11.9000 Y139.5218 Z-19.0000 I-0.6000 J0.0000 F1140.00
G2 X13.1000 Y139.5218 Z-19.0000 I0.6000 J0.0000 F1140.00
G0 Z3.0000
G0 X140.6000 Y267.0218
G0 Z3.0000
G1 Z0.0000 F1140.00
G2 X139.4000 Y267.0218 Z-0.5938 I-0.6000 J0.0000 F1140.00
G2 X140.6000 Y267.0218 Z-1.1875 I0.6000 J0.0000 F1140.00
G2 X139.4000 Y267.0218 Z-1.7812 I-0.6000 J0.0000 F1140.00
G2 X140.6000 Y267.0218 Z-2.3750 I0.6000 J0.0000 F1140.00
G2 X139.4000 Y267.0218 Z-2.9688 I-0.6000 J0.0000 F1140.00
G2 X140.6000 Y267.0218 Z-3.5625 I0.6000 J0.0000 F1140.00
G2 X139.4000 Y267.0218 Z-4.1562 I-0.6000 J0.0000 F1140.00
G2 X140.6000 Y267.0218 Z-4.7500 I0.6000 J0.0000 F1140.00
G2 X139.4000 Y267.0218 Z-5.3438 I-0.6000 J0.0000 F1140.00
G2 X140.6000 Y267.0218 Z-5.9375 I0.6000 J0.0000 F1140.00
G2 X139.4000 Y267.0218 Z-6.5312 I-0.6000 J0.0000 F1140.00
G2 X140.6000 Y267.0218 Z-7.1250 I0.6000 J0.0000 F1140.00
G2 X139.4000 Y267.0218 Z-7.7188 I-0.6000 J0.0000 F1140.00
G2 X140.6000 Y267.0218 Z-8.3125 I0.6000 J0.0000 F1140.00
G2 X139.4000 Y267.0218 Z-8.9062 I-0.6000 J0.0000 F1140.00
G2 X140.6000 Y267.0218 Z-9.5000 I0.6000 J0.0000 F1140.00
G2 X139.4000 Y267.0218 Z-10.0938 I-0.6000 J0.0000 F1140.00
G2 X140.6000 Y267.0218 Z-10.6875 I0.6000 J0.0000 F1140.00
G2 X139.4000 Y267.0218 Z-11.2812 I-0.6000 J0.0000 F1140.00
G2 X140.6000 Y267.0218 Z-11.8750 I0.6000 J0.0000 F1140.00
G2 X139.4000 Y267.0218 Z-12.4688 I-0.6000 J0.0000 F1140.00
G2 X140.6000 Y267.0218 Z-13.0625 I0.6000 J0.0000 F1140.00
G2 X139.4000 Y267.0218 Z-13.6562 I-0.6000 J0.0000 F1140.00
G2 X140.6000 Y267.0218 Z-14.2500 I0.6000 J0.0000 F1140.00
G2 X139.4000 Y267.0218 Z-14.8438 I-0.6000 J0.0000 F1140.00
G2 X140.6000 Y267.0218 Z-15.4375 I0.6000 J0.0000 F1140.00
G2 X139.4000 Y267.0218 Z-16.0312 I-0.6000 J0.0000 F1140.00
G2 X140.6000 Y267.0218 Z-16.6250 I0.6000 J0.0000 F1140.00
G2 X139.4000 Y267.0218 Z-17.2188 I-0.6000 J0.0000 F1140.00
G2 X140.6000 Y267.0218 Z-17.8125 I0.6000 J0.0000 F1140.00
G2 X139.4000 Y267.0218 Z-18.4062 I-0.6000 J0.0000 F1140.00
G2 X140.6000 Y267.0218 Z-19.0000 I0.6000 J0.0000 F1140.00
G2 X139.4000 Y267.0218 Z-19.0000 I-0.6000 J0.0000 F1140.00
G2 X140.6000 Y267.0218 Z-19.0000 I0.6000 J0.0000 F1140.00
G0 Z3.0000
G0 X268.1000 Y139.5218
G0 Z3.0000
G1 Z0.0000 F1140.00
G2 X266.9000 Y139.5218 Z-0.5938 I-0.6000 J0.0000 F1140.00
G2 X268.1000 Y139.5218 Z-1.1875 I0.6000 J0.0000 F1140.00
G2 X266.9000 Y139.5218 Z-1.7812 I-0.6000 J0.0000 F1140.00
G2 X268.1000 Y139.5218 Z-2.3750 I0.6000 J0.0000 F1140.00
G2 X266.9000 Y139.5218 Z-2.9688 I-0.6000 J0.0000 F1140.00
G2 X268.1000 Y139.5218 Z-3.5625 I0.6000 J0.0000 F1140.00
G2 X266.9000 Y139.5218 Z-4.1562 I-0.6000 J0.0000 F1140.00
G2 X268.1000 Y139.5218 Z-4.7500 I0.6000 J0.0000 F1140.00
G2 X266.9000 Y139.5218 Z-5.3438 I-0.6000 J0.0000 F1140.00
G2 X268.1000 Y139.5218 Z-5.9375 I0.6000 J0.0000 F1140.00
G2 X266.9000 Y139.5218 Z-6.5312 I-0.6000 J0.0000 F1140.00
G2 X268.1000 Y139.5218 Z-7.1250 I0.6000 J0.0000 F1140.00
G2 X266.9000 Y139.5218 Z-7.7188 I-0.6000 J0.0000 F1140.00
G2 X268.1000 Y139.5218 Z-8.3125 I0.6000 J0.0000 F1140.00
G2 X266.9000 Y139.5218 Z-8.9062 I-0.6000 J0.0000 F1140.00
G2 X268.1000 Y139.5218 Z-9.5000 I0.6000 J0.0000 F1140.00
G2 X266.9000 Y139.5218 Z-10.0938 I-0.6000 J0.0000 F1140.00
G2 X268.1000 Y139.5218 Z-10.6875 I0.6000 J0.0000 F1140.00
G2 X266.9000 Y139.5218 Z-11.2812 I-0.6000 J0.0000 F1140.00
G2 X268.1000 Y139.5218 Z-11.8750 I0.6000 J0.0000 F1140.00
G2 X266.9000 Y139.5218 Z-12.4688 I-0.6000 J0.0000 F1140.00
G2 X268.1000 Y139.5218 Z-13.0625 I0.6000 J0.0000 F1140.00
G2 X266.9000 Y139.5218 Z-13.6562 I-0.6000 J0.0000 F1140.00
G2 X268.1000 Y139.5218 Z-14.2500 I0.6000 J0.0000 F1140.00
G2 X266.9000 Y139.5218 Z-14.8438 I-0.6000 J0.0000 F1140.00
G2 X268.1000 Y139.5218 Z-15.4375 I0.6000 J0.0000 F1140.00
G2 X266.9000 Y139.5218 Z-16.0312 I-0.6000 J0.0000 F1140.00
G2 X268.1000 Y139.5218 Z-16.6250 I0.6000 J0.0000 F1140.00
G2 X266.9000 Y139.5218 Z-17.2188 I-0.6000 J0.0000 F1140.00
G2 X268.1000 Y139.5218 Z-17.8125 I0.6000 J0.0000 F1140.00
G2 X266.9000 Y139.5218 Z-18.4062 I-0.6000 J0.0000 F1140.00
G2 X268.1000 Y139.5218 Z-19.0000 I0.6000 J0.0000 F1140.00
G2 X266.9000 Y139.5218 Z-19.0000 I-0.6000 J0.0000 F1140.00
G2 X268.1000 Y139.5218 Z-19.0000 I0.6000 J0.0000 F1140.00
G0 Z3.0000
G0 X140.6000 Y12.0218
G0 Z3.0000
G1 Z0.0000 F1140.00
G2 X139.4000 Y12.0218 Z-0.5938 I-0.6000 J0.0000 F1140.00
G2 X140.6000 Y12.0218 Z-1.1875 I0.6000 J0.0000 F1140.00
G2 X139.4000 Y12.0218 Z-1.7812 I-0.6000 J0.0000 F1140.00
G2 X140.6000 Y12.0218 Z-2.3750 I0.6000 J0.0000 F1140.00
G2 X139.4000 Y12.0218 Z-2.9688 I-0.6000 J0.0000 F1140.00
G2 X140.6000 Y12.0218 Z-3.5625 I0.6000 J0.0000 F1140.00
G2 X139.4000 Y12.0218 Z-4.1562 I-0.6000 J0.0000 F1140.00
G2 X140.6000 Y12.0218 Z-4.7500 I0.6000 J0.0000 F1140.00
G2 X139.4000 Y12.0218 Z-5.3438 I-0.6000 J0.0000 F1140.00
G2 X140.6000 Y12.0218 Z-5.9375 I0.6000 J0.0000 F1140.00
G2 X139.4000 Y12.0218 Z-6.5312 I-0.6000 J0.0000 F1140.00
G2 X140.6000 Y12.0218 Z-7.1250 I0.6000 J0.0000 F1140.00
G2 X139.4000 Y12.0218 Z-7.7188 I-0.6000 J0.0000 F1140.00
G2 X140.6000 Y12.0218 Z-8.3125 I0.6000 J0.0000 F1140.00
G2 X139.4000 Y12.0218 Z-8.9062 I-0.6000 J0.0000 F1140.00
G2 X140.6000 Y12.0218 Z-9.5000 I0.6000 J0.0000 F1140.00
G2 X139.4000 Y12.0218 Z-10.0938 I-0.6000 J0.0000 F1140.00
G2 X140.6000 Y12.0218 Z-10.6875 I0.6000 J0.0000 F1140.00
G2 X139.4000 Y12.0218 Z-11.2812 I-0.6000 J0.0000 F1140.00
G2 X140.6000 Y12.0218 Z-11.8750 I0.6000 J0.0000 F1140.00
G2 X139.4000 Y12.0218 Z-12.4688 I-0.6000 J0.0000 F1140.00
G2 X140.6000 Y12.0218 Z-13.0625 I0.6000 J0.0000 F1140.00
G2 X139.4000 Y12.0218 Z-13.6562 I-0.6000 J0.0000 F1140.00
G2 X140.6000 Y12.0218 Z-14.2500 I0.6000 J0.0000 F1140.00
G2 X139.4000 Y12.0218 Z-14.8438 I-0.6000 J0.0000 F1140.00
G2 X140.6000 Y12.0218 Z-15.4375 I0.6000 J0.0000 F1140.00
G2 X139.4000 Y12.0218 Z-16.0312 I-0.6000 J0.0000 F1140.00
G2 X140.6000 Y12.0218 Z-16.6250 I0.6000 J0.0000 F1140.00
G2 X139.4000 Y12.0218 Z-17.2188 I-0.6000 J0.0000 F1140.00
G2 X140.6000 Y12.0218 Z-17.8125 I0.6000 J0.0000 F1140.00
G2 X139.4000 Y12.0218 Z-18.4062 I-0.6000 J0.0000 F1140.00
G2 X140.6000 Y12.0218 Z-19.0000 I0.6000 J0.0000 F1140.00
G2 X139.4000 Y12.0218 Z-19.0000 I-0.6000 J0.0000 F1140.00
G2 X140.6000 Y12.0218 Z-19.0000 I0.6000 J0.0000 F1140.00
G0 Z3.0000
G0 Z5.0000
(finish operation: Helix001)
(begin operation: Profile_Faces001)
(Path: Profile_Faces001)
(Profile_Faces001)
(Compensated Tool Path. Diameter: 6.0)
G0 Z5.0000
G0 X220.6100 Y220.1318
G0 Z3.0000
G1 X220.6100 Y220.1318 Z-1.2000 F1140.00
G2 X144.4144 Y25.6076 Z-1.2000 I-80.6100 J-80.6100 F1140.00
G2 X135.5856 Y253.4361 Z-1.2000 I-4.4144 J113.9143 F1140.00
G2 X220.6100 Y220.1318 Z-1.2000 I4.4144 J-113.9143 F1140.00
G1 X220.6100 Y220.1318 Z-2.4000 F1140.00
G2 X144.4144 Y25.6076 Z-2.4000 I-80.6100 J-80.6100 F1140.00
G2 X135.5856 Y253.4361 Z-2.4000 I-4.4144 J113.9143 F1140.00
G2 X220.6100 Y220.1318 Z-2.4000 I4.4144 J-113.9143 F1140.00
G1 X220.6100 Y220.1318 Z-3.6000 F1140.00
G2 X144.4144 Y25.6076 Z-3.6000 I-80.6100 J-80.6100 F1140.00
G2 X135.5856 Y253.4361 Z-3.6000 I-4.4144 J113.9143 F1140.00
G2 X220.6100 Y220.1318 Z-3.6000 I4.4144 J-113.9143 F1140.00
G1 X220.6100 Y220.1318 Z-4.8000 F1140.00
G2 X144.4144 Y25.6076 Z-4.8000 I-80.6100 J-80.6100 F1140.00
G2 X135.5856 Y253.4361 Z-4.8000 I-4.4144 J113.9143 F1140.00
G2 X220.6100 Y220.1318 Z-4.8000 I4.4144 J-113.9143 F1140.00
G1 X220.6100 Y220.1318 Z-6.0000 F1140.00
G2 X144.4144 Y25.6076 Z-6.0000 I-80.6100 J-80.6100 F1140.00
G2 X135.5856 Y253.4361 Z-6.0000 I-4.4144 J113.9143 F1140.00
G2 X220.6100 Y220.1318 Z-6.0000 I4.4144 J-113.9143 F1140.00
G1 X220.6100 Y220.1318 Z-7.2000 F1140.00
G2 X144.4144 Y25.6076 Z-7.2000 I-80.6100 J-80.6100 F1140.00
G2 X135.5856 Y253.4361 Z-7.2000 I-4.4144 J113.9143 F1140.00
G2 X220.6100 Y220.1318 Z-7.2000 I4.4144 J-113.9143 F1140.00
G1 X220.6100 Y220.1318 Z-8.4000 F1140.00
G2 X144.4144 Y25.6076 Z-8.4000 I-80.6100 J-80.6100 F1140.00
G2 X135.5856 Y253.4361 Z-8.4000 I-4.4144 J113.9143 F1140.00
G2 X220.6100 Y220.1318 Z-8.4000 I4.4144 J-113.9143 F1140.00
G1 X220.6100 Y220.1318 Z-9.6000 F1140.00
G2 X144.4144 Y25.6076 Z-9.6000 I-80.6100 J-80.6100 F1140.00
G2 X135.5856 Y253.4361 Z-9.6000 I-4.4144 J113.9143 F1140.00
G2 X220.6100 Y220.1318 Z-9.6000 I4.4144 J-113.9143 F1140.00
G1 X220.6100 Y220.1318 Z-10.8000 F1140.00
G2 X144.4144 Y25.6076 Z-10.8000 I-80.6100 J-80.6100 F1140.00
G2 X135.5856 Y253.4361 Z-10.8000 I-4.4144 J113.9143 F1140.00
G2 X220.6100 Y220.1318 Z-10.8000 I4.4144 J-113.9143 F1140.00
G1 X220.6100 Y220.1318 Z-12.0000 F1140.00
G2 X144.4144 Y25.6076 Z-12.0000 I-80.6100 J-80.6100 F1140.00
G2 X135.5856 Y253.4361 Z-12.0000 I-4.4144 J113.9143 F1140.00
G2 X220.6100 Y220.1318 Z-12.0000 I4.4144 J-113.9143 F1140.00
G1 X220.6100 Y220.1318 Z-13.2000 F1140.00
G2 X144.4144 Y25.6076 Z-13.2000 I-80.6100 J-80.6100 F1140.00
G2 X135.5856 Y253.4361 Z-13.2000 I-4.4144 J113.9143 F1140.00
G2 X220.6100 Y220.1318 Z-13.2000 I4.4144 J-113.9143 F1140.00
G1 X220.6100 Y220.1318 Z-14.4000 F1140.00
G2 X144.4144 Y25.6076 Z-14.4000 I-80.6100 J-80.6100 F1140.00
G2 X135.5856 Y253.4361 Z-14.4000 I-4.4144 J113.9143 F1140.00
G2 X220.6100 Y220.1318 Z-14.4000 I4.4144 J-113.9143 F1140.00
G1 X220.6100 Y220.1318 Z-15.6000 F1140.00
G2 X144.4144 Y25.6076 Z-15.6000 I-80.6100 J-80.6100 F1140.00
G2 X135.5856 Y253.4361 Z-15.6000 I-4.4144 J113.9143 F1140.00
G2 X220.6100 Y220.1318 Z-15.6000 I4.4144 J-113.9143 F1140.00
G1 X220.6100 Y220.1318 Z-16.8000 F1140.00
G2 X144.4144 Y25.6076 Z-16.8000 I-80.6100 J-80.6100 F1140.00
G2 X135.5856 Y253.4361 Z-16.8000 I-4.4144 J113.9143 F1140.00
G2 X220.6100 Y220.1318 Z-16.8000 I4.4144 J-113.9143 F1140.00
G1 X220.6100 Y220.1318 Z-18.0000 F1140.00
G2 X144.4144 Y25.6076 Z-18.0000 I-80.6100 J-80.6100 F1140.00
G2 X135.5856 Y253.4361 Z-18.0000 I-4.4144 J113.9143 F1140.00
G2 X220.6100 Y220.1318 Z-18.0000 I4.4144 J-113.9143 F1140.00
G1 X220.6100 Y220.1318 Z-19.2000 F1140.00
G2 X144.4144 Y25.6076 Z-19.2000 I-80.6100 J-80.6100 F1140.00
G2 X135.5856 Y253.4361 Z-19.2000 I-4.4144 J113.9143 F1140.00
G2 X220.6100 Y220.1318 Z-19.2000 I4.4144 J-113.9143 F1140.00
G1 X220.6100 Y220.1318 Z-19.5000 F1140.00
G2 X144.4144 Y25.6076 Z-19.5000 I-80.6100 J-80.6100 F1140.00
G2 X135.5856 Y253.4361 Z-19.5000 I-4.4144 J113.9143 F1140.00
G2 X220.6100 Y220.1318 Z-19.5000 I4.4144 J-113.9143 F1140.00
G0 Z5.0000
(finish operation: Profile_Faces001)
(begin operation: Contour001)
(Path: Contour001)
(Contour001)
(Compensated Tool Path. Diameter: 6.0)
G0 Z5.0000
G0 X241.1161 Y240.6380
G0 Z3.0000
G1 X241.1161 Y240.6380 Z-1.2000 F1140.00
G2 X146.8399 Y-3.3143 Z-1.2000 I-101.1161 J-101.1161 F1140.00
G2 X133.1601 Y282.3579 Z-1.2000 I-6.8399 J142.8361 F1140.00
G2 X241.1161 Y240.6380 Z-1.2000 I6.8399 J-142.8361 F1140.00
G1 X241.1161 Y240.6380 Z-2.4000 F1140.00
G2 X146.8399 Y-3.3143 Z-2.4000 I-101.1161 J-101.1161 F1140.00
G2 X133.1601 Y282.3579 Z-2.4000 I-6.8399 J142.8361 F1140.00
G2 X241.1161 Y240.6380 Z-2.4000 I6.8399 J-142.8361 F1140.00
G1 X241.1161 Y240.6380 Z-3.6000 F1140.00
G2 X146.8399 Y-3.3143 Z-3.6000 I-101.1161 J-101.1161 F1140.00
G2 X133.1601 Y282.3579 Z-3.6000 I-6.8399 J142.8361 F1140.00
G2 X241.1161 Y240.6380 Z-3.6000 I6.8399 J-142.8361 F1140.00
G1 X241.1161 Y240.6380 Z-4.8000 F1140.00
G2 X146.8399 Y-3.3143 Z-4.8000 I-101.1161 J-101.1161 F1140.00
G2 X133.1601 Y282.3579 Z-4.8000 I-6.8399 J142.8361 F1140.00
G2 X241.1161 Y240.6380 Z-4.8000 I6.8399 J-142.8361 F1140.00
G1 X241.1161 Y240.6380 Z-6.0000 F1140.00
G2 X146.8399 Y-3.3143 Z-6.0000 I-101.1161 J-101.1161 F1140.00
G2 X133.1601 Y282.3579 Z-6.0000 I-6.8399 J142.8361 F1140.00
G2 X241.1161 Y240.6380 Z-6.0000 I6.8399 J-142.8361 F1140.00
G1 X241.1161 Y240.6380 Z-7.2000 F1140.00
G2 X146.8399 Y-3.3143 Z-7.2000 I-101.1161 J-101.1161 F1140.00
G2 X133.1601 Y282.3579 Z-7.2000 I-6.8399 J142.8361 F1140.00
G2 X241.1161 Y240.6380 Z-7.2000 I6.8399 J-142.8361 F1140.00
G1 X241.1161 Y240.6380 Z-8.4000 F1140.00
G2 X146.8399 Y-3.3143 Z-8.4000 I-101.1161 J-101.1161 F1140.00
G2 X133.1601 Y282.3579 Z-8.4000 I-6.8399 J142.8361 F1140.00
G2 X241.1161 Y240.6380 Z-8.4000 I6.8399 J-142.8361 F1140.00
G1 X241.1161 Y240.6380 Z-9.6000 F1140.00
G2 X146.8399 Y-3.3143 Z-9.6000 I-101.1161 J-101.1161 F1140.00
G2 X133.1601 Y282.3579 Z-9.6000 I-6.8399 J142.8361 F1140.00
G2 X241.1161 Y240.6380 Z-9.6000 I6.8399 J-142.8361 F1140.00
G1 X241.1161 Y240.6380 Z-10.8000 F1140.00
G2 X146.8399 Y-3.3143 Z-10.8000 I-101.1161 J-101.1161 F1140.00
G2 X133.1601 Y282.3579 Z-10.8000 I-6.8399 J142.8361 F1140.00
G2 X241.1161 Y240.6380 Z-10.8000 I6.8399 J-142.8361 F1140.00
G1 X241.1161 Y240.6380 Z-12.0000 F1140.00
G2 X146.8399 Y-3.3143 Z-12.0000 I-101.1161 J-101.1161 F1140.00
G2 X133.1601 Y282.3579 Z-12.0000 I-6.8399 J142.8361 F1140.00
G2 X241.1161 Y240.6380 Z-12.0000 I6.8399 J-142.8361 F1140.00
G1 X241.1161 Y240.6380 Z-13.2000 F1140.00
G2 X146.8399 Y-3.3143 Z-13.2000 I-101.1161 J-101.1161 F1140.00
G2 X133.1601 Y282.3579 Z-13.2000 I-6.8399 J142.8361 F1140.00
G2 X241.1161 Y240.6380 Z-13.2000 I6.8399 J-142.8361 F1140.00
G1 X241.1161 Y240.6380 Z-14.4000 F1140.00
G2 X146.8399 Y-3.3143 Z-14.4000 I-101.1161 J-101.1161 F1140.00
G2 X133.1601 Y282.3579 Z-14.4000 I-6.8399 J142.8361 F1140.00
G2 X241.1161 Y240.6380 Z-14.4000 I6.8399 J-142.8361 F1140.00
G1 X241.1161 Y240.6380 Z-15.6000 F1140.00
G2 X146.8399 Y-3.3143 Z-15.6000 I-101.1161 J-101.1161 F1140.00
G2 X133.1601 Y282.3579 Z-15.6000 I-6.8399 J142.8361 F1140.00
G2 X241.1161 Y240.6380 Z-15.6000 I6.8399 J-142.8361 F1140.00
G1 X241.1161 Y240.6380 Z-16.8000 F1140.00
G2 X146.8399 Y-3.3143 Z-16.8000 I-101.1161 J-101.1161 F1140.00
G2 X133.1601 Y282.3579 Z-16.8000 I-6.8399 J142.8361 F1140.00
G2 X241.1161 Y240.6380 Z-16.8000 I6.8399 J-142.8361 F1140.00
G1 X241.1161 Y240.6380 Z-18.0000 F1140.00
G2 X146.8399 Y-3.3143 Z-18.0000 I-101.1161 J-101.1161 F1140.00
G2 X133.1601 Y282.3579 Z-18.0000 I-6.8399 J142.8361 F1140.00
G2 X241.1161 Y240.6380 Z-18.0000 I6.8399 J-142.8361 F1140.00
G1 X241.1161 Y240.6380 Z-19.2000 F1140.00
G2 X146.8399 Y-3.3143 Z-19.2000 I-101.1161 J-101.1161 F1140.00
G2 X133.1601 Y282.3579 Z-19.2000 I-6.8399 J142.8361 F1140.00
G2 X241.1161 Y240.6380 Z-19.2000 I6.8399 J-142.8361 F1140.00
G1 X241.1161 Y240.6380 Z-19.5000 F1140.00
G2 X146.8399 Y-3.3143 Z-19.5000 I-101.1161 J-101.1161 F1140.00
G2 X133.1601 Y282.3579 Z-19.5000 I-6.8399 J142.8361 F1140.00
G2 X241.1161 Y240.6380 Z-19.5000 I6.8399 J-142.8361 F1140.00
G0 Z5.0000
(finish operation: Contour001)
(begin postamble)
M5
G17 G90
; M2
