(Exported by FreeCAD)
(Post Processor: grbl_post)
(Output Time:2021-12-27 06:18:04.741418)
(begin preamble)
G17 G90
G21
(begin operation: T2: 1/4inENDMILL)
(Path: T2: 1/4inENDMILL)
(T2: 1/4inENDMILL)
(begin toolchange)
; M6 T2
M3 S0.0000
(finish operation: T2: 1/4inENDMILL)
(begin operation: Helix)
(Path: Helix)
(Helix)
(helix cut operation)
G0 Z5.0000
G0 X13.2000 Y139.5218
G0 Z3.0000
G1 Z0.0000 F1140.00
G2 X11.8000 Y139.5218 Z-0.5000 I-0.7000 J0.0000 F1140.00
G2 X13.2000 Y139.5218 Z-1.0000 I0.7000 J0.0000 F1140.00
G2 X11.8000 Y139.5218 Z-1.5000 I-0.7000 J0.0000 F1140.00
G2 X13.2000 Y139.5218 Z-2.0000 I0.7000 J0.0000 F1140.00
G2 X11.8000 Y139.5218 Z-2.5000 I-0.7000 J0.0000 F1140.00
G2 X13.2000 Y139.5218 Z-3.0000 I0.7000 J0.0000 F1140.00
G2 X11.8000 Y139.5218 Z-3.5000 I-0.7000 J0.0000 F1140.00
G2 X13.2000 Y139.5218 Z-4.0000 I0.7000 J0.0000 F1140.00
G2 X11.8000 Y139.5218 Z-4.5000 I-0.7000 J0.0000 F1140.00
G2 X13.2000 Y139.5218 Z-5.0000 I0.7000 J0.0000 F1140.00
G2 X11.8000 Y139.5218 Z-5.0000 I-0.7000 J0.0000 F1140.00
G2 X13.2000 Y139.5218 Z-5.0000 I0.7000 J0.0000 F1140.00
G0 Z3.0000
G0 X140.7000 Y267.0218
G0 Z3.0000
G1 Z0.0000 F1140.00
G2 X139.3000 Y267.0218 Z-0.5000 I-0.7000 J0.0000 F1140.00
G2 X140.7000 Y267.0218 Z-1.0000 I0.7000 J0.0000 F1140.00
G2 X139.3000 Y267.0218 Z-1.5000 I-0.7000 J0.0000 F1140.00
G2 X140.7000 Y267.0218 Z-2.0000 I0.7000 J0.0000 F1140.00
G2 X139.3000 Y267.0218 Z-2.5000 I-0.7000 J0.0000 F1140.00
G2 X140.7000 Y267.0218 Z-3.0000 I0.7000 J0.0000 F1140.00
G2 X139.3000 Y267.0218 Z-3.5000 I-0.7000 J0.0000 F1140.00
G2 X140.7000 Y267.0218 Z-4.0000 I0.7000 J0.0000 F1140.00
G2 X139.3000 Y267.0218 Z-4.5000 I-0.7000 J0.0000 F1140.00
G2 X140.7000 Y267.0218 Z-5.0000 I0.7000 J0.0000 F1140.00
G2 X139.3000 Y267.0218 Z-5.0000 I-0.7000 J0.0000 F1140.00
G2 X140.7000 Y267.0218 Z-5.0000 I0.7000 J0.0000 F1140.00
G0 Z3.0000
G0 X268.2000 Y139.5218
G0 Z3.0000
G1 Z0.0000 F1140.00
G2 X266.8000 Y139.5218 Z-0.5000 I-0.7000 J0.0000 F1140.00
G2 X268.2000 Y139.5218 Z-1.0000 I0.7000 J0.0000 F1140.00
G2 X266.8000 Y139.5218 Z-1.5000 I-0.7000 J0.0000 F1140.00
G2 X268.2000 Y139.5218 Z-2.0000 I0.7000 J0.0000 F1140.00
G2 X266.8000 Y139.5218 Z-2.5000 I-0.7000 J0.0000 F1140.00
G2 X268.2000 Y139.5218 Z-3.0000 I0.7000 J0.0000 F1140.00
G2 X266.8000 Y139.5218 Z-3.5000 I-0.7000 J0.0000 F1140.00
G2 X268.2000 Y139.5218 Z-4.0000 I0.7000 J0.0000 F1140.00
G2 X266.8000 Y139.5218 Z-4.5000 I-0.7000 J0.0000 F1140.00
G2 X268.2000 Y139.5218 Z-5.0000 I0.7000 J0.0000 F1140.00
G2 X266.8000 Y139.5218 Z-5.0000 I-0.7000 J0.0000 F1140.00
G2 X268.2000 Y139.5218 Z-5.0000 I0.7000 J0.0000 F1140.00
G0 Z3.0000
G0 X140.7000 Y12.0218
G0 Z3.0000
G1 Z0.0000 F1140.00
G2 X139.3000 Y12.0218 Z-0.5000 I-0.7000 J0.0000 F1140.00
G2 X140.7000 Y12.0218 Z-1.0000 I0.7000 J0.0000 F1140.00
G2 X139.3000 Y12.0218 Z-1.5000 I-0.7000 J0.0000 F1140.00
G2 X140.7000 Y12.0218 Z-2.0000 I0.7000 J0.0000 F1140.00
G2 X139.3000 Y12.0218 Z-2.5000 I-0.7000 J0.0000 F1140.00
G2 X140.7000 Y12.0218 Z-3.0000 I0.7000 J0.0000 F1140.00
G2 X139.3000 Y12.0218 Z-3.5000 I-0.7000 J0.0000 F1140.00
G2 X140.7000 Y12.0218 Z-4.0000 I0.7000 J0.0000 F1140.00
G2 X139.3000 Y12.0218 Z-4.5000 I-0.7000 J0.0000 F1140.00
G2 X140.7000 Y12.0218 Z-5.0000 I0.7000 J0.0000 F1140.00
G2 X139.3000 Y12.0218 Z-5.0000 I-0.7000 J0.0000 F1140.00
G2 X140.7000 Y12.0218 Z-5.0000 I0.7000 J0.0000 F1140.00
G0 Z3.0000
G0 Z5.0000
(finish operation: Helix)
(begin operation: Profile_Faces)
(Path: Profile_Faces)
(Profile_Faces)
(Compensated Tool Path. Diameter: 6.0)
G0 Z5.0000
G0 X220.6100 Y220.1318
G0 Z3.0000
G1 X220.6100 Y220.1318 Z-1.5000 F1140.00
G2 X144.4144 Y25.6076 Z-1.5000 I-80.6100 J-80.6100 F1140.00
G2 X135.5856 Y253.4361 Z-1.5000 I-4.4144 J113.9143 F1140.00
G2 X220.6100 Y220.1318 Z-1.5000 I4.4144 J-113.9143 F1140.00
G1 X220.6100 Y220.1318 Z-3.0000 F1140.00
G2 X144.4144 Y25.6076 Z-3.0000 I-80.6100 J-80.6100 F1140.00
G2 X135.5856 Y253.4361 Z-3.0000 I-4.4144 J113.9143 F1140.00
G2 X220.6100 Y220.1318 Z-3.0000 I4.4144 J-113.9143 F1140.00
G1 X220.6100 Y220.1318 Z-4.5000 F1140.00
G2 X144.4144 Y25.6076 Z-4.5000 I-80.6100 J-80.6100 F1140.00
G2 X135.5856 Y253.4361 Z-4.5000 I-4.4144 J113.9143 F1140.00
G2 X220.6100 Y220.1318 Z-4.5000 I4.4144 J-113.9143 F1140.00
G1 X220.6100 Y220.1318 Z-6.0000 F1140.00
G2 X144.4144 Y25.6076 Z-6.0000 I-80.6100 J-80.6100 F1140.00
G2 X135.5856 Y253.4361 Z-6.0000 I-4.4144 J113.9143 F1140.00
G2 X220.6100 Y220.1318 Z-6.0000 I4.4144 J-113.9143 F1140.00
G1 X220.6100 Y220.1318 Z-7.5000 F1140.00
G2 X144.4144 Y25.6076 Z-7.5000 I-80.6100 J-80.6100 F1140.00
G2 X135.5856 Y253.4361 Z-7.5000 I-4.4144 J113.9143 F1140.00
G2 X220.6100 Y220.1318 Z-7.5000 I4.4144 J-113.9143 F1140.00
G1 X220.6100 Y220.1318 Z-9.0000 F1140.00
G2 X144.4144 Y25.6076 Z-9.0000 I-80.6100 J-80.6100 F1140.00
G2 X135.5856 Y253.4361 Z-9.0000 I-4.4144 J113.9143 F1140.00
G2 X220.6100 Y220.1318 Z-9.0000 I4.4144 J-113.9143 F1140.00
G1 X220.6100 Y220.1318 Z-10.5000 F1140.00
G2 X144.4144 Y25.6076 Z-10.5000 I-80.6100 J-80.6100 F1140.00
G2 X135.5856 Y253.4361 Z-10.5000 I-4.4144 J113.9143 F1140.00
G2 X220.6100 Y220.1318 Z-10.5000 I4.4144 J-113.9143 F1140.00
G1 X220.6100 Y220.1318 Z-12.0000 F1140.00
G2 X144.4144 Y25.6076 Z-12.0000 I-80.6100 J-80.6100 F1140.00
G2 X135.5856 Y253.4361 Z-12.0000 I-4.4144 J113.9143 F1140.00
G2 X220.6100 Y220.1318 Z-12.0000 I4.4144 J-113.9143 F1140.00
G1 X220.6100 Y220.1318 Z-13.5000 F1140.00
G2 X144.4144 Y25.6076 Z-13.5000 I-80.6100 J-80.6100 F1140.00
G2 X135.5856 Y253.4361 Z-13.5000 I-4.4144 J113.9143 F1140.00
G2 X220.6100 Y220.1318 Z-13.5000 I4.4144 J-113.9143 F1140.00
G1 X220.6100 Y220.1318 Z-15.0000 F1140.00
G2 X144.4144 Y25.6076 Z-15.0000 I-80.6100 J-80.6100 F1140.00
G2 X135.5856 Y253.4361 Z-15.0000 I-4.4144 J113.9143 F1140.00
G2 X220.6100 Y220.1318 Z-15.0000 I4.4144 J-113.9143 F1140.00
G1 X220.6100 Y220.1318 Z-16.5000 F1140.00
G2 X144.4144 Y25.6076 Z-16.5000 I-80.6100 J-80.6100 F1140.00
G2 X135.5856 Y253.4361 Z-16.5000 I-4.4144 J113.9143 F1140.00
G2 X220.6100 Y220.1318 Z-16.5000 I4.4144 J-113.9143 F1140.00
G1 X220.6100 Y220.1318 Z-18.0000 F1140.00
G2 X144.4144 Y25.6076 Z-18.0000 I-80.6100 J-80.6100 F1140.00
G2 X135.5856 Y253.4361 Z-18.0000 I-4.4144 J113.9143 F1140.00
G2 X220.6100 Y220.1318 Z-18.0000 I4.4144 J-113.9143 F1140.00
G1 X220.6100 Y220.1318 Z-19.0000 F1140.00
G2 X144.4144 Y25.6076 Z-19.0000 I-80.6100 J-80.6100 F1140.00
G2 X135.5856 Y253.4361 Z-19.0000 I-4.4144 J113.9143 F1140.00
G2 X220.6100 Y220.1318 Z-19.0000 I4.4144 J-113.9143 F1140.00
G0 Z5.0000
(finish operation: Profile_Faces)
(begin operation: Contour)
(Path: Contour)
(Contour)
(Compensated Tool Path. Diameter: 6.0)
G0 Z5.0000
G0 X241.1161 Y240.6380
G0 Z3.0000
G1 X241.1161 Y240.6380 Z-1.5000 F1140.00
G2 X146.8399 Y-3.3143 Z-1.5000 I-101.1161 J-101.1161 F1140.00
G2 X133.1601 Y282.3579 Z-1.5000 I-6.8399 J142.8361 F1140.00
G2 X241.1161 Y240.6380 Z-1.5000 I6.8399 J-142.8361 F1140.00
G1 X241.1161 Y240.6380 Z-3.0000 F1140.00
G2 X146.8399 Y-3.3143 Z-3.0000 I-101.1161 J-101.1161 F1140.00
G2 X133.1601 Y282.3579 Z-3.0000 I-6.8399 J142.8361 F1140.00
G2 X241.1161 Y240.6380 Z-3.0000 I6.8399 J-142.8361 F1140.00
G1 X241.1161 Y240.6380 Z-4.5000 F1140.00
G2 X146.8399 Y-3.3143 Z-4.5000 I-101.1161 J-101.1161 F1140.00
G2 X133.1601 Y282.3579 Z-4.5000 I-6.8399 J142.8361 F1140.00
G2 X241.1161 Y240.6380 Z-4.5000 I6.8399 J-142.8361 F1140.00
G1 X241.1161 Y240.6380 Z-6.0000 F1140.00
G2 X146.8399 Y-3.3143 Z-6.0000 I-101.1161 J-101.1161 F1140.00
G2 X133.1601 Y282.3579 Z-6.0000 I-6.8399 J142.8361 F1140.00
G2 X241.1161 Y240.6380 Z-6.0000 I6.8399 J-142.8361 F1140.00
G1 X241.1161 Y240.6380 Z-7.5000 F1140.00
G2 X146.8399 Y-3.3143 Z-7.5000 I-101.1161 J-101.1161 F1140.00
G2 X133.1601 Y282.3579 Z-7.5000 I-6.8399 J142.8361 F1140.00
G2 X241.1161 Y240.6380 Z-7.5000 I6.8399 J-142.8361 F1140.00
G1 X241.1161 Y240.6380 Z-9.0000 F1140.00
G2 X146.8399 Y-3.3143 Z-9.0000 I-101.1161 J-101.1161 F1140.00
G2 X133.1601 Y282.3579 Z-9.0000 I-6.8399 J142.8361 F1140.00
G2 X241.1161 Y240.6380 Z-9.0000 I6.8399 J-142.8361 F1140.00
G1 X241.1161 Y240.6380 Z-10.5000 F1140.00
G2 X146.8399 Y-3.3143 Z-10.5000 I-101.1161 J-101.1161 F1140.00
G2 X133.1601 Y282.3579 Z-10.5000 I-6.8399 J142.8361 F1140.00
G2 X241.1161 Y240.6380 Z-10.5000 I6.8399 J-142.8361 F1140.00
G1 X241.1161 Y240.6380 Z-12.0000 F1140.00
G2 X146.8399 Y-3.3143 Z-12.0000 I-101.1161 J-101.1161 F1140.00
G2 X133.1601 Y282.3579 Z-12.0000 I-6.8399 J142.8361 F1140.00
G2 X241.1161 Y240.6380 Z-12.0000 I6.8399 J-142.8361 F1140.00
G1 X241.1161 Y240.6380 Z-13.5000 F1140.00
G2 X146.8399 Y-3.3143 Z-13.5000 I-101.1161 J-101.1161 F1140.00
G2 X133.1601 Y282.3579 Z-13.5000 I-6.8399 J142.8361 F1140.00
G2 X241.1161 Y240.6380 Z-13.5000 I6.8399 J-142.8361 F1140.00
G1 X241.1161 Y240.6380 Z-15.0000 F1140.00
G2 X146.8399 Y-3.3143 Z-15.0000 I-101.1161 J-101.1161 F1140.00
G2 X133.1601 Y282.3579 Z-15.0000 I-6.8399 J142.8361 F1140.00
G2 X241.1161 Y240.6380 Z-15.0000 I6.8399 J-142.8361 F1140.00
G1 X241.1161 Y240.6380 Z-16.5000 F1140.00
G2 X146.8399 Y-3.3143 Z-16.5000 I-101.1161 J-101.1161 F1140.00
G2 X133.1601 Y282.3579 Z-16.5000 I-6.8399 J142.8361 F1140.00
G2 X241.1161 Y240.6380 Z-16.5000 I6.8399 J-142.8361 F1140.00
G1 X241.1161 Y240.6380 Z-18.0000 F1140.00
G2 X146.8399 Y-3.3143 Z-18.0000 I-101.1161 J-101.1161 F1140.00
G2 X133.1601 Y282.3579 Z-18.0000 I-6.8399 J142.8361 F1140.00
G2 X241.1161 Y240.6380 Z-18.0000 I6.8399 J-142.8361 F1140.00
G1 X241.1161 Y240.6380 Z-19.0000 F1140.00
G2 X146.8399 Y-3.3143 Z-19.0000 I-101.1161 J-101.1161 F1140.00
G2 X133.1601 Y282.3579 Z-19.0000 I-6.8399 J142.8361 F1140.00
G2 X241.1161 Y240.6380 Z-19.0000 I6.8399 J-142.8361 F1140.00
G0 Z5.0000
(finish operation: Contour)
(begin postamble)
M5
G17 G90
; M2
