(Exported by FreeCAD)
(Post Processor: grbl_post)
(Output Time:2022-01-30 06:38:06.423228)
(begin preamble)
G17 G90
G21
(begin operation: T2: 1/4inENDMILL003)
(Path: T2: 1/4inENDMILL003)
(T2: 1/4inENDMILL003)
(begin toolchange)
; M6 T2
M3 S0.0000
(finish operation: T2: 1/4inENDMILL003)
(begin operation: Pocket_3D)
(Path: Pocket_3D)
(Pocket_3D)
G0 Z5.0000
G0 X51.0000 Y59.7574
G0 Z3.0000
G1 X51.0000 Y59.7574 Z-1.0000 F1140.00
G1 X46.7574 Y55.5147 Z-1.0000 F1140.00
G1 X51.0000 Y51.2721 Z-1.0000 F1140.00
G1 X51.0000 Y42.7868 Z-1.0000 F1140.00
G1 X45.0000 Y48.7868 Z-1.0000 F1140.00
G1 X45.0000 Y40.3015 Z-1.0000 F1140.00
G1 X51.0000 Y34.3015 Z-1.0000 F1140.00
G1 X51.0000 Y25.8162 Z-1.0000 F1140.00
G1 X45.0000 Y31.8162 Z-1.0000 F1140.00
G1 X45.0000 Y23.3310 Z-1.0000 F1140.00
G1 X51.0000 Y17.3310 Z-1.0000 F1140.00
G1 X51.0000 Y8.8457 Z-1.0000 F1140.00
G1 X45.0000 Y14.8457 Z-1.0000 F1140.00
G1 X45.0000 Y6.3604 Z-1.0000 F1140.00
G1 X47.2198 Y4.1405 Z-1.0000 F1140.00
G3 X45.0000 Y4.4339 Z-1.0000 I-8.2966 J-54.2395 F1140.00
G1 X45.0000 Y6.3604 Z-1.0000 F1140.00
G0 X45.0000 Y6.3604 Z5.0000
G0 X46.0000 Y5.3604 Z5.0000
G0 X46.0000 Y5.3604 Z1.0000
G1 X46.0000 Y5.3604 Z-2.0000 F1140.00
G1 X46.0000 Y4.3101 Z-2.0000 F1140.00
G2 X47.2183 Y4.1421 Z-2.0000 I-4.0199 J-33.6620 F1140.00
G1 X46.0000 Y5.3604 Z-2.0000 F1140.00
G1 X46.0000 Y13.8457 Z-2.0000 F1140.00
G1 X51.0000 Y8.8457 Z-2.0000 F1140.00
G1 X51.0000 Y17.3310 Z-2.0000 F1140.00
G1 X46.0000 Y22.3310 Z-2.0000 F1140.00
G1 X46.0000 Y30.8162 Z-2.0000 F1140.00
G1 X51.0000 Y25.8162 Z-2.0000 F1140.00
G1 X51.0000 Y34.3015 Z-2.0000 F1140.00
G1 X46.0000 Y39.3015 Z-2.0000 F1140.00
G1 X46.0000 Y47.7868 Z-2.0000 F1140.00
G1 X51.0000 Y42.7868 Z-2.0000 F1140.00
G1 X51.0000 Y51.2721 Z-2.0000 F1140.00
G1 X46.7574 Y55.5147 Z-2.0000 F1140.00
G1 X51.0000 Y59.7574 Z-2.0000 F1140.00
G0 X51.0000 Y59.7574 Z5.0000
G0 X51.0000 Y59.7574 Z5.0000
G0 X51.0000 Y59.7574 Z-0.0000
G1 X51.0000 Y59.7574 Z-3.0000 F1140.00
G1 X47.0000 Y55.7574 Z-3.0000 F1140.00
G1 X47.0000 Y55.2721 Z-3.0000 F1140.00
G1 X51.0000 Y51.2721 Z-3.0000 F1140.00
G1 X51.0000 Y42.7868 Z-3.0000 F1140.00
G1 X47.0000 Y46.7868 Z-3.0000 F1140.00
G1 X47.0000 Y38.3015 Z-3.0000 F1140.00
G1 X51.0000 Y34.3015 Z-3.0000 F1140.00
G1 X51.0000 Y25.8162 Z-3.0000 F1140.00
G1 X47.0000 Y29.8162 Z-3.0000 F1140.00
G1 X47.0000 Y21.3310 Z-3.0000 F1140.00
G1 X51.0000 Y17.3310 Z-3.0000 F1140.00
G1 X51.0000 Y8.8457 Z-3.0000 F1140.00
G1 X47.0000 Y12.8457 Z-3.0000 F1140.00
G1 X47.0000 Y4.3604 Z-3.0000 F1140.00
G1 X47.0000 Y4.1778 Z-3.0000 F1140.00
G1 X47.2135 Y4.1469 Z-3.0000 F1140.00
G1 X47.0000 Y4.3604 Z-3.0000 F1140.00
G0 X47.0000 Y4.3604 Z5.0000
G0 X51.0000 Y8.8457 Z5.0000
G0 X51.0000 Y8.8457 Z-1.0000
G1 X51.0000 Y8.8457 Z-4.0000 F1140.00
G1 X51.0000 Y3.5726 Z-4.0000 F1140.00
G3 X48.0000 Y4.0364 Z-4.0000 I-16.3889 J-96.0709 F1140.00
G1 X48.0000 Y11.8457 Z-4.0000 F1140.00
G1 X51.0000 Y8.8457 Z-4.0000 F1140.00
G1 X51.0000 Y17.3310 Z-4.0000 F1140.00
G1 X48.0000 Y20.3310 Z-4.0000 F1140.00
G1 X48.0000 Y28.8162 Z-4.0000 F1140.00
G1 X51.0000 Y25.8162 Z-4.0000 F1140.00
G1 X51.0000 Y34.3015 Z-4.0000 F1140.00
G1 X48.0000 Y37.3015 Z-4.0000 F1140.00
G1 X48.0000 Y45.7868 Z-4.0000 F1140.00
G1 X51.0000 Y42.7868 Z-4.0000 F1140.00
G1 X51.0000 Y51.2721 Z-4.0000 F1140.00
G1 X48.0000 Y54.2721 Z-4.0000 F1140.00
G1 X48.0000 Y56.7574 Z-4.0000 F1140.00
G1 X51.0000 Y59.7574 Z-4.0000 F1140.00
G0 X51.0000 Y59.7574 Z5.0000
G0 X51.0000 Y59.7574 Z5.0000
G0 X51.0000 Y59.7574 Z-2.0000
G1 X51.0000 Y59.7574 Z-5.0000 F1140.00
G1 X49.0000 Y57.7574 Z-5.0000 F1140.00
G1 X49.0000 Y53.2721 Z-5.0000 F1140.00
G1 X51.0000 Y51.2721 Z-5.0000 F1140.00
G1 X51.0000 Y42.7868 Z-5.0000 F1140.00
G1 X49.0000 Y44.7868 Z-5.0000 F1140.00
G1 X49.0000 Y36.3015 Z-5.0000 F1140.00
G1 X51.0000 Y34.3015 Z-5.0000 F1140.00
G1 X51.0000 Y25.8162 Z-5.0000 F1140.00
G1 X49.0000 Y27.8162 Z-5.0000 F1140.00
G1 X49.0000 Y19.3310 Z-5.0000 F1140.00
G1 X51.0000 Y17.3310 Z-5.0000 F1140.00
G1 X51.0000 Y8.8457 Z-5.0000 F1140.00
G1 X51.0000 Y3.5744 Z-5.0000 F1140.00
G3 X49.0000 Y3.8889 Z-5.0000 I-12.4082 J-72.3904 F1140.00
G1 X49.0000 Y10.8457 Z-5.0000 F1140.00
G1 X51.0000 Y8.8457 Z-5.0000 F1140.00
G0 X51.0000 Y8.8457 Z5.0000
G0 X51.0000 Y8.8457 Z5.0000
G0 X51.0000 Y8.8457 Z-3.0000
G1 X51.0000 Y8.8457 Z-6.0000 F1140.00
G1 X50.0000 Y9.8457 Z-6.0000 F1140.00
G1 X50.0000 Y3.7352 Z-6.0000 F1140.00
G2 X51.0000 Y3.5770 Z-6.0000 I-12.9747 J-85.2947 F1140.00
G1 X51.0000 Y8.8457 Z-6.0000 F1140.00
G1 X51.0000 Y17.3310 Z-6.0000 F1140.00
G1 X50.0000 Y18.3310 Z-6.0000 F1140.00
G1 X50.0000 Y26.8162 Z-6.0000 F1140.00
G1 X51.0000 Y25.8162 Z-6.0000 F1140.00
G1 X51.0000 Y34.3015 Z-6.0000 F1140.00
G1 X50.0000 Y35.3015 Z-6.0000 F1140.00
G1 X50.0000 Y43.7868 Z-6.0000 F1140.00
G1 X51.0000 Y42.7868 Z-6.0000 F1140.00
G1 X51.0000 Y51.2721 Z-6.0000 F1140.00
G1 X50.0000 Y52.2721 Z-6.0000 F1140.00
G1 X50.0000 Y58.7574 Z-6.0000 F1140.00
G1 X51.0000 Y59.7574 Z-6.0000 F1140.00
G0 Z5.0000
G0 X40.7574 Y58.0000
G0 Z3.0000
G1 X40.7574 Y58.0000 Z-1.0000 F1140.00
G1 X43.7574 Y61.0000 Z-1.0000 F1140.00
G1 X35.2721 Y61.0000 Z-1.0000 F1140.00
G1 X32.2721 Y58.0000 Z-1.0000 F1140.00
G1 X23.7868 Y58.0000 Z-1.0000 F1140.00
G1 X26.7868 Y61.0000 Z-1.0000 F1140.00
G1 X18.3015 Y61.0000 Z-1.0000 F1140.00
G1 X15.3015 Y58.0000 Z-1.0000 F1140.00
G1 X13.2426 Y58.0000 Z-1.0000 F1140.00
G1 X10.2426 Y61.0000 Z-1.0000 F1140.00
G1 X18.3015 Y61.0000 Z-1.0000 F1140.00
G1 X18.3015 Y61.0000 Z-2.0000 F1140.00
G1 X10.2426 Y61.0000 Z-2.0000 F1140.00
G1 X12.2426 Y59.0000 Z-2.0000 F1140.00
G1 X16.3015 Y59.0000 Z-2.0000 F1140.00
G1 X18.3015 Y61.0000 Z-2.0000 F1140.00
G1 X26.7868 Y61.0000 Z-2.0000 F1140.00
G1 X24.7868 Y59.0000 Z-2.0000 F1140.00
G1 X33.2721 Y59.0000 Z-2.0000 F1140.00
G1 X35.2721 Y61.0000 Z-2.0000 F1140.00
G1 X43.7574 Y61.0000 Z-2.0000 F1140.00
G1 X41.7574 Y59.0000 Z-2.0000 F1140.00
G0 X41.7574 Y59.0000 Z5.0000
G0 X42.7574 Y60.0000 Z5.0000
G0 X42.7574 Y60.0000 Z-0.0000
G1 X42.7574 Y60.0000 Z-3.0000 F1140.00
G1 X43.7574 Y61.0000 Z-3.0000 F1140.00
G1 X35.2721 Y61.0000 Z-3.0000 F1140.00
G1 X34.2721 Y60.0000 Z-3.0000 F1140.00
G1 X25.7868 Y60.0000 Z-3.0000 F1140.00
G1 X26.7868 Y61.0000 Z-3.0000 F1140.00
G1 X18.3015 Y61.0000 Z-3.0000 F1140.00
G1 X17.3015 Y60.0000 Z-3.0000 F1140.00
G1 X11.2426 Y60.0000 Z-3.0000 F1140.00
G1 X10.2426 Y61.0000 Z-3.0000 F1140.00
G1 X18.3015 Y61.0000 Z-3.0000 F1140.00
G0 Z5.0000
G0 X3.9633 Y58.7941
G0 Z3.0000
G1 X3.9633 Y58.7941 Z-1.0000 F1140.00
G1 X3.0000 Y59.7574 Z-1.0000 F1140.00
G1 X3.0000 Y57.8309 Z-1.0000 F1140.00
G1 X3.9633 Y58.7941 Z-1.0000 F1140.00
G1 X8.2059 Y54.5515 Z-1.0000 F1140.00
G1 X3.0000 Y49.3456 Z-1.0000 F1140.00
G1 X3.0000 Y40.8603 Z-1.0000 F1140.00
G1 X9.0000 Y46.8603 Z-1.0000 F1140.00
G1 X9.0000 Y38.3750 Z-1.0000 F1140.00
G1 X3.0000 Y32.3750 Z-1.0000 F1140.00
G1 X3.0000 Y23.8897 Z-1.0000 F1140.00
G1 X9.0000 Y29.8897 Z-1.0000 F1140.00
G1 X9.0000 Y21.4044 Z-1.0000 F1140.00
G1 X3.0000 Y15.4044 Z-1.0000 F1140.00
G1 X3.0000 Y6.9192 Z-1.0000 F1140.00
G1 X9.0000 Y12.9192 Z-1.0000 F1140.00
G1 X9.0000 Y4.4339 Z-1.0000 F1140.00
G0 X9.0000 Y4.4339 Z5.0000
G0 X8.0000 Y4.3101 Z5.0000
G0 X8.0000 Y4.3101 Z1.0000
G1 X8.0000 Y4.3101 Z-2.0000 F1140.00
G1 X8.0000 Y12.7953 Z-2.0000 F1140.00
G1 X3.0000 Y7.7953 Z-2.0000 F1140.00
G1 X3.0000 Y16.2806 Z-2.0000 F1140.00
G1 X8.0000 Y21.2806 Z-2.0000 F1140.00
G1 X8.0000 Y29.7659 Z-2.0000 F1140.00
G1 X3.0000 Y24.7659 Z-2.0000 F1140.00
G1 X3.0000 Y33.2512 Z-2.0000 F1140.00
G1 X8.0000 Y38.2512 Z-2.0000 F1140.00
G1 X8.0000 Y46.7365 Z-2.0000 F1140.00
G1 X3.0000 Y41.7365 Z-2.0000 F1140.00
G1 X3.0000 Y50.2218 Z-2.0000 F1140.00
G1 X7.7678 Y54.9896 Z-2.0000 F1140.00
G1 X3.5252 Y59.2322 Z-2.0000 F1140.00
G1 X3.0000 Y58.7070 Z-2.0000 F1140.00
G1 X3.0000 Y59.7574 Z-2.0000 F1140.00
G1 X3.5252 Y59.2322 Z-2.0000 F1140.00
G0 X3.5252 Y59.2322 Z5.0000
G0 X3.0913 Y59.6660 Z5.0000
G0 X3.0913 Y59.6660 Z-0.0000
G1 X3.0913 Y59.6660 Z-3.0000 F1140.00
G1 X3.0000 Y59.5747 Z-3.0000 F1140.00
G1 X3.0000 Y59.7574 Z-3.0000 F1140.00
G1 X3.0913 Y59.6660 Z-3.0000 F1140.00
G1 X7.0000 Y55.7574 Z-3.0000 F1140.00
G1 X7.0000 Y55.0895 Z-3.0000 F1140.00
G1 X3.0000 Y51.0895 Z-3.0000 F1140.00
G1 X3.0000 Y42.6042 Z-3.0000 F1140.00
G1 X7.0000 Y46.6042 Z-3.0000 F1140.00
G1 X7.0000 Y38.1189 Z-3.0000 F1140.00
G1 X3.0000 Y34.1189 Z-3.0000 F1140.00
G1 X3.0000 Y25.6336 Z-3.0000 F1140.00
G1 X7.0000 Y29.6336 Z-3.0000 F1140.00
G1 X7.0000 Y21.1483 Z-3.0000 F1140.00
G1 X3.0000 Y17.1483 Z-3.0000 F1140.00
G1 X3.0000 Y8.6630 Z-3.0000 F1140.00
G1 X7.0000 Y12.6630 Z-3.0000 F1140.00
G1 X7.0000 Y4.1778 Z-3.0000 F1140.00
G0 X7.0000 Y4.1778 Z5.0000
G0 X6.0000 Y4.0364 Z5.0000
G0 X6.0000 Y4.0364 Z-1.0000
G1 X6.0000 Y4.0364 Z-4.0000 F1140.00
G1 X6.0000 Y12.5217 Z-4.0000 F1140.00
G1 X3.0000 Y9.5217 Z-4.0000 F1140.00
G1 X3.0000 Y18.0070 Z-4.0000 F1140.00
G1 X6.0000 Y21.0070 Z-4.0000 F1140.00
G1 X6.0000 Y29.4922 Z-4.0000 F1140.00
G1 X3.0000 Y26.4922 Z-4.0000 F1140.00
G1 X3.0000 Y34.9775 Z-4.0000 F1140.00
G1 X6.0000 Y37.9775 Z-4.0000 F1140.00
G1 X6.0000 Y46.4628 Z-4.0000 F1140.00
G1 X3.0000 Y43.4628 Z-4.0000 F1140.00
G1 X3.0000 Y51.9481 Z-4.0000 F1140.00
G1 X6.0000 Y54.9481 Z-4.0000 F1140.00
G1 X6.0000 Y56.7574 Z-4.0000 F1140.00
G1 X3.0000 Y59.7574 Z-4.0000 F1140.00
G1 X3.0000 Y51.9481 Z-4.0000 F1140.00
G0 X3.0000 Y51.9481 Z5.0000
G0 X3.0000 Y52.8006 Z5.0000
G0 X3.0000 Y52.8006 Z-2.0000
G1 X3.0000 Y52.8006 Z-5.0000 F1140.00
G1 X3.0000 Y59.7574 Z-5.0000 F1140.00
G1 X5.0000 Y57.7574 Z-5.0000 F1140.00
G1 X5.0000 Y54.8006 Z-5.0000 F1140.00
G1 X3.0000 Y52.8006 Z-5.0000 F1140.00
G1 X3.0000 Y44.3153 Z-5.0000 F1140.00
G1 X5.0000 Y46.3153 Z-5.0000 F1140.00
G1 X5.0000 Y37.8300 Z-5.0000 F1140.00
G1 X3.0000 Y35.8300 Z-5.0000 F1140.00
G1 X3.0000 Y27.3447 Z-5.0000 F1140.00
G1 X5.0000 Y29.3447 Z-5.0000 F1140.00
G1 X5.0000 Y20.8594 Z-5.0000 F1140.00
G1 X3.0000 Y18.8594 Z-5.0000 F1140.00
G1 X3.0000 Y10.3742 Z-5.0000 F1140.00
G1 X5.0000 Y12.3742 Z-5.0000 F1140.00
G1 X5.0000 Y3.8889 Z-5.0000 F1140.00
G0 X5.0000 Y3.8889 Z5.0000
G0 X4.0000 Y3.7352 Z5.0000
G0 X4.0000 Y3.7352 Z-3.0000
G1 X4.0000 Y3.7352 Z-6.0000 F1140.00
G1 X4.0000 Y12.2205 Z-6.0000 F1140.00
G1 X3.0000 Y11.2205 Z-6.0000 F1140.00
G1 X3.0000 Y19.7057 Z-6.0000 F1140.00
G1 X4.0000 Y20.7057 Z-6.0000 F1140.00
G1 X4.0000 Y29.1910 Z-6.0000 F1140.00
G1 X3.0000 Y28.1910 Z-6.0000 F1140.00
G1 X3.0000 Y36.6763 Z-6.0000 F1140.00
G1 X4.0000 Y37.6763 Z-6.0000 F1140.00
G1 X4.0000 Y46.1616 Z-6.0000 F1140.00
G1 X3.0000 Y45.1616 Z-6.0000 F1140.00
G1 X3.0000 Y53.6469 Z-6.0000 F1140.00
G1 X4.0000 Y54.6469 Z-6.0000 F1140.00
G1 X4.0000 Y58.7574 Z-6.0000 F1140.00
G1 X3.0000 Y59.7574 Z-6.0000 F1140.00
G1 X3.0000 Y53.6469 Z-6.0000 F1140.00
G0 Z5.0000
(finish operation: Pocket_3D)
(begin operation: Helix002)
(Path: Helix002)
(Helix002)
(helix cut operation)
G0 Z5.0000
G0 X27.4745 Y15.0000
G0 Z3.0000
G1 Z-0.0000 F1140.00
G2 X26.5255 Y15.0000 Z-0.4737 I-0.4745 J0.0000 F1140.00
G2 X27.4745 Y15.0000 Z-0.9474 I0.4745 J0.0000 F1140.00
G2 X26.5255 Y15.0000 Z-1.4211 I-0.4745 J0.0000 F1140.00
G2 X27.4745 Y15.0000 Z-1.8947 I0.4745 J0.0000 F1140.00
G2 X26.5255 Y15.0000 Z-2.3684 I-0.4745 J0.0000 F1140.00
G2 X27.4745 Y15.0000 Z-2.8421 I0.4745 J0.0000 F1140.00
G2 X26.5255 Y15.0000 Z-3.3158 I-0.4745 J0.0000 F1140.00
G2 X27.4745 Y15.0000 Z-3.7895 I0.4745 J0.0000 F1140.00
G2 X26.5255 Y15.0000 Z-4.2632 I-0.4745 J0.0000 F1140.00
G2 X27.4745 Y15.0000 Z-4.7368 I0.4745 J0.0000 F1140.00
G2 X26.5255 Y15.0000 Z-5.2105 I-0.4745 J0.0000 F1140.00
G2 X27.4745 Y15.0000 Z-5.6842 I0.4745 J0.0000 F1140.00
G2 X26.5255 Y15.0000 Z-6.1579 I-0.4745 J0.0000 F1140.00
G2 X27.4745 Y15.0000 Z-6.6316 I0.4745 J0.0000 F1140.00
G2 X26.5255 Y15.0000 Z-7.1053 I-0.4745 J0.0000 F1140.00
G2 X27.4745 Y15.0000 Z-7.5789 I0.4745 J0.0000 F1140.00
G2 X26.5255 Y15.0000 Z-8.0526 I-0.4745 J0.0000 F1140.00
G2 X27.4745 Y15.0000 Z-8.5263 I0.4745 J0.0000 F1140.00
G2 X26.5255 Y15.0000 Z-9.0000 I-0.4745 J0.0000 F1140.00
G2 X27.4745 Y15.0000 Z-9.4737 I0.4745 J0.0000 F1140.00
G2 X26.5255 Y15.0000 Z-9.9474 I-0.4745 J0.0000 F1140.00
G2 X27.4745 Y15.0000 Z-10.4211 I0.4745 J0.0000 F1140.00
G2 X26.5255 Y15.0000 Z-10.8947 I-0.4745 J0.0000 F1140.00
G2 X27.4745 Y15.0000 Z-11.3684 I0.4745 J0.0000 F1140.00
G2 X26.5255 Y15.0000 Z-11.8421 I-0.4745 J0.0000 F1140.00
G2 X27.4745 Y15.0000 Z-12.3158 I0.4745 J0.0000 F1140.00
G2 X26.5255 Y15.0000 Z-12.7895 I-0.4745 J0.0000 F1140.00
G2 X27.4745 Y15.0000 Z-13.2632 I0.4745 J0.0000 F1140.00
G2 X26.5255 Y15.0000 Z-13.7368 I-0.4745 J0.0000 F1140.00
G2 X27.4745 Y15.0000 Z-14.2105 I0.4745 J0.0000 F1140.00
G2 X26.5255 Y15.0000 Z-14.6842 I-0.4745 J0.0000 F1140.00
G2 X27.4745 Y15.0000 Z-15.1579 I0.4745 J0.0000 F1140.00
G2 X26.5255 Y15.0000 Z-15.6316 I-0.4745 J0.0000 F1140.00
G2 X27.4745 Y15.0000 Z-16.1053 I0.4745 J0.0000 F1140.00
G2 X26.5255 Y15.0000 Z-16.5789 I-0.4745 J0.0000 F1140.00
G2 X27.4745 Y15.0000 Z-17.0526 I0.4745 J0.0000 F1140.00
G2 X26.5255 Y15.0000 Z-17.5263 I-0.4745 J0.0000 F1140.00
G2 X27.4745 Y15.0000 Z-18.0000 I0.4745 J0.0000 F1140.00
G2 X26.5255 Y15.0000 Z-18.0000 I-0.4745 J0.0000 F1140.00
G2 X27.4745 Y15.0000 Z-18.0000 I0.4745 J0.0000 F1140.00
G0 Z3.0000
G0 X27.4745 Y50.0000
G0 Z3.0000
G1 Z-0.0000 F1140.00
G2 X26.5255 Y50.0000 Z-0.4737 I-0.4745 J0.0000 F1140.00
G2 X27.4745 Y50.0000 Z-0.9474 I0.4745 J0.0000 F1140.00
G2 X26.5255 Y50.0000 Z-1.4211 I-0.4745 J0.0000 F1140.00
G2 X27.4745 Y50.0000 Z-1.8947 I0.4745 J0.0000 F1140.00
G2 X26.5255 Y50.0000 Z-2.3684 I-0.4745 J0.0000 F1140.00
G2 X27.4745 Y50.0000 Z-2.8421 I0.4745 J0.0000 F1140.00
G2 X26.5255 Y50.0000 Z-3.3158 I-0.4745 J0.0000 F1140.00
G2 X27.4745 Y50.0000 Z-3.7895 I0.4745 J0.0000 F1140.00
G2 X26.5255 Y50.0000 Z-4.2632 I-0.4745 J0.0000 F1140.00
G2 X27.4745 Y50.0000 Z-4.7368 I0.4745 J0.0000 F1140.00
G2 X26.5255 Y50.0000 Z-5.2105 I-0.4745 J0.0000 F1140.00
G2 X27.4745 Y50.0000 Z-5.6842 I0.4745 J0.0000 F1140.00
G2 X26.5255 Y50.0000 Z-6.1579 I-0.4745 J0.0000 F1140.00
G2 X27.4745 Y50.0000 Z-6.6316 I0.4745 J0.0000 F1140.00
G2 X26.5255 Y50.0000 Z-7.1053 I-0.4745 J0.0000 F1140.00
G2 X27.4745 Y50.0000 Z-7.5789 I0.4745 J0.0000 F1140.00
G2 X26.5255 Y50.0000 Z-8.0526 I-0.4745 J0.0000 F1140.00
G2 X27.4745 Y50.0000 Z-8.5263 I0.4745 J0.0000 F1140.00
G2 X26.5255 Y50.0000 Z-9.0000 I-0.4745 J0.0000 F1140.00
G2 X27.4745 Y50.0000 Z-9.4737 I0.4745 J0.0000 F1140.00
G2 X26.5255 Y50.0000 Z-9.9474 I-0.4745 J0.0000 F1140.00
G2 X27.4745 Y50.0000 Z-10.4211 I0.4745 J0.0000 F1140.00
G2 X26.5255 Y50.0000 Z-10.8947 I-0.4745 J0.0000 F1140.00
G2 X27.4745 Y50.0000 Z-11.3684 I0.4745 J0.0000 F1140.00
G2 X26.5255 Y50.0000 Z-11.8421 I-0.4745 J0.0000 F1140.00
G2 X27.4745 Y50.0000 Z-12.3158 I0.4745 J0.0000 F1140.00
G2 X26.5255 Y50.0000 Z-12.7895 I-0.4745 J0.0000 F1140.00
G2 X27.4745 Y50.0000 Z-13.2632 I0.4745 J0.0000 F1140.00
G2 X26.5255 Y50.0000 Z-13.7368 I-0.4745 J0.0000 F1140.00
G2 X27.4745 Y50.0000 Z-14.2105 I0.4745 J0.0000 F1140.00
G2 X26.5255 Y50.0000 Z-14.6842 I-0.4745 J0.0000 F1140.00
G2 X27.4745 Y50.0000 Z-15.1579 I0.4745 J0.0000 F1140.00
G2 X26.5255 Y50.0000 Z-15.6316 I-0.4745 J0.0000 F1140.00
G2 X27.4745 Y50.0000 Z-16.1053 I0.4745 J0.0000 F1140.00
G2 X26.5255 Y50.0000 Z-16.5789 I-0.4745 J0.0000 F1140.00
G2 X27.4745 Y50.0000 Z-17.0526 I0.4745 J0.0000 F1140.00
G2 X26.5255 Y50.0000 Z-17.5263 I-0.4745 J0.0000 F1140.00
G2 X27.4745 Y50.0000 Z-18.0000 I0.4745 J0.0000 F1140.00
G2 X26.5255 Y50.0000 Z-18.0000 I-0.4745 J0.0000 F1140.00
G2 X27.4745 Y50.0000 Z-18.0000 I0.4745 J0.0000 F1140.00
G0 Z3.0000
G0 Z5.0000
(finish operation: Helix002)
(begin operation: Contour002)
(Path: Contour002)
(Contour002)
(Compensated Tool Path. Diameter: 6.0)
G0 Z5.0000
G0 X56.1213 Y66.1213
G0 Z3.0000
G1 X56.1213 Y66.1213 Z-1.2500 F1140.00
G2 X57.0000 Y64.0000 Z-1.2500 I-2.1213 J-2.1213 F1140.00
G1 X57.0000 Y0.0000 Z-1.2500 F1140.00
G2 X54.9087 Y-2.8591 Z-1.2500 I-3.0000 J-0.0000 F1140.00
G2 X53.4759 Y-2.9539 Z-1.2500 I-0.9087 J2.8591 F1140.00
G3 X0.5241 Y-2.9539 Z-1.2500 I-26.4759 J-139.5339 F1140.00
G2 X-3.0000 Y0.0000 Z-1.2500 I-0.5241 J2.9539 F1140.00
G1 X-3.0000 Y64.0000 Z-1.2500 F1140.00
G2 X0.0000 Y67.0000 Z-1.2500 I3.0000 J-0.0000 F1140.00
G1 X54.0000 Y67.0000 Z-1.2500 F1140.00
G2 X56.1213 Y66.1213 Z-1.2500 I-0.0000 J-3.0000 F1140.00
G1 X56.1213 Y66.1213 Z-2.5000 F1140.00
G2 X57.0000 Y64.0000 Z-2.5000 I-2.1213 J-2.1213 F1140.00
G1 X57.0000 Y0.0000 Z-2.5000 F1140.00
G2 X54.9087 Y-2.8591 Z-2.5000 I-3.0000 J-0.0000 F1140.00
G2 X53.4759 Y-2.9539 Z-2.5000 I-0.9087 J2.8591 F1140.00
G3 X0.5241 Y-2.9539 Z-2.5000 I-26.4759 J-139.5339 F1140.00
G2 X-3.0000 Y0.0000 Z-2.5000 I-0.5241 J2.9539 F1140.00
G1 X-3.0000 Y64.0000 Z-2.5000 F1140.00
G2 X0.0000 Y67.0000 Z-2.5000 I3.0000 J-0.0000 F1140.00
G1 X54.0000 Y67.0000 Z-2.5000 F1140.00
G2 X56.1213 Y66.1213 Z-2.5000 I-0.0000 J-3.0000 F1140.00
G1 X56.1213 Y66.1213 Z-3.7500 F1140.00
G2 X57.0000 Y64.0000 Z-3.7500 I-2.1213 J-2.1213 F1140.00
G1 X57.0000 Y0.0000 Z-3.7500 F1140.00
G2 X54.9087 Y-2.8591 Z-3.7500 I-3.0000 J-0.0000 F1140.00
G2 X53.4759 Y-2.9539 Z-3.7500 I-0.9087 J2.8591 F1140.00
G3 X0.5241 Y-2.9539 Z-3.7500 I-26.4759 J-139.5339 F1140.00
G2 X-3.0000 Y0.0000 Z-3.7500 I-0.5241 J2.9539 F1140.00
G1 X-3.0000 Y64.0000 Z-3.7500 F1140.00
G2 X0.0000 Y67.0000 Z-3.7500 I3.0000 J-0.0000 F1140.00
G1 X54.0000 Y67.0000 Z-3.7500 F1140.00
G2 X56.1213 Y66.1213 Z-3.7500 I-0.0000 J-3.0000 F1140.00
G1 X56.1213 Y66.1213 Z-5.0000 F1140.00
G2 X57.0000 Y64.0000 Z-5.0000 I-2.1213 J-2.1213 F1140.00
G1 X57.0000 Y0.0000 Z-5.0000 F1140.00
G2 X54.9087 Y-2.8591 Z-5.0000 I-3.0000 J-0.0000 F1140.00
G2 X53.4759 Y-2.9539 Z-5.0000 I-0.9087 J2.8591 F1140.00
G3 X0.5241 Y-2.9539 Z-5.0000 I-26.4759 J-139.5339 F1140.00
G2 X-3.0000 Y0.0000 Z-5.0000 I-0.5241 J2.9539 F1140.00
G1 X-3.0000 Y64.0000 Z-5.0000 F1140.00
G2 X0.0000 Y67.0000 Z-5.0000 I3.0000 J-0.0000 F1140.00
G1 X54.0000 Y67.0000 Z-5.0000 F1140.00
G2 X56.1213 Y66.1213 Z-5.0000 I-0.0000 J-3.0000 F1140.00
G1 X56.1213 Y66.1213 Z-6.2500 F1140.00
G2 X57.0000 Y64.0000 Z-6.2500 I-2.1213 J-2.1213 F1140.00
G1 X57.0000 Y0.0000 Z-6.2500 F1140.00
G2 X54.9087 Y-2.8591 Z-6.2500 I-3.0000 J-0.0000 F1140.00
G2 X53.4759 Y-2.9539 Z-6.2500 I-0.9087 J2.8591 F1140.00
G3 X0.5241 Y-2.9539 Z-6.2500 I-26.4759 J-139.5339 F1140.00
G2 X-3.0000 Y0.0000 Z-6.2500 I-0.5241 J2.9539 F1140.00
G1 X-3.0000 Y64.0000 Z-6.2500 F1140.00
G2 X0.0000 Y67.0000 Z-6.2500 I3.0000 J-0.0000 F1140.00
G1 X54.0000 Y67.0000 Z-6.2500 F1140.00
G2 X56.1213 Y66.1213 Z-6.2500 I-0.0000 J-3.0000 F1140.00
G1 X56.1213 Y66.1213 Z-7.5000 F1140.00
G2 X57.0000 Y64.0000 Z-7.5000 I-2.1213 J-2.1213 F1140.00
G1 X57.0000 Y0.0000 Z-7.5000 F1140.00
G2 X54.9087 Y-2.8591 Z-7.5000 I-3.0000 J-0.0000 F1140.00
G2 X53.4759 Y-2.9539 Z-7.5000 I-0.9087 J2.8591 F1140.00
G3 X0.5241 Y-2.9539 Z-7.5000 I-26.4759 J-139.5339 F1140.00
G2 X-3.0000 Y0.0000 Z-7.5000 I-0.5241 J2.9539 F1140.00
G1 X-3.0000 Y64.0000 Z-7.5000 F1140.00
G2 X0.0000 Y67.0000 Z-7.5000 I3.0000 J-0.0000 F1140.00
G1 X54.0000 Y67.0000 Z-7.5000 F1140.00
G2 X56.1213 Y66.1213 Z-7.5000 I-0.0000 J-3.0000 F1140.00
G1 X56.1213 Y66.1213 Z-8.7500 F1140.00
G2 X57.0000 Y64.0000 Z-8.7500 I-2.1213 J-2.1213 F1140.00
G1 X57.0000 Y0.0000 Z-8.7500 F1140.00
G2 X54.9087 Y-2.8591 Z-8.7500 I-3.0000 J-0.0000 F1140.00
G2 X53.4759 Y-2.9539 Z-8.7500 I-0.9087 J2.8591 F1140.00
G3 X0.5241 Y-2.9539 Z-8.7500 I-26.4759 J-139.5339 F1140.00
G2 X-3.0000 Y0.0000 Z-8.7500 I-0.5241 J2.9539 F1140.00
G1 X-3.0000 Y64.0000 Z-8.7500 F1140.00
G2 X0.0000 Y67.0000 Z-8.7500 I3.0000 J-0.0000 F1140.00
G1 X54.0000 Y67.0000 Z-8.7500 F1140.00
G2 X56.1213 Y66.1213 Z-8.7500 I-0.0000 J-3.0000 F1140.00
G1 X56.1213 Y66.1213 Z-10.0000 F1140.00
G2 X57.0000 Y64.0000 Z-10.0000 I-2.1213 J-2.1213 F1140.00
G1 X57.0000 Y0.0000 Z-10.0000 F1140.00
G2 X54.9087 Y-2.8591 Z-10.0000 I-3.0000 J-0.0000 F1140.00
G2 X53.4759 Y-2.9539 Z-10.0000 I-0.9087 J2.8591 F1140.00
G3 X0.5241 Y-2.9539 Z-10.0000 I-26.4759 J-139.5339 F1140.00
G2 X-3.0000 Y0.0000 Z-10.0000 I-0.5241 J2.9539 F1140.00
G1 X-3.0000 Y64.0000 Z-10.0000 F1140.00
G2 X0.0000 Y67.0000 Z-10.0000 I3.0000 J-0.0000 F1140.00
G1 X54.0000 Y67.0000 Z-10.0000 F1140.00
G2 X56.1213 Y66.1213 Z-10.0000 I-0.0000 J-3.0000 F1140.00
G1 X56.1213 Y66.1213 Z-11.2500 F1140.00
G2 X57.0000 Y64.0000 Z-11.2500 I-2.1213 J-2.1213 F1140.00
G1 X57.0000 Y0.0000 Z-11.2500 F1140.00
G2 X54.9087 Y-2.8591 Z-11.2500 I-3.0000 J-0.0000 F1140.00
G2 X53.4759 Y-2.9539 Z-11.2500 I-0.9087 J2.8591 F1140.00
G3 X0.5241 Y-2.9539 Z-11.2500 I-26.4759 J-139.5339 F1140.00
G2 X-3.0000 Y0.0000 Z-11.2500 I-0.5241 J2.9539 F1140.00
G1 X-3.0000 Y64.0000 Z-11.2500 F1140.00
G2 X0.0000 Y67.0000 Z-11.2500 I3.0000 J-0.0000 F1140.00
G1 X54.0000 Y67.0000 Z-11.2500 F1140.00
G2 X56.1213 Y66.1213 Z-11.2500 I-0.0000 J-3.0000 F1140.00
G1 X56.1213 Y66.1213 Z-12.5000 F1140.00
G2 X57.0000 Y64.0000 Z-12.5000 I-2.1213 J-2.1213 F1140.00
G1 X57.0000 Y0.0000 Z-12.5000 F1140.00
G2 X54.9087 Y-2.8591 Z-12.5000 I-3.0000 J-0.0000 F1140.00
G2 X53.4759 Y-2.9539 Z-12.5000 I-0.9087 J2.8591 F1140.00
G3 X0.5241 Y-2.9539 Z-12.5000 I-26.4759 J-139.5339 F1140.00
G2 X-3.0000 Y0.0000 Z-12.5000 I-0.5241 J2.9539 F1140.00
G1 X-3.0000 Y64.0000 Z-12.5000 F1140.00
G2 X0.0000 Y67.0000 Z-12.5000 I3.0000 J-0.0000 F1140.00
G1 X54.0000 Y67.0000 Z-12.5000 F1140.00
G2 X56.1213 Y66.1213 Z-12.5000 I-0.0000 J-3.0000 F1140.00
G1 X56.1213 Y66.1213 Z-13.7500 F1140.00
G2 X57.0000 Y64.0000 Z-13.7500 I-2.1213 J-2.1213 F1140.00
G1 X57.0000 Y0.0000 Z-13.7500 F1140.00
G2 X54.9087 Y-2.8591 Z-13.7500 I-3.0000 J-0.0000 F1140.00
G2 X53.4759 Y-2.9539 Z-13.7500 I-0.9087 J2.8591 F1140.00
G3 X0.5241 Y-2.9539 Z-13.7500 I-26.4759 J-139.5339 F1140.00
G2 X-3.0000 Y0.0000 Z-13.7500 I-0.5241 J2.9539 F1140.00
G1 X-3.0000 Y64.0000 Z-13.7500 F1140.00
G2 X0.0000 Y67.0000 Z-13.7500 I3.0000 J-0.0000 F1140.00
G1 X54.0000 Y67.0000 Z-13.7500 F1140.00
G2 X56.1213 Y66.1213 Z-13.7500 I-0.0000 J-3.0000 F1140.00
G1 X56.1213 Y66.1213 Z-15.0000 F1140.00
G2 X57.0000 Y64.0000 Z-15.0000 I-2.1213 J-2.1213 F1140.00
G1 X57.0000 Y0.0000 Z-15.0000 F1140.00
G2 X54.9087 Y-2.8591 Z-15.0000 I-3.0000 J-0.0000 F1140.00
G2 X53.4759 Y-2.9539 Z-15.0000 I-0.9087 J2.8591 F1140.00
G3 X0.5241 Y-2.9539 Z-15.0000 I-26.4759 J-139.5339 F1140.00
G2 X-3.0000 Y0.0000 Z-15.0000 I-0.5241 J2.9539 F1140.00
G1 X-3.0000 Y64.0000 Z-15.0000 F1140.00
G2 X0.0000 Y67.0000 Z-15.0000 I3.0000 J-0.0000 F1140.00
G1 X54.0000 Y67.0000 Z-15.0000 F1140.00
G2 X56.1213 Y66.1213 Z-15.0000 I-0.0000 J-3.0000 F1140.00
G1 X56.1213 Y66.1213 Z-16.2500 F1140.00
G2 X57.0000 Y64.0000 Z-16.2500 I-2.1213 J-2.1213 F1140.00
G1 X57.0000 Y0.0000 Z-16.2500 F1140.00
G2 X54.9087 Y-2.8591 Z-16.2500 I-3.0000 J-0.0000 F1140.00
G2 X53.4759 Y-2.9539 Z-16.2500 I-0.9087 J2.8591 F1140.00
G3 X0.5241 Y-2.9539 Z-16.2500 I-26.4759 J-139.5339 F1140.00
G2 X-3.0000 Y0.0000 Z-16.2500 I-0.5241 J2.9539 F1140.00
G1 X-3.0000 Y64.0000 Z-16.2500 F1140.00
G2 X0.0000 Y67.0000 Z-16.2500 I3.0000 J-0.0000 F1140.00
G1 X54.0000 Y67.0000 Z-16.2500 F1140.00
G2 X56.1213 Y66.1213 Z-16.2500 I-0.0000 J-3.0000 F1140.00
G1 X56.1213 Y66.1213 Z-17.5000 F1140.00
G2 X57.0000 Y64.0000 Z-17.5000 I-2.1213 J-2.1213 F1140.00
G1 X57.0000 Y0.0000 Z-17.5000 F1140.00
G2 X54.9087 Y-2.8591 Z-17.5000 I-3.0000 J-0.0000 F1140.00
G2 X53.4759 Y-2.9539 Z-17.5000 I-0.9087 J2.8591 F1140.00
G3 X0.5241 Y-2.9539 Z-17.5000 I-26.4759 J-139.5339 F1140.00
G2 X-3.0000 Y0.0000 Z-17.5000 I-0.5241 J2.9539 F1140.00
G1 X-3.0000 Y64.0000 Z-17.5000 F1140.00
G2 X0.0000 Y67.0000 Z-17.5000 I3.0000 J-0.0000 F1140.00
G1 X54.0000 Y67.0000 Z-17.5000 F1140.00
G2 X56.1213 Y66.1213 Z-17.5000 I-0.0000 J-3.0000 F1140.00
G1 X56.1213 Y66.1213 Z-18.0000 F1140.00
G2 X57.0000 Y64.0000 Z-18.0000 I-2.1213 J-2.1213 F1140.00
G1 X57.0000 Y0.0000 Z-18.0000 F1140.00
G2 X54.9087 Y-2.8591 Z-18.0000 I-3.0000 J-0.0000 F1140.00
G2 X53.4759 Y-2.9539 Z-18.0000 I-0.9087 J2.8591 F1140.00
G3 X0.5241 Y-2.9539 Z-18.0000 I-26.4759 J-139.5339 F1140.00
G2 X-3.0000 Y0.0000 Z-18.0000 I-0.5241 J2.9539 F1140.00
G1 X-3.0000 Y64.0000 Z-18.0000 F1140.00
G2 X0.0000 Y67.0000 Z-18.0000 I3.0000 J-0.0000 F1140.00
G1 X54.0000 Y67.0000 Z-18.0000 F1140.00
G2 X56.1213 Y66.1213 Z-18.0000 I-0.0000 J-3.0000 F1140.00
G0 Z5.0000
(finish operation: Contour002)
(begin postamble)
M5
G17 G90
; M2
