(Exported by FreeCAD)
(Post Processor: grbl_post)
(Output Time:2022-01-18 00:03:07.533904)
(begin preamble)
G17 G90
G21
(begin operation: T2: 1/4inENDMILL)
(Path: T2: 1/4inENDMILL)
(T2: 1/4inENDMILL)
(begin toolchange)
; M6 T2
M3 S0.0000
(finish operation: T2: 1/4inENDMILL)
(begin operation: Contour)
(Path: Contour)
(Contour)
(Compensated Tool Path. Diameter: 6.0)
G0 Z5.0032
G0 X53.0034 Y628.1342
G0 Z3.0032
G1 X53.0034 Y628.1342 Z-0.9968 F1140.00
G2 X53.0299 Y627.9029 Z-0.9968 I-2.9650 J-0.4571 F1140.00
G3 X69.4166 Y523.6018 Z-0.9968 I613.7803 J42.9929 F1140.00
G1 X69.5000 Y522.8994 Z-0.9968 F1140.00
G1 X69.5000 Y520.2551 Z-0.9968 F1140.00
G2 X68.4395 Y517.9664 Z-0.9968 I-3.0000 J-0.0000 F1140.00
G3 X57.0000 Y505.2956 Z-0.9968 I35.5773 J-43.6195 F1140.00
G1 X57.0000 Y0.0000 Z-0.9968 F1140.00
G2 X54.9087 Y-2.8591 Z-0.9968 I-3.0000 J-0.0000 F1140.00
G2 X53.4759 Y-2.9539 Z-0.9968 I-0.9087 J2.8591 F1140.00
G3 X0.5241 Y-2.9539 Z-0.9968 I-26.4759 J-139.5339 F1140.00
G2 X-3.0000 Y0.0000 Z-0.9968 I-0.5241 J2.9539 F1140.00
G1 X-3.0000 Y347.0000 Z-0.9968 F1140.00
G2 X-0.9675 Y349.8397 Z-0.9968 I3.0000 J0.0000 F1140.00
G3 X16.0000 Y368.0196 Z-0.9968 I-7.3589 J23.8761 F1140.00
G1 X16.0000 Y505.0462 Z-0.9968 F1140.00
G3 X4.8229 Y514.5584 Z-0.9968 I-41.7919 J-37.7837 F1140.00
G2 X3.5000 Y517.0458 Z-0.9968 I1.6771 J2.4874 F1140.00
G1 X3.5000 Y519.6901 Z-0.9968 F1140.00
G1 X3.5398 Y520.1772 Z-0.9968 F1140.00
G3 X7.1416 Y562.7564 Z-0.9968 I-240.7100 J41.8034 F1140.00
G3 X3.5395 Y601.8312 Z-0.9968 I-247.1256 J-3.0774 F1140.00
G1 X3.5000 Y602.3165 Z-0.9968 F1140.00
G1 X3.5000 Y604.9608 Z-0.9968 F1140.00
G2 X7.3022 Y607.8516 Z-0.9968 I3.0000 J-0.0000 F1140.00
G3 X47.1907 Y628.6207 Z-0.9968 I9.3805 J30.6728 F1140.00
G2 X53.0034 Y628.1342 Z-0.9968 I2.8478 J-0.9436 F1140.00
G1 X53.0034 Y628.1342 Z-1.9968 F1140.00
G2 X53.0299 Y627.9029 Z-1.9968 I-2.9650 J-0.4571 F1140.00
G3 X69.4166 Y523.6018 Z-1.9968 I613.7803 J42.9929 F1140.00
G1 X69.5000 Y522.8994 Z-1.9968 F1140.00
G1 X69.5000 Y520.2551 Z-1.9968 F1140.00
G2 X68.4395 Y517.9664 Z-1.9968 I-3.0000 J-0.0000 F1140.00
G3 X57.0000 Y505.2956 Z-1.9968 I35.5773 J-43.6195 F1140.00
G1 X57.0000 Y0.0000 Z-1.9968 F1140.00
G2 X54.9087 Y-2.8591 Z-1.9968 I-3.0000 J-0.0000 F1140.00
G2 X53.4759 Y-2.9539 Z-1.9968 I-0.9087 J2.8591 F1140.00
G3 X0.5241 Y-2.9539 Z-1.9968 I-26.4759 J-139.5339 F1140.00
G2 X-3.0000 Y0.0000 Z-1.9968 I-0.5241 J2.9539 F1140.00
G1 X-3.0000 Y347.0000 Z-1.9968 F1140.00
G2 X-0.9675 Y349.8397 Z-1.9968 I3.0000 J0.0000 F1140.00
G3 X16.0000 Y368.0196 Z-1.9968 I-7.3589 J23.8761 F1140.00
G1 X16.0000 Y505.0462 Z-1.9968 F1140.00
G3 X4.8229 Y514.5584 Z-1.9968 I-41.7919 J-37.7837 F1140.00
G2 X3.5000 Y517.0458 Z-1.9968 I1.6771 J2.4874 F1140.00
G1 X3.5000 Y519.6901 Z-1.9968 F1140.00
G1 X3.5398 Y520.1772 Z-1.9968 F1140.00
G3 X7.1416 Y562.7564 Z-1.9968 I-240.7100 J41.8034 F1140.00
G3 X3.5395 Y601.8312 Z-1.9968 I-247.1256 J-3.0774 F1140.00
G1 X3.5000 Y602.3165 Z-1.9968 F1140.00
G1 X3.5000 Y604.9608 Z-1.9968 F1140.00
G2 X7.3022 Y607.8516 Z-1.9968 I3.0000 J-0.0000 F1140.00
G3 X47.1907 Y628.6207 Z-1.9968 I9.3805 J30.6728 F1140.00
G2 X53.0034 Y628.1342 Z-1.9968 I2.8478 J-0.9436 F1140.00
G1 X53.0034 Y628.1342 Z-2.9968 F1140.00
G2 X53.0299 Y627.9029 Z-2.9968 I-2.9650 J-0.4571 F1140.00
G3 X69.4166 Y523.6018 Z-2.9968 I613.7803 J42.9929 F1140.00
G1 X69.5000 Y522.8994 Z-2.9968 F1140.00
G1 X69.5000 Y520.2551 Z-2.9968 F1140.00
G2 X68.4395 Y517.9664 Z-2.9968 I-3.0000 J-0.0000 F1140.00
G3 X57.0000 Y505.2956 Z-2.9968 I35.5773 J-43.6195 F1140.00
G1 X57.0000 Y0.0000 Z-2.9968 F1140.00
G2 X54.9087 Y-2.8591 Z-2.9968 I-3.0000 J-0.0000 F1140.00
G2 X53.4759 Y-2.9539 Z-2.9968 I-0.9087 J2.8591 F1140.00
G3 X0.5241 Y-2.9539 Z-2.9968 I-26.4759 J-139.5339 F1140.00
G2 X-3.0000 Y0.0000 Z-2.9968 I-0.5241 J2.9539 F1140.00
G1 X-3.0000 Y347.0000 Z-2.9968 F1140.00
G2 X-0.9675 Y349.8397 Z-2.9968 I3.0000 J0.0000 F1140.00
G3 X16.0000 Y368.0196 Z-2.9968 I-7.3589 J23.8761 F1140.00
G1 X16.0000 Y505.0462 Z-2.9968 F1140.00
G3 X4.8229 Y514.5584 Z-2.9968 I-41.7919 J-37.7837 F1140.00
G2 X3.5000 Y517.0458 Z-2.9968 I1.6771 J2.4874 F1140.00
G1 X3.5000 Y519.6901 Z-2.9968 F1140.00
G1 X3.5398 Y520.1772 Z-2.9968 F1140.00
G3 X7.1416 Y562.7564 Z-2.9968 I-240.7100 J41.8034 F1140.00
G3 X3.5395 Y601.8312 Z-2.9968 I-247.1256 J-3.0774 F1140.00
G1 X3.5000 Y602.3165 Z-2.9968 F1140.00
G1 X3.5000 Y604.9608 Z-2.9968 F1140.00
G2 X7.3022 Y607.8516 Z-2.9968 I3.0000 J-0.0000 F1140.00
G3 X47.1907 Y628.6207 Z-2.9968 I9.3805 J30.6728 F1140.00
G2 X53.0034 Y628.1342 Z-2.9968 I2.8478 J-0.9436 F1140.00
G1 X53.0034 Y628.1342 Z-3.9968 F1140.00
G2 X53.0299 Y627.9029 Z-3.9968 I-2.9650 J-0.4571 F1140.00
G3 X69.4166 Y523.6018 Z-3.9968 I613.7803 J42.9929 F1140.00
G1 X69.5000 Y522.8994 Z-3.9968 F1140.00
G1 X69.5000 Y520.2551 Z-3.9968 F1140.00
G2 X68.4395 Y517.9664 Z-3.9968 I-3.0000 J-0.0000 F1140.00
G3 X57.0000 Y505.2956 Z-3.9968 I35.5773 J-43.6195 F1140.00
G1 X57.0000 Y0.0000 Z-3.9968 F1140.00
G2 X54.9087 Y-2.8591 Z-3.9968 I-3.0000 J-0.0000 F1140.00
G2 X53.4759 Y-2.9539 Z-3.9968 I-0.9087 J2.8591 F1140.00
G3 X0.5241 Y-2.9539 Z-3.9968 I-26.4759 J-139.5339 F1140.00
G2 X-3.0000 Y0.0000 Z-3.9968 I-0.5241 J2.9539 F1140.00
G1 X-3.0000 Y347.0000 Z-3.9968 F1140.00
G2 X-0.9675 Y349.8397 Z-3.9968 I3.0000 J0.0000 F1140.00
G3 X16.0000 Y368.0196 Z-3.9968 I-7.3589 J23.8761 F1140.00
G1 X16.0000 Y505.0462 Z-3.9968 F1140.00
G3 X4.8229 Y514.5584 Z-3.9968 I-41.7919 J-37.7837 F1140.00
G2 X3.5000 Y517.0458 Z-3.9968 I1.6771 J2.4874 F1140.00
G1 X3.5000 Y519.6901 Z-3.9968 F1140.00
G1 X3.5398 Y520.1772 Z-3.9968 F1140.00
G3 X7.1416 Y562.7564 Z-3.9968 I-240.7100 J41.8034 F1140.00
G3 X3.5395 Y601.8312 Z-3.9968 I-247.1256 J-3.0774 F1140.00
G1 X3.5000 Y602.3165 Z-3.9968 F1140.00
G1 X3.5000 Y604.9608 Z-3.9968 F1140.00
G2 X7.3022 Y607.8516 Z-3.9968 I3.0000 J-0.0000 F1140.00
G3 X47.1907 Y628.6207 Z-3.9968 I9.3805 J30.6728 F1140.00
G2 X53.0034 Y628.1342 Z-3.9968 I2.8478 J-0.9436 F1140.00
G1 X53.0034 Y628.1342 Z-4.9968 F1140.00
G2 X53.0299 Y627.9029 Z-4.9968 I-2.9650 J-0.4571 F1140.00
G3 X69.4166 Y523.6018 Z-4.9968 I613.7803 J42.9929 F1140.00
G1 X69.5000 Y522.8994 Z-4.9968 F1140.00
G1 X69.5000 Y520.2551 Z-4.9968 F1140.00
G2 X68.4395 Y517.9664 Z-4.9968 I-3.0000 J-0.0000 F1140.00
G3 X57.0000 Y505.2956 Z-4.9968 I35.5773 J-43.6195 F1140.00
G1 X57.0000 Y0.0000 Z-4.9968 F1140.00
G2 X54.9087 Y-2.8591 Z-4.9968 I-3.0000 J-0.0000 F1140.00
G2 X53.4759 Y-2.9539 Z-4.9968 I-0.9087 J2.8591 F1140.00
G3 X0.5241 Y-2.9539 Z-4.9968 I-26.4759 J-139.5339 F1140.00
G2 X-3.0000 Y0.0000 Z-4.9968 I-0.5241 J2.9539 F1140.00
G1 X-3.0000 Y347.0000 Z-4.9968 F1140.00
G2 X-0.9675 Y349.8397 Z-4.9968 I3.0000 J0.0000 F1140.00
G3 X16.0000 Y368.0196 Z-4.9968 I-7.3589 J23.8761 F1140.00
G1 X16.0000 Y505.0462 Z-4.9968 F1140.00
G3 X4.8229 Y514.5584 Z-4.9968 I-41.7919 J-37.7837 F1140.00
G2 X3.5000 Y517.0458 Z-4.9968 I1.6771 J2.4874 F1140.00
G1 X3.5000 Y519.6901 Z-4.9968 F1140.00
G1 X3.5398 Y520.1772 Z-4.9968 F1140.00
G3 X7.1416 Y562.7564 Z-4.9968 I-240.7100 J41.8034 F1140.00
G3 X3.5395 Y601.8312 Z-4.9968 I-247.1256 J-3.0774 F1140.00
G1 X3.5000 Y602.3165 Z-4.9968 F1140.00
G1 X3.5000 Y604.9608 Z-4.9968 F1140.00
G2 X7.3022 Y607.8516 Z-4.9968 I3.0000 J-0.0000 F1140.00
G3 X47.1907 Y628.6207 Z-4.9968 I9.3805 J30.6728 F1140.00
G2 X53.0034 Y628.1342 Z-4.9968 I2.8478 J-0.9436 F1140.00
G1 X53.0034 Y628.1342 Z-5.9968 F1140.00
G2 X53.0299 Y627.9029 Z-5.9968 I-2.9650 J-0.4571 F1140.00
G3 X69.4166 Y523.6018 Z-5.9968 I613.7803 J42.9929 F1140.00
G1 X69.5000 Y522.8994 Z-5.9968 F1140.00
G1 X69.5000 Y520.2551 Z-5.9968 F1140.00
G2 X68.4395 Y517.9664 Z-5.9968 I-3.0000 J-0.0000 F1140.00
G3 X57.0000 Y505.2956 Z-5.9968 I35.5773 J-43.6195 F1140.00
G1 X57.0000 Y0.0000 Z-5.9968 F1140.00
G2 X54.9087 Y-2.8591 Z-5.9968 I-3.0000 J-0.0000 F1140.00
G2 X53.4759 Y-2.9539 Z-5.9968 I-0.9087 J2.8591 F1140.00
G3 X0.5241 Y-2.9539 Z-5.9968 I-26.4759 J-139.5339 F1140.00
G2 X-3.0000 Y0.0000 Z-5.9968 I-0.5241 J2.9539 F1140.00
G1 X-3.0000 Y347.0000 Z-5.9968 F1140.00
G2 X-0.9675 Y349.8397 Z-5.9968 I3.0000 J0.0000 F1140.00
G3 X16.0000 Y368.0196 Z-5.9968 I-7.3589 J23.8761 F1140.00
G1 X16.0000 Y505.0462 Z-5.9968 F1140.00
G3 X4.8229 Y514.5584 Z-5.9968 I-41.7919 J-37.7837 F1140.00
G2 X3.5000 Y517.0458 Z-5.9968 I1.6771 J2.4874 F1140.00
G1 X3.5000 Y519.6901 Z-5.9968 F1140.00
G1 X3.5398 Y520.1772 Z-5.9968 F1140.00
G3 X7.1416 Y562.7564 Z-5.9968 I-240.7100 J41.8034 F1140.00
G3 X3.5395 Y601.8312 Z-5.9968 I-247.1256 J-3.0774 F1140.00
G1 X3.5000 Y602.3165 Z-5.9968 F1140.00
G1 X3.5000 Y604.9608 Z-5.9968 F1140.00
G2 X7.3022 Y607.8516 Z-5.9968 I3.0000 J-0.0000 F1140.00
G3 X47.1907 Y628.6207 Z-5.9968 I9.3805 J30.6728 F1140.00
G2 X53.0034 Y628.1342 Z-5.9968 I2.8478 J-0.9436 F1140.00
G1 X53.0034 Y628.1342 Z-6.9968 F1140.00
G2 X53.0299 Y627.9029 Z-6.9968 I-2.9650 J-0.4571 F1140.00
G3 X69.4166 Y523.6018 Z-6.9968 I613.7803 J42.9929 F1140.00
G1 X69.5000 Y522.8994 Z-6.9968 F1140.00
G1 X69.5000 Y520.2551 Z-6.9968 F1140.00
G2 X68.4395 Y517.9664 Z-6.9968 I-3.0000 J-0.0000 F1140.00
G3 X57.0000 Y505.2956 Z-6.9968 I35.5773 J-43.6195 F1140.00
G1 X57.0000 Y0.0000 Z-6.9968 F1140.00
G2 X54.9087 Y-2.8591 Z-6.9968 I-3.0000 J-0.0000 F1140.00
G2 X53.4759 Y-2.9539 Z-6.9968 I-0.9087 J2.8591 F1140.00
G3 X0.5241 Y-2.9539 Z-6.9968 I-26.4759 J-139.5339 F1140.00
G2 X-3.0000 Y0.0000 Z-6.9968 I-0.5241 J2.9539 F1140.00
G1 X-3.0000 Y347.0000 Z-6.9968 F1140.00
G2 X-0.9675 Y349.8397 Z-6.9968 I3.0000 J0.0000 F1140.00
G3 X16.0000 Y368.0196 Z-6.9968 I-7.3589 J23.8761 F1140.00
G1 X16.0000 Y505.0462 Z-6.9968 F1140.00
G3 X4.8229 Y514.5584 Z-6.9968 I-41.7919 J-37.7837 F1140.00
G2 X3.5000 Y517.0458 Z-6.9968 I1.6771 J2.4874 F1140.00
G1 X3.5000 Y519.6901 Z-6.9968 F1140.00
G1 X3.5398 Y520.1772 Z-6.9968 F1140.00
G3 X7.1416 Y562.7564 Z-6.9968 I-240.7100 J41.8034 F1140.00
G3 X3.5395 Y601.8312 Z-6.9968 I-247.1256 J-3.0774 F1140.00
G1 X3.5000 Y602.3165 Z-6.9968 F1140.00
G1 X3.5000 Y604.9608 Z-6.9968 F1140.00
G2 X7.3022 Y607.8516 Z-6.9968 I3.0000 J-0.0000 F1140.00
G3 X47.1907 Y628.6207 Z-6.9968 I9.3805 J30.6728 F1140.00
G2 X53.0034 Y628.1342 Z-6.9968 I2.8478 J-0.9436 F1140.00
G1 X53.0034 Y628.1342 Z-7.9968 F1140.00
G2 X53.0299 Y627.9029 Z-7.9968 I-2.9650 J-0.4571 F1140.00
G3 X69.4166 Y523.6018 Z-7.9968 I613.7803 J42.9929 F1140.00
G1 X69.5000 Y522.8994 Z-7.9968 F1140.00
G1 X69.5000 Y520.2551 Z-7.9968 F1140.00
G2 X68.4395 Y517.9664 Z-7.9968 I-3.0000 J-0.0000 F1140.00
G3 X57.0000 Y505.2956 Z-7.9968 I35.5773 J-43.6195 F1140.00
G1 X57.0000 Y0.0000 Z-7.9968 F1140.00
G2 X54.9087 Y-2.8591 Z-7.9968 I-3.0000 J-0.0000 F1140.00
G2 X53.4759 Y-2.9539 Z-7.9968 I-0.9087 J2.8591 F1140.00
G3 X0.5241 Y-2.9539 Z-7.9968 I-26.4759 J-139.5339 F1140.00
G2 X-3.0000 Y0.0000 Z-7.9968 I-0.5241 J2.9539 F1140.00
G1 X-3.0000 Y347.0000 Z-7.9968 F1140.00
G2 X-0.9675 Y349.8397 Z-7.9968 I3.0000 J0.0000 F1140.00
G3 X16.0000 Y368.0196 Z-7.9968 I-7.3589 J23.8761 F1140.00
G1 X16.0000 Y505.0462 Z-7.9968 F1140.00
G3 X4.8229 Y514.5584 Z-7.9968 I-41.7919 J-37.7837 F1140.00
G2 X3.5000 Y517.0458 Z-7.9968 I1.6771 J2.4874 F1140.00
G1 X3.5000 Y519.6901 Z-7.9968 F1140.00
G1 X3.5398 Y520.1772 Z-7.9968 F1140.00
G3 X7.1416 Y562.7564 Z-7.9968 I-240.7100 J41.8034 F1140.00
G3 X3.5395 Y601.8312 Z-7.9968 I-247.1256 J-3.0774 F1140.00
G1 X3.5000 Y602.3165 Z-7.9968 F1140.00
G1 X3.5000 Y604.9608 Z-7.9968 F1140.00
G2 X7.3022 Y607.8516 Z-7.9968 I3.0000 J-0.0000 F1140.00
G3 X47.1907 Y628.6207 Z-7.9968 I9.3805 J30.6728 F1140.00
G2 X53.0034 Y628.1342 Z-7.9968 I2.8478 J-0.9436 F1140.00
G1 X53.0034 Y628.1342 Z-8.9968 F1140.00
G2 X53.0299 Y627.9029 Z-8.9968 I-2.9650 J-0.4571 F1140.00
G3 X69.4166 Y523.6018 Z-8.9968 I613.7803 J42.9929 F1140.00
G1 X69.5000 Y522.8994 Z-8.9968 F1140.00
G1 X69.5000 Y520.2551 Z-8.9968 F1140.00
G2 X68.4395 Y517.9664 Z-8.9968 I-3.0000 J-0.0000 F1140.00
G3 X57.0000 Y505.2956 Z-8.9968 I35.5773 J-43.6195 F1140.00
G1 X57.0000 Y0.0000 Z-8.9968 F1140.00
G2 X54.9087 Y-2.8591 Z-8.9968 I-3.0000 J-0.0000 F1140.00
G2 X53.4759 Y-2.9539 Z-8.9968 I-0.9087 J2.8591 F1140.00
G3 X0.5241 Y-2.9539 Z-8.9968 I-26.4759 J-139.5339 F1140.00
G2 X-3.0000 Y0.0000 Z-8.9968 I-0.5241 J2.9539 F1140.00
G1 X-3.0000 Y347.0000 Z-8.9968 F1140.00
G2 X-0.9675 Y349.8397 Z-8.9968 I3.0000 J0.0000 F1140.00
G3 X16.0000 Y368.0196 Z-8.9968 I-7.3589 J23.8761 F1140.00
G1 X16.0000 Y505.0462 Z-8.9968 F1140.00
G3 X4.8229 Y514.5584 Z-8.9968 I-41.7919 J-37.7837 F1140.00
G2 X3.5000 Y517.0458 Z-8.9968 I1.6771 J2.4874 F1140.00
G1 X3.5000 Y519.6901 Z-8.9968 F1140.00
G1 X3.5398 Y520.1772 Z-8.9968 F1140.00
G3 X7.1416 Y562.7564 Z-8.9968 I-240.7100 J41.8034 F1140.00
G3 X3.5395 Y601.8312 Z-8.9968 I-247.1256 J-3.0774 F1140.00
G1 X3.5000 Y602.3165 Z-8.9968 F1140.00
G1 X3.5000 Y604.9608 Z-8.9968 F1140.00
G2 X7.3022 Y607.8516 Z-8.9968 I3.0000 J-0.0000 F1140.00
G3 X47.1907 Y628.6207 Z-8.9968 I9.3805 J30.6728 F1140.00
G2 X53.0034 Y628.1342 Z-8.9968 I2.8478 J-0.9436 F1140.00
G1 X53.0034 Y628.1342 Z-9.9968 F1140.00
G2 X53.0299 Y627.9029 Z-9.9968 I-2.9650 J-0.4571 F1140.00
G3 X69.4166 Y523.6018 Z-9.9968 I613.7803 J42.9929 F1140.00
G1 X69.5000 Y522.8994 Z-9.9968 F1140.00
G1 X69.5000 Y520.2551 Z-9.9968 F1140.00
G2 X68.4395 Y517.9664 Z-9.9968 I-3.0000 J-0.0000 F1140.00
G3 X57.0000 Y505.2956 Z-9.9968 I35.5773 J-43.6195 F1140.00
G1 X57.0000 Y0.0000 Z-9.9968 F1140.00
G2 X54.9087 Y-2.8591 Z-9.9968 I-3.0000 J-0.0000 F1140.00
G2 X53.4759 Y-2.9539 Z-9.9968 I-0.9087 J2.8591 F1140.00
G3 X0.5241 Y-2.9539 Z-9.9968 I-26.4759 J-139.5339 F1140.00
G2 X-3.0000 Y0.0000 Z-9.9968 I-0.5241 J2.9539 F1140.00
G1 X-3.0000 Y347.0000 Z-9.9968 F1140.00
G2 X-0.9675 Y349.8397 Z-9.9968 I3.0000 J0.0000 F1140.00
G3 X16.0000 Y368.0196 Z-9.9968 I-7.3589 J23.8761 F1140.00
G1 X16.0000 Y505.0462 Z-9.9968 F1140.00
G3 X4.8229 Y514.5584 Z-9.9968 I-41.7919 J-37.7837 F1140.00
G2 X3.5000 Y517.0458 Z-9.9968 I1.6771 J2.4874 F1140.00
G1 X3.5000 Y519.6901 Z-9.9968 F1140.00
G1 X3.5398 Y520.1772 Z-9.9968 F1140.00
G3 X7.1416 Y562.7564 Z-9.9968 I-240.7100 J41.8034 F1140.00
G3 X3.5395 Y601.8312 Z-9.9968 I-247.1256 J-3.0774 F1140.00
G1 X3.5000 Y602.3165 Z-9.9968 F1140.00
G1 X3.5000 Y604.9608 Z-9.9968 F1140.00
G2 X7.3022 Y607.8516 Z-9.9968 I3.0000 J-0.0000 F1140.00
G3 X47.1907 Y628.6207 Z-9.9968 I9.3805 J30.6728 F1140.00
G2 X53.0034 Y628.1342 Z-9.9968 I2.8478 J-0.9436 F1140.00
G1 X53.0034 Y628.1342 Z-10.9968 F1140.00
G2 X53.0299 Y627.9029 Z-10.9968 I-2.9650 J-0.4571 F1140.00
G3 X69.4166 Y523.6018 Z-10.9968 I613.7803 J42.9929 F1140.00
G1 X69.5000 Y522.8994 Z-10.9968 F1140.00
G1 X69.5000 Y520.2551 Z-10.9968 F1140.00
G2 X68.4395 Y517.9664 Z-10.9968 I-3.0000 J-0.0000 F1140.00
G3 X57.0000 Y505.2956 Z-10.9968 I35.5773 J-43.6195 F1140.00
G1 X57.0000 Y0.0000 Z-10.9968 F1140.00
G2 X54.9087 Y-2.8591 Z-10.9968 I-3.0000 J-0.0000 F1140.00
G2 X53.4759 Y-2.9539 Z-10.9968 I-0.9087 J2.8591 F1140.00
G3 X0.5241 Y-2.9539 Z-10.9968 I-26.4759 J-139.5339 F1140.00
G2 X-3.0000 Y0.0000 Z-10.9968 I-0.5241 J2.9539 F1140.00
G1 X-3.0000 Y347.0000 Z-10.9968 F1140.00
G2 X-0.9675 Y349.8397 Z-10.9968 I3.0000 J0.0000 F1140.00
G3 X16.0000 Y368.0196 Z-10.9968 I-7.3589 J23.8761 F1140.00
G1 X16.0000 Y505.0462 Z-10.9968 F1140.00
G3 X4.8229 Y514.5584 Z-10.9968 I-41.7919 J-37.7837 F1140.00
G2 X3.5000 Y517.0458 Z-10.9968 I1.6771 J2.4874 F1140.00
G1 X3.5000 Y519.6901 Z-10.9968 F1140.00
G1 X3.5398 Y520.1772 Z-10.9968 F1140.00
G3 X7.1416 Y562.7564 Z-10.9968 I-240.7100 J41.8034 F1140.00
G3 X3.5395 Y601.8312 Z-10.9968 I-247.1256 J-3.0774 F1140.00
G1 X3.5000 Y602.3165 Z-10.9968 F1140.00
G1 X3.5000 Y604.9608 Z-10.9968 F1140.00
G2 X7.3022 Y607.8516 Z-10.9968 I3.0000 J-0.0000 F1140.00
G3 X47.1907 Y628.6207 Z-10.9968 I9.3805 J30.6728 F1140.00
G2 X53.0034 Y628.1342 Z-10.9968 I2.8478 J-0.9436 F1140.00
G1 X53.0034 Y628.1342 Z-11.9968 F1140.00
G2 X53.0299 Y627.9029 Z-11.9968 I-2.9650 J-0.4571 F1140.00
G3 X69.4166 Y523.6018 Z-11.9968 I613.7803 J42.9929 F1140.00
G1 X69.5000 Y522.8994 Z-11.9968 F1140.00
G1 X69.5000 Y520.2551 Z-11.9968 F1140.00
G2 X68.4395 Y517.9664 Z-11.9968 I-3.0000 J-0.0000 F1140.00
G3 X57.0000 Y505.2956 Z-11.9968 I35.5773 J-43.6195 F1140.00
G1 X57.0000 Y0.0000 Z-11.9968 F1140.00
G2 X54.9087 Y-2.8591 Z-11.9968 I-3.0000 J-0.0000 F1140.00
G2 X53.4759 Y-2.9539 Z-11.9968 I-0.9087 J2.8591 F1140.00
G3 X0.5241 Y-2.9539 Z-11.9968 I-26.4759 J-139.5339 F1140.00
G2 X-3.0000 Y0.0000 Z-11.9968 I-0.5241 J2.9539 F1140.00
G1 X-3.0000 Y347.0000 Z-11.9968 F1140.00
G2 X-0.9675 Y349.8397 Z-11.9968 I3.0000 J0.0000 F1140.00
G3 X16.0000 Y368.0196 Z-11.9968 I-7.3589 J23.8761 F1140.00
G1 X16.0000 Y505.0462 Z-11.9968 F1140.00
G3 X4.8229 Y514.5584 Z-11.9968 I-41.7919 J-37.7837 F1140.00
G2 X3.5000 Y517.0458 Z-11.9968 I1.6771 J2.4874 F1140.00
G1 X3.5000 Y519.6901 Z-11.9968 F1140.00
G1 X3.5398 Y520.1772 Z-11.9968 F1140.00
G3 X7.1416 Y562.7564 Z-11.9968 I-240.7100 J41.8034 F1140.00
G3 X3.5395 Y601.8312 Z-11.9968 I-247.1256 J-3.0774 F1140.00
G1 X3.5000 Y602.3165 Z-11.9968 F1140.00
G1 X3.5000 Y604.9608 Z-11.9968 F1140.00
G2 X7.3022 Y607.8516 Z-11.9968 I3.0000 J-0.0000 F1140.00
G3 X47.1907 Y628.6207 Z-11.9968 I9.3805 J30.6728 F1140.00
G2 X53.0034 Y628.1342 Z-11.9968 I2.8478 J-0.9436 F1140.00
G1 X53.0034 Y628.1342 Z-12.9968 F1140.00
G2 X53.0299 Y627.9029 Z-12.9968 I-2.9650 J-0.4571 F1140.00
G3 X69.4166 Y523.6018 Z-12.9968 I613.7803 J42.9929 F1140.00
G1 X69.5000 Y522.8994 Z-12.9968 F1140.00
G1 X69.5000 Y520.2551 Z-12.9968 F1140.00
G2 X68.4395 Y517.9664 Z-12.9968 I-3.0000 J-0.0000 F1140.00
G3 X57.0000 Y505.2956 Z-12.9968 I35.5773 J-43.6195 F1140.00
G1 X57.0000 Y0.0000 Z-12.9968 F1140.00
G2 X54.9087 Y-2.8591 Z-12.9968 I-3.0000 J-0.0000 F1140.00
G2 X53.4759 Y-2.9539 Z-12.9968 I-0.9087 J2.8591 F1140.00
G3 X0.5241 Y-2.9539 Z-12.9968 I-26.4759 J-139.5339 F1140.00
G2 X-3.0000 Y0.0000 Z-12.9968 I-0.5241 J2.9539 F1140.00
G1 X-3.0000 Y347.0000 Z-12.9968 F1140.00
G2 X-0.9675 Y349.8397 Z-12.9968 I3.0000 J0.0000 F1140.00
G3 X16.0000 Y368.0196 Z-12.9968 I-7.3589 J23.8761 F1140.00
G1 X16.0000 Y505.0462 Z-12.9968 F1140.00
G3 X4.8229 Y514.5584 Z-12.9968 I-41.7919 J-37.7837 F1140.00
G2 X3.5000 Y517.0458 Z-12.9968 I1.6771 J2.4874 F1140.00
G1 X3.5000 Y519.6901 Z-12.9968 F1140.00
G1 X3.5398 Y520.1772 Z-12.9968 F1140.00
G3 X7.1416 Y562.7564 Z-12.9968 I-240.7100 J41.8034 F1140.00
G3 X3.5395 Y601.8312 Z-12.9968 I-247.1256 J-3.0774 F1140.00
G1 X3.5000 Y602.3165 Z-12.9968 F1140.00
G1 X3.5000 Y604.9608 Z-12.9968 F1140.00
G2 X7.3022 Y607.8516 Z-12.9968 I3.0000 J-0.0000 F1140.00
G3 X47.1907 Y628.6207 Z-12.9968 I9.3805 J30.6728 F1140.00
G2 X53.0034 Y628.1342 Z-12.9968 I2.8478 J-0.9436 F1140.00
G1 X53.0034 Y628.1342 Z-13.9968 F1140.00
G2 X53.0299 Y627.9029 Z-13.9968 I-2.9650 J-0.4571 F1140.00
G3 X69.4166 Y523.6018 Z-13.9968 I613.7803 J42.9929 F1140.00
G1 X69.5000 Y522.8994 Z-13.9968 F1140.00
G1 X69.5000 Y520.2551 Z-13.9968 F1140.00
G2 X68.4395 Y517.9664 Z-13.9968 I-3.0000 J-0.0000 F1140.00
G3 X57.0000 Y505.2956 Z-13.9968 I35.5773 J-43.6195 F1140.00
G1 X57.0000 Y0.0000 Z-13.9968 F1140.00
G2 X54.9087 Y-2.8591 Z-13.9968 I-3.0000 J-0.0000 F1140.00
G2 X53.4759 Y-2.9539 Z-13.9968 I-0.9087 J2.8591 F1140.00
G3 X0.5241 Y-2.9539 Z-13.9968 I-26.4759 J-139.5339 F1140.00
G2 X-3.0000 Y0.0000 Z-13.9968 I-0.5241 J2.9539 F1140.00
G1 X-3.0000 Y347.0000 Z-13.9968 F1140.00
G2 X-0.9675 Y349.8397 Z-13.9968 I3.0000 J0.0000 F1140.00
G3 X16.0000 Y368.0196 Z-13.9968 I-7.3589 J23.8761 F1140.00
G1 X16.0000 Y505.0462 Z-13.9968 F1140.00
G3 X4.8229 Y514.5584 Z-13.9968 I-41.7919 J-37.7837 F1140.00
G2 X3.5000 Y517.0458 Z-13.9968 I1.6771 J2.4874 F1140.00
G1 X3.5000 Y519.6901 Z-13.9968 F1140.00
G1 X3.5398 Y520.1772 Z-13.9968 F1140.00
G3 X7.1416 Y562.7564 Z-13.9968 I-240.7100 J41.8034 F1140.00
G3 X3.5395 Y601.8312 Z-13.9968 I-247.1256 J-3.0774 F1140.00
G1 X3.5000 Y602.3165 Z-13.9968 F1140.00
G1 X3.5000 Y604.9608 Z-13.9968 F1140.00
G2 X7.3022 Y607.8516 Z-13.9968 I3.0000 J-0.0000 F1140.00
G3 X47.1907 Y628.6207 Z-13.9968 I9.3805 J30.6728 F1140.00
G2 X53.0034 Y628.1342 Z-13.9968 I2.8478 J-0.9436 F1140.00
G1 X53.0034 Y628.1342 Z-14.9968 F1140.00
G2 X53.0299 Y627.9029 Z-14.9968 I-2.9650 J-0.4571 F1140.00
G3 X69.4166 Y523.6018 Z-14.9968 I613.7803 J42.9929 F1140.00
G1 X69.5000 Y522.8994 Z-14.9968 F1140.00
G1 X69.5000 Y520.2551 Z-14.9968 F1140.00
G2 X68.4395 Y517.9664 Z-14.9968 I-3.0000 J-0.0000 F1140.00
G3 X57.0000 Y505.2956 Z-14.9968 I35.5773 J-43.6195 F1140.00
G1 X57.0000 Y0.0000 Z-14.9968 F1140.00
G2 X54.9087 Y-2.8591 Z-14.9968 I-3.0000 J-0.0000 F1140.00
G2 X53.4759 Y-2.9539 Z-14.9968 I-0.9087 J2.8591 F1140.00
G3 X0.5241 Y-2.9539 Z-14.9968 I-26.4759 J-139.5339 F1140.00
G2 X-3.0000 Y0.0000 Z-14.9968 I-0.5241 J2.9539 F1140.00
G1 X-3.0000 Y347.0000 Z-14.9968 F1140.00
G2 X-0.9675 Y349.8397 Z-14.9968 I3.0000 J0.0000 F1140.00
G3 X16.0000 Y368.0196 Z-14.9968 I-7.3589 J23.8761 F1140.00
G1 X16.0000 Y505.0462 Z-14.9968 F1140.00
G3 X4.8229 Y514.5584 Z-14.9968 I-41.7919 J-37.7837 F1140.00
G2 X3.5000 Y517.0458 Z-14.9968 I1.6771 J2.4874 F1140.00
G1 X3.5000 Y519.6901 Z-14.9968 F1140.00
G1 X3.5398 Y520.1772 Z-14.9968 F1140.00
G3 X7.1416 Y562.7564 Z-14.9968 I-240.7100 J41.8034 F1140.00
G3 X3.5395 Y601.8312 Z-14.9968 I-247.1256 J-3.0774 F1140.00
G1 X3.5000 Y602.3165 Z-14.9968 F1140.00
G1 X3.5000 Y604.9608 Z-14.9968 F1140.00
G2 X7.3022 Y607.8516 Z-14.9968 I3.0000 J-0.0000 F1140.00
G3 X47.1907 Y628.6207 Z-14.9968 I9.3805 J30.6728 F1140.00
G2 X53.0034 Y628.1342 Z-14.9968 I2.8478 J-0.9436 F1140.00
G1 X53.0034 Y628.1342 Z-15.0000 F1140.00
G2 X53.0299 Y627.9029 Z-15.0000 I-2.9650 J-0.4571 F1140.00
G3 X69.4166 Y523.6018 Z-15.0000 I613.7803 J42.9929 F1140.00
G1 X69.5000 Y522.8994 Z-15.0000 F1140.00
G1 X69.5000 Y520.2551 Z-15.0000 F1140.00
G2 X68.4395 Y517.9664 Z-15.0000 I-3.0000 J-0.0000 F1140.00
G3 X57.0000 Y505.2956 Z-15.0000 I35.5773 J-43.6195 F1140.00
G1 X57.0000 Y0.0000 Z-15.0000 F1140.00
G2 X54.9087 Y-2.8591 Z-15.0000 I-3.0000 J-0.0000 F1140.00
G2 X53.4759 Y-2.9539 Z-15.0000 I-0.9087 J2.8591 F1140.00
G3 X0.5241 Y-2.9539 Z-15.0000 I-26.4759 J-139.5339 F1140.00
G2 X-3.0000 Y0.0000 Z-15.0000 I-0.5241 J2.9539 F1140.00
G1 X-3.0000 Y347.0000 Z-15.0000 F1140.00
G2 X-0.9675 Y349.8397 Z-15.0000 I3.0000 J0.0000 F1140.00
G3 X16.0000 Y368.0196 Z-15.0000 I-7.3589 J23.8761 F1140.00
G1 X16.0000 Y505.0462 Z-15.0000 F1140.00
G3 X4.8229 Y514.5584 Z-15.0000 I-41.7919 J-37.7837 F1140.00
G2 X3.5000 Y517.0458 Z-15.0000 I1.6771 J2.4874 F1140.00
G1 X3.5000 Y519.6901 Z-15.0000 F1140.00
G1 X3.5398 Y520.1772 Z-15.0000 F1140.00
G3 X7.1416 Y562.7564 Z-15.0000 I-240.7100 J41.8034 F1140.00
G3 X3.5395 Y601.8312 Z-15.0000 I-247.1256 J-3.0774 F1140.00
G1 X3.5000 Y602.3165 Z-15.0000 F1140.00
G1 X3.5000 Y604.9608 Z-15.0000 F1140.00
G2 X7.3022 Y607.8516 Z-15.0000 I3.0000 J-0.0000 F1140.00
G3 X47.1907 Y628.6207 Z-15.0000 I9.3805 J30.6728 F1140.00
G2 X53.0034 Y628.1342 Z-15.0000 I2.8478 J-0.9436 F1140.00
G0 Z5.0032
(finish operation: Contour)
(begin postamble)
M5
G17 G90
; M2
