(Exported by FreeCAD)
(Post Processor: grbl_post)
(Output Time:2022-01-18 00:02:34.131596)
(begin preamble)
G17 G90
G21
(begin operation: T2: 1/4inENDMILL)
(Path: T2: 1/4inENDMILL)
(T2: 1/4inENDMILL)
(begin toolchange)
; M6 T2
M3 S0.0000
(finish operation: T2: 1/4inENDMILL)
(begin operation: MillFace001)
(Path: MillFace001)
(MillFace001)
G0 Z5.0032
G0 X11.2199 Y600.8507
G0 Z3.0032
G1 X11.2199 Y600.8507 Z-0.9968 F1140.00
G1 X9.9712 Y599.6019 Z-0.9968 F1140.00
G1 X9.8443 Y601.0797 Z-0.9968 F1140.00
G3 X11.2199 Y600.8507 Z-0.9968 I3.2926 J15.5311 F1140.00
G3 X18.5083 Y600.5023 Z-0.9968 I5.3991 J36.5414 F1140.00
G1 X10.5751 Y592.5691 Z-0.9968 F1140.00
G1 X11.1790 Y585.5362 Z-0.9968 F1140.00
G1 X27.7463 Y602.1036 Z-0.9968 F1140.00
G3 X47.9004 Y616.7274 Z-0.9968 I-10.9687 J36.3165 F1140.00
G1 X48.0677 Y614.7882 Z-0.9968 F1140.00
G1 X11.7828 Y578.5033 Z-0.9968 F1140.00
G1 X12.3867 Y571.4705 Z-0.9968 F1140.00
G1 X48.7375 Y607.8212 Z-0.9968 F1140.00
G3 X49.4787 Y600.9257 Z-0.9968 I326.2876 J31.5860 F1140.00
G1 X12.9906 Y564.4376 Z-0.9968 F1140.00
G1 X13.1499 Y562.5821 Z-0.9968 F1140.00
G2 X13.0960 Y556.9063 Z-0.9968 I-144.4530 J-1.4658 F1140.00
G1 X50.2913 Y594.1015 Z-0.9968 F1140.00
G3 X51.1713 Y587.3447 Z-0.9968 I319.2713 J38.1462 F1140.00
G1 X12.8061 Y548.9796 Z-0.9968 F1140.00
G2 X12.2412 Y540.7779 Z-0.9968 I-240.4151 J12.4406 F1140.00
G1 X52.1169 Y580.6536 Z-0.9968 F1140.00
G3 X53.1265 Y574.0265 Z-0.9968 I312.1601 J44.1667 F1140.00
G1 X11.3680 Y532.2680 Z-0.9968 F1140.00
G2 X10.1518 Y523.4150 Z-0.9968 I-245.3767 J29.2006 F1140.00
G1 X54.1987 Y567.4619 Z-0.9968 F1140.00
G3 X55.3320 Y560.9584 Z-0.9968 I307.0608 J50.1582 F1140.00
G1 X13.0397 Y518.6662 Z-0.9968 F1140.00
G2 X17.1256 Y515.1153 Z-0.9968 I-35.0128 J-44.4146 F1140.00
G1 X56.5250 Y554.5147 Z-0.9968 F1140.00
G3 X57.7765 Y548.1295 Z-0.9968 I313.1075 J58.0542 F1140.00
G1 X22.6470 Y513.0000 Z-0.9968 F1140.00
G1 X30.2838 Y513.0000 Z-0.9968 F1140.00
G1 X59.0864 Y541.8026 Z-0.9968 F1140.00
G3 X60.4534 Y535.5328 Z-0.9968 I302.6721 J62.7080 F1140.00
G1 X36.7656 Y511.8450 Z-0.9968 F1140.00
G1 X37.6427 Y511.8450 Z-0.9968 F1140.00
G2 X40.0000 Y513.0000 Z-0.9968 I2.3494 J-1.8119 F1140.00
G1 X45.5573 Y513.0000 Z-0.9968 F1140.00
G1 X61.8756 Y529.3183 Z-0.9968 F1140.00
G3 X63.1507 Y523.9934 Z-0.9968 I250.3513 J57.1342 F1140.00
G3 X53.1941 Y513.0000 Z-0.9968 I40.4286 J-46.6216 F1140.00
G1 X53.1941 Y513.0000 Z-1.9968 F1140.00
G2 X63.1507 Y523.9934 Z-1.9968 I50.3853 J-35.6282 F1140.00
G2 X61.8756 Y529.3183 Z-1.9968 I249.0762 J62.4591 F1140.00
G1 X45.5573 Y513.0000 Z-1.9968 F1140.00
G1 X40.0000 Y513.0000 Z-1.9968 F1140.00
G3 X37.6427 Y511.8450 Z-1.9968 I-0.0080 J-2.9669 F1140.00
G1 X36.7656 Y511.8450 Z-1.9968 F1140.00
G1 X60.4534 Y535.5328 Z-1.9968 F1140.00
G2 X59.0864 Y541.8026 Z-1.9968 I301.3051 J68.9777 F1140.00
G1 X30.2838 Y513.0000 Z-1.9968 F1140.00
G1 X22.6470 Y513.0000 Z-1.9968 F1140.00
G1 X57.7765 Y548.1295 Z-1.9968 F1140.00
G2 X56.5250 Y554.5147 Z-1.9968 I311.8560 J64.4394 F1140.00
G1 X17.1256 Y515.1153 Z-1.9968 F1140.00
G3 X13.0397 Y518.6662 Z-1.9968 I-39.0987 J-40.8637 F1140.00
G1 X55.3320 Y560.9584 Z-1.9968 F1140.00
G2 X54.1987 Y567.4619 Z-1.9968 I305.9275 J56.6616 F1140.00
G1 X10.1518 Y523.4150 Z-1.9968 F1140.00
G3 X11.3680 Y532.2680 Z-1.9968 I-244.1605 J38.0536 F1140.00
G1 X53.1265 Y574.0265 Z-1.9968 F1140.00
G2 X52.1169 Y580.6536 Z-1.9968 I311.1505 J50.7938 F1140.00
G1 X12.2412 Y540.7779 Z-1.9968 F1140.00
G3 X12.8061 Y548.9796 Z-1.9968 I-239.8501 J20.6423 F1140.00
G1 X51.1713 Y587.3447 Z-1.9968 F1140.00
G2 X50.2913 Y594.1015 Z-1.9968 I318.3913 J44.9029 F1140.00
G1 X13.0960 Y556.9063 Z-1.9968 F1140.00
G3 X13.1499 Y562.5821 Z-1.9968 I-144.3991 J4.2100 F1140.00
G1 X12.9906 Y564.4376 Z-1.9968 F1140.00
G1 X49.4787 Y600.9257 Z-1.9968 F1140.00
G2 X48.7375 Y607.8212 Z-1.9968 I325.5464 J38.4815 F1140.00
G1 X12.3867 Y571.4705 Z-1.9968 F1140.00
G1 X11.7828 Y578.5033 Z-1.9968 F1140.00
G1 X48.0677 Y614.7882 Z-1.9968 F1140.00
G1 X47.9004 Y616.7274 Z-1.9968 F1140.00
G2 X27.7463 Y602.1036 Z-1.9968 I-31.1228 J21.6927 F1140.00
G1 X11.1790 Y585.5362 Z-1.9968 F1140.00
G1 X10.5751 Y592.5691 Z-1.9968 F1140.00
G1 X18.5083 Y600.5023 Z-1.9968 F1140.00
G2 X11.2199 Y600.8507 Z-1.9968 I-1.8893 J36.8898 F1140.00
G2 X9.8443 Y601.0797 Z-1.9968 I1.9169 J15.7601 F1140.00
G1 X9.9712 Y599.6019 Z-1.9968 F1140.00
G1 X11.2199 Y600.8507 Z-1.9968 F1140.00
G1 X11.2199 Y600.8507 Z-2.9968 F1140.00
G1 X9.9712 Y599.6019 Z-2.9968 F1140.00
G1 X9.8443 Y601.0797 Z-2.9968 F1140.00
G3 X11.2199 Y600.8507 Z-2.9968 I3.2926 J15.5311 F1140.00
G3 X18.5083 Y600.5023 Z-2.9968 I5.3991 J36.5414 F1140.00
G1 X10.5751 Y592.5691 Z-2.9968 F1140.00
G1 X11.1790 Y585.5362 Z-2.9968 F1140.00
G1 X27.7463 Y602.1036 Z-2.9968 F1140.00
G3 X47.9004 Y616.7274 Z-2.9968 I-10.9687 J36.3165 F1140.00
G1 X48.0677 Y614.7882 Z-2.9968 F1140.00
G1 X11.7828 Y578.5033 Z-2.9968 F1140.00
G1 X12.3867 Y571.4705 Z-2.9968 F1140.00
G1 X48.7375 Y607.8212 Z-2.9968 F1140.00
G3 X49.4787 Y600.9257 Z-2.9968 I326.2876 J31.5860 F1140.00
G1 X12.9906 Y564.4376 Z-2.9968 F1140.00
G1 X13.1499 Y562.5821 Z-2.9968 F1140.00
G2 X13.0960 Y556.9063 Z-2.9968 I-144.4530 J-1.4658 F1140.00
G1 X50.2913 Y594.1015 Z-2.9968 F1140.00
G3 X51.1713 Y587.3447 Z-2.9968 I319.2713 J38.1462 F1140.00
G1 X12.8061 Y548.9796 Z-2.9968 F1140.00
G2 X12.2412 Y540.7779 Z-2.9968 I-240.4151 J12.4406 F1140.00
G1 X52.1169 Y580.6536 Z-2.9968 F1140.00
G3 X53.1265 Y574.0265 Z-2.9968 I312.1601 J44.1667 F1140.00
G1 X11.3680 Y532.2680 Z-2.9968 F1140.00
G2 X10.1518 Y523.4150 Z-2.9968 I-245.3767 J29.2006 F1140.00
G1 X54.1987 Y567.4619 Z-2.9968 F1140.00
G3 X55.3320 Y560.9584 Z-2.9968 I307.0608 J50.1582 F1140.00
G1 X13.0397 Y518.6662 Z-2.9968 F1140.00
G2 X17.1256 Y515.1153 Z-2.9968 I-35.0128 J-44.4146 F1140.00
G1 X56.5250 Y554.5147 Z-2.9968 F1140.00
G3 X57.7765 Y548.1295 Z-2.9968 I313.1075 J58.0542 F1140.00
G1 X22.6470 Y513.0000 Z-2.9968 F1140.00
G1 X30.2838 Y513.0000 Z-2.9968 F1140.00
G1 X59.0864 Y541.8026 Z-2.9968 F1140.00
G3 X60.4534 Y535.5328 Z-2.9968 I302.6721 J62.7080 F1140.00
G1 X36.7656 Y511.8450 Z-2.9968 F1140.00
G1 X37.6427 Y511.8450 Z-2.9968 F1140.00
G2 X40.0000 Y513.0000 Z-2.9968 I2.3494 J-1.8119 F1140.00
G1 X45.5573 Y513.0000 Z-2.9968 F1140.00
G1 X61.8756 Y529.3183 Z-2.9968 F1140.00
G3 X63.1507 Y523.9934 Z-2.9968 I250.3513 J57.1342 F1140.00
G3 X53.1941 Y513.0000 Z-2.9968 I40.4286 J-46.6216 F1140.00
G1 X53.1941 Y513.0000 Z-3.9968 F1140.00
G2 X63.1507 Y523.9934 Z-3.9968 I50.3853 J-35.6282 F1140.00
G2 X61.8756 Y529.3183 Z-3.9968 I249.0762 J62.4591 F1140.00
G1 X45.5573 Y513.0000 Z-3.9968 F1140.00
G1 X40.0000 Y513.0000 Z-3.9968 F1140.00
G3 X37.6427 Y511.8450 Z-3.9968 I-0.0080 J-2.9669 F1140.00
G1 X36.7656 Y511.8450 Z-3.9968 F1140.00
G1 X60.4534 Y535.5328 Z-3.9968 F1140.00
G2 X59.0864 Y541.8026 Z-3.9968 I301.3051 J68.9777 F1140.00
G1 X30.2838 Y513.0000 Z-3.9968 F1140.00
G1 X22.6470 Y513.0000 Z-3.9968 F1140.00
G1 X57.7765 Y548.1295 Z-3.9968 F1140.00
G2 X56.5250 Y554.5147 Z-3.9968 I311.8560 J64.4394 F1140.00
G1 X17.1256 Y515.1153 Z-3.9968 F1140.00
G3 X13.0397 Y518.6662 Z-3.9968 I-39.0987 J-40.8637 F1140.00
G1 X55.3320 Y560.9584 Z-3.9968 F1140.00
G2 X54.1987 Y567.4619 Z-3.9968 I305.9275 J56.6616 F1140.00
G1 X10.1518 Y523.4150 Z-3.9968 F1140.00
G3 X11.3680 Y532.2680 Z-3.9968 I-244.1605 J38.0536 F1140.00
G1 X53.1265 Y574.0265 Z-3.9968 F1140.00
G2 X52.1169 Y580.6536 Z-3.9968 I311.1505 J50.7938 F1140.00
G1 X12.2412 Y540.7779 Z-3.9968 F1140.00
G3 X12.8061 Y548.9796 Z-3.9968 I-239.8501 J20.6423 F1140.00
G1 X51.1713 Y587.3447 Z-3.9968 F1140.00
G2 X50.2913 Y594.1015 Z-3.9968 I318.3913 J44.9029 F1140.00
G1 X13.0960 Y556.9063 Z-3.9968 F1140.00
G3 X13.1499 Y562.5821 Z-3.9968 I-144.3991 J4.2100 F1140.00
G1 X12.9906 Y564.4376 Z-3.9968 F1140.00
G1 X49.4787 Y600.9257 Z-3.9968 F1140.00
G2 X48.7375 Y607.8212 Z-3.9968 I325.5464 J38.4815 F1140.00
G1 X12.3867 Y571.4705 Z-3.9968 F1140.00
G1 X11.7828 Y578.5033 Z-3.9968 F1140.00
G1 X48.0677 Y614.7882 Z-3.9968 F1140.00
G1 X47.9004 Y616.7274 Z-3.9968 F1140.00
G2 X27.7463 Y602.1036 Z-3.9968 I-31.1228 J21.6927 F1140.00
G1 X11.1790 Y585.5362 Z-3.9968 F1140.00
G1 X10.5751 Y592.5691 Z-3.9968 F1140.00
G1 X18.5083 Y600.5023 Z-3.9968 F1140.00
G2 X11.2199 Y600.8507 Z-3.9968 I-1.8893 J36.8898 F1140.00
G2 X9.8443 Y601.0797 Z-3.9968 I1.9169 J15.7601 F1140.00
G1 X9.9712 Y599.6019 Z-3.9968 F1140.00
G1 X11.2199 Y600.8507 Z-3.9968 F1140.00
G1 X11.2199 Y600.8507 Z-4.9968 F1140.00
G1 X9.9712 Y599.6019 Z-4.9968 F1140.00
G1 X9.8443 Y601.0797 Z-4.9968 F1140.00
G3 X11.2199 Y600.8507 Z-4.9968 I3.2926 J15.5311 F1140.00
G3 X18.5083 Y600.5023 Z-4.9968 I5.3991 J36.5414 F1140.00
G1 X10.5751 Y592.5691 Z-4.9968 F1140.00
G1 X11.1790 Y585.5362 Z-4.9968 F1140.00
G1 X27.7463 Y602.1036 Z-4.9968 F1140.00
G3 X47.9004 Y616.7274 Z-4.9968 I-10.9687 J36.3165 F1140.00
G1 X48.0677 Y614.7882 Z-4.9968 F1140.00
G1 X11.7828 Y578.5033 Z-4.9968 F1140.00
G1 X12.3867 Y571.4705 Z-4.9968 F1140.00
G1 X48.7375 Y607.8212 Z-4.9968 F1140.00
G3 X49.4787 Y600.9257 Z-4.9968 I326.2876 J31.5860 F1140.00
G1 X12.9906 Y564.4376 Z-4.9968 F1140.00
G1 X13.1499 Y562.5821 Z-4.9968 F1140.00
G2 X13.0960 Y556.9063 Z-4.9968 I-144.4530 J-1.4658 F1140.00
G1 X50.2913 Y594.1015 Z-4.9968 F1140.00
G3 X51.1713 Y587.3447 Z-4.9968 I319.2713 J38.1462 F1140.00
G1 X12.8061 Y548.9796 Z-4.9968 F1140.00
G2 X12.2412 Y540.7779 Z-4.9968 I-240.4151 J12.4406 F1140.00
G1 X52.1169 Y580.6536 Z-4.9968 F1140.00
G3 X53.1265 Y574.0265 Z-4.9968 I312.1601 J44.1667 F1140.00
G1 X11.3680 Y532.2680 Z-4.9968 F1140.00
G2 X10.1518 Y523.4150 Z-4.9968 I-245.3767 J29.2006 F1140.00
G1 X54.1987 Y567.4619 Z-4.9968 F1140.00
G3 X55.3320 Y560.9584 Z-4.9968 I307.0608 J50.1582 F1140.00
G1 X13.0397 Y518.6662 Z-4.9968 F1140.00
G2 X17.1256 Y515.1153 Z-4.9968 I-35.0128 J-44.4146 F1140.00
G1 X56.5250 Y554.5147 Z-4.9968 F1140.00
G3 X57.7765 Y548.1295 Z-4.9968 I313.1075 J58.0542 F1140.00
G1 X22.6470 Y513.0000 Z-4.9968 F1140.00
G1 X30.2838 Y513.0000 Z-4.9968 F1140.00
G1 X59.0864 Y541.8026 Z-4.9968 F1140.00
G3 X60.4534 Y535.5328 Z-4.9968 I302.6721 J62.7080 F1140.00
G1 X36.7656 Y511.8450 Z-4.9968 F1140.00
G1 X37.6427 Y511.8450 Z-4.9968 F1140.00
G2 X40.0000 Y513.0000 Z-4.9968 I2.3494 J-1.8119 F1140.00
G1 X45.5573 Y513.0000 Z-4.9968 F1140.00
G1 X61.8756 Y529.3183 Z-4.9968 F1140.00
G3 X63.1507 Y523.9934 Z-4.9968 I250.3513 J57.1342 F1140.00
G3 X53.1941 Y513.0000 Z-4.9968 I40.4286 J-46.6216 F1140.00
G1 X53.1941 Y513.0000 Z-5.9968 F1140.00
G2 X63.1507 Y523.9934 Z-5.9968 I50.3853 J-35.6282 F1140.00
G2 X61.8756 Y529.3183 Z-5.9968 I249.0762 J62.4591 F1140.00
G1 X45.5573 Y513.0000 Z-5.9968 F1140.00
G1 X40.0000 Y513.0000 Z-5.9968 F1140.00
G3 X37.6427 Y511.8450 Z-5.9968 I-0.0080 J-2.9669 F1140.00
G1 X36.7656 Y511.8450 Z-5.9968 F1140.00
G1 X60.4534 Y535.5328 Z-5.9968 F1140.00
G2 X59.0864 Y541.8026 Z-5.9968 I301.3051 J68.9777 F1140.00
G1 X30.2838 Y513.0000 Z-5.9968 F1140.00
G1 X22.6470 Y513.0000 Z-5.9968 F1140.00
G1 X57.7765 Y548.1295 Z-5.9968 F1140.00
G2 X56.5250 Y554.5147 Z-5.9968 I311.8560 J64.4394 F1140.00
G1 X17.1256 Y515.1153 Z-5.9968 F1140.00
G3 X13.0397 Y518.6662 Z-5.9968 I-39.0987 J-40.8637 F1140.00
G1 X55.3320 Y560.9584 Z-5.9968 F1140.00
G2 X54.1987 Y567.4619 Z-5.9968 I305.9275 J56.6616 F1140.00
G1 X10.1518 Y523.4150 Z-5.9968 F1140.00
G3 X11.3680 Y532.2680 Z-5.9968 I-244.1605 J38.0536 F1140.00
G1 X53.1265 Y574.0265 Z-5.9968 F1140.00
G2 X52.1169 Y580.6536 Z-5.9968 I311.1505 J50.7938 F1140.00
G1 X12.2412 Y540.7779 Z-5.9968 F1140.00
G3 X12.8061 Y548.9796 Z-5.9968 I-239.8501 J20.6423 F1140.00
G1 X51.1713 Y587.3447 Z-5.9968 F1140.00
G2 X50.2913 Y594.1015 Z-5.9968 I318.3913 J44.9029 F1140.00
G1 X13.0960 Y556.9063 Z-5.9968 F1140.00
G3 X13.1499 Y562.5821 Z-5.9968 I-144.3991 J4.2100 F1140.00
G1 X12.9906 Y564.4376 Z-5.9968 F1140.00
G1 X49.4787 Y600.9257 Z-5.9968 F1140.00
G2 X48.7375 Y607.8212 Z-5.9968 I325.5464 J38.4815 F1140.00
G1 X12.3867 Y571.4705 Z-5.9968 F1140.00
G1 X11.7828 Y578.5033 Z-5.9968 F1140.00
G1 X48.0677 Y614.7882 Z-5.9968 F1140.00
G1 X47.9004 Y616.7274 Z-5.9968 F1140.00
G2 X27.7463 Y602.1036 Z-5.9968 I-31.1228 J21.6927 F1140.00
G1 X11.1790 Y585.5362 Z-5.9968 F1140.00
G1 X10.5751 Y592.5691 Z-5.9968 F1140.00
G1 X18.5083 Y600.5023 Z-5.9968 F1140.00
G2 X11.2199 Y600.8507 Z-5.9968 I-1.8893 J36.8898 F1140.00
G2 X9.8443 Y601.0797 Z-5.9968 I1.9169 J15.7601 F1140.00
G1 X9.9712 Y599.6019 Z-5.9968 F1140.00
G1 X11.2199 Y600.8507 Z-5.9968 F1140.00
G1 X11.2199 Y600.8507 Z-6.0000 F1140.00
G1 X9.9712 Y599.6019 Z-6.0000 F1140.00
G1 X9.8443 Y601.0797 Z-6.0000 F1140.00
G3 X11.2199 Y600.8507 Z-6.0000 I3.2926 J15.5311 F1140.00
G3 X18.5083 Y600.5023 Z-6.0000 I5.3991 J36.5414 F1140.00
G1 X10.5751 Y592.5691 Z-6.0000 F1140.00
G1 X11.1790 Y585.5362 Z-6.0000 F1140.00
G1 X27.7463 Y602.1036 Z-6.0000 F1140.00
G3 X47.9004 Y616.7274 Z-6.0000 I-10.9687 J36.3165 F1140.00
G1 X48.0677 Y614.7882 Z-6.0000 F1140.00
G1 X11.7828 Y578.5033 Z-6.0000 F1140.00
G1 X12.3867 Y571.4705 Z-6.0000 F1140.00
G1 X48.7375 Y607.8212 Z-6.0000 F1140.00
G3 X49.4787 Y600.9257 Z-6.0000 I326.2876 J31.5860 F1140.00
G1 X12.9906 Y564.4376 Z-6.0000 F1140.00
G1 X13.1499 Y562.5821 Z-6.0000 F1140.00
G2 X13.0960 Y556.9063 Z-6.0000 I-144.4530 J-1.4658 F1140.00
G1 X50.2913 Y594.1015 Z-6.0000 F1140.00
G3 X51.1713 Y587.3447 Z-6.0000 I319.2713 J38.1462 F1140.00
G1 X12.8061 Y548.9796 Z-6.0000 F1140.00
G2 X12.2412 Y540.7779 Z-6.0000 I-240.4151 J12.4406 F1140.00
G1 X52.1169 Y580.6536 Z-6.0000 F1140.00
G3 X53.1265 Y574.0265 Z-6.0000 I312.1601 J44.1667 F1140.00
G1 X11.3680 Y532.2680 Z-6.0000 F1140.00
G2 X10.1518 Y523.4150 Z-6.0000 I-245.3767 J29.2006 F1140.00
G1 X54.1987 Y567.4619 Z-6.0000 F1140.00
G3 X55.3320 Y560.9584 Z-6.0000 I307.0608 J50.1582 F1140.00
G1 X13.0397 Y518.6662 Z-6.0000 F1140.00
G2 X17.1256 Y515.1153 Z-6.0000 I-35.0128 J-44.4146 F1140.00
G1 X56.5250 Y554.5147 Z-6.0000 F1140.00
G3 X57.7765 Y548.1295 Z-6.0000 I313.1075 J58.0542 F1140.00
G1 X22.6470 Y513.0000 Z-6.0000 F1140.00
G1 X30.2838 Y513.0000 Z-6.0000 F1140.00
G1 X59.0864 Y541.8026 Z-6.0000 F1140.00
G3 X60.4534 Y535.5328 Z-6.0000 I302.6721 J62.7080 F1140.00
G1 X36.7656 Y511.8450 Z-6.0000 F1140.00
G1 X37.6427 Y511.8450 Z-6.0000 F1140.00
G2 X40.0000 Y513.0000 Z-6.0000 I2.3494 J-1.8119 F1140.00
G1 X45.5573 Y513.0000 Z-6.0000 F1140.00
G1 X61.8756 Y529.3183 Z-6.0000 F1140.00
G3 X63.1507 Y523.9934 Z-6.0000 I250.3513 J57.1342 F1140.00
G3 X53.1941 Y513.0000 Z-6.0000 I40.4286 J-46.6216 F1140.00
G0 Z5.0032
(finish operation: MillFace001)
(begin operation: Pocket_Shape)
(Path: Pocket_Shape)
(Pocket_Shape)
G0 Z5.0032
G0 X37.0000 Y499.6905
G0 Z3.0032
G1 X37.0000 Y499.6905 Z-1.2468 F1140.00
G1 X37.0000 Y504.8937 Z-1.2468 F1140.00
G1 X36.0000 Y504.8937 Z-1.2468 F1140.00
G1 X36.0000 Y498.6905 Z-1.2468 F1140.00
G1 X37.0000 Y499.6905 Z-1.2468 F1140.00
G1 X37.0000 Y491.2052 Z-1.2468 F1140.00
G1 X36.0000 Y490.2052 Z-1.2468 F1140.00
G1 X36.0000 Y481.7199 Z-1.2468 F1140.00
G1 X37.0000 Y482.7199 Z-1.2468 F1140.00
G1 X37.0000 Y474.2346 Z-1.2468 F1140.00
G1 X36.0000 Y473.2346 Z-1.2468 F1140.00
G1 X36.0000 Y464.7493 Z-1.2468 F1140.00
G1 X37.0000 Y465.7493 Z-1.2468 F1140.00
G1 X37.0000 Y457.2641 Z-1.2468 F1140.00
G1 X36.0000 Y456.2641 Z-1.2468 F1140.00
G1 X36.0000 Y447.7788 Z-1.2468 F1140.00
G1 X37.0000 Y448.7788 Z-1.2468 F1140.00
G1 X37.0000 Y440.2935 Z-1.2468 F1140.00
G1 X36.0000 Y439.2935 Z-1.2468 F1140.00
G1 X36.0000 Y430.8082 Z-1.2468 F1140.00
G1 X37.0000 Y431.8082 Z-1.2468 F1140.00
G1 X37.0000 Y423.3229 Z-1.2468 F1140.00
G1 X36.0000 Y422.3229 Z-1.2468 F1140.00
G1 X36.0000 Y413.8377 Z-1.2468 F1140.00
G1 X37.0000 Y414.8377 Z-1.2468 F1140.00
G1 X37.0000 Y406.3524 Z-1.2468 F1140.00
G1 X36.0000 Y405.3524 Z-1.2468 F1140.00
G1 X36.0000 Y396.8671 Z-1.2468 F1140.00
G1 X37.0000 Y397.8671 Z-1.2468 F1140.00
G1 X37.0000 Y389.3818 Z-1.2468 F1140.00
G1 X36.0000 Y388.3818 Z-1.2468 F1140.00
G1 X36.0000 Y379.8965 Z-1.2468 F1140.00
G1 X37.0000 Y380.8965 Z-1.2468 F1140.00
G1 X37.0000 Y372.4113 Z-1.2468 F1140.00
G1 X36.0000 Y371.4113 Z-1.2468 F1140.00
G1 X36.0000 Y362.9260 Z-1.2468 F1140.00
G1 X37.0000 Y363.9260 Z-1.2468 F1140.00
G1 X37.0000 Y355.4407 Z-1.2468 F1140.00
G1 X36.0000 Y354.4407 Z-1.2468 F1140.00
G1 X36.0000 Y345.9554 Z-1.2468 F1140.00
G1 X37.0000 Y346.9554 Z-1.2468 F1140.00
G1 X37.0000 Y338.4701 Z-1.2468 F1140.00
G1 X36.0000 Y337.4701 Z-1.2468 F1140.00
G1 X36.0000 Y328.9848 Z-1.2468 F1140.00
G1 X37.0000 Y329.9848 Z-1.2468 F1140.00
G1 X37.0000 Y321.4996 Z-1.2468 F1140.00
G1 X36.0000 Y320.4996 Z-1.2468 F1140.00
G1 X36.0000 Y312.0143 Z-1.2468 F1140.00
G1 X37.0000 Y313.0143 Z-1.2468 F1140.00
G1 X37.0000 Y304.5290 Z-1.2468 F1140.00
G1 X36.0000 Y303.5290 Z-1.2468 F1140.00
G1 X36.0000 Y295.0437 Z-1.2468 F1140.00
G1 X37.0000 Y296.0437 Z-1.2468 F1140.00
G1 X37.0000 Y287.5584 Z-1.2468 F1140.00
G1 X36.0000 Y286.5584 Z-1.2468 F1140.00
G1 X36.0000 Y278.0732 Z-1.2468 F1140.00
G1 X37.0000 Y279.0732 Z-1.2468 F1140.00
G1 X37.0000 Y270.5879 Z-1.2468 F1140.00
G1 X36.0000 Y269.5879 Z-1.2468 F1140.00
G1 X36.0000 Y261.1026 Z-1.2468 F1140.00
G1 X37.0000 Y262.1026 Z-1.2468 F1140.00
G1 X37.0000 Y253.6173 Z-1.2468 F1140.00
G1 X36.0000 Y252.6173 Z-1.2468 F1140.00
G1 X36.0000 Y244.1320 Z-1.2468 F1140.00
G1 X37.0000 Y245.1320 Z-1.2468 F1140.00
G1 X37.0000 Y236.6468 Z-1.2468 F1140.00
G1 X36.0000 Y235.6468 Z-1.2468 F1140.00
G1 X36.0000 Y227.1615 Z-1.2468 F1140.00
G1 X37.0000 Y228.1615 Z-1.2468 F1140.00
G1 X37.0000 Y219.6762 Z-1.2468 F1140.00
G1 X36.0000 Y218.6762 Z-1.2468 F1140.00
G1 X36.0000 Y210.1909 Z-1.2468 F1140.00
G1 X37.0000 Y211.1909 Z-1.2468 F1140.00
G1 X37.0000 Y202.7056 Z-1.2468 F1140.00
G1 X36.0000 Y201.7056 Z-1.2468 F1140.00
G1 X36.0000 Y193.2203 Z-1.2468 F1140.00
G1 X37.0000 Y194.2203 Z-1.2468 F1140.00
G1 X37.0000 Y185.7351 Z-1.2468 F1140.00
G1 X36.0000 Y184.7351 Z-1.2468 F1140.00
G1 X36.0000 Y176.2498 Z-1.2468 F1140.00
G1 X37.0000 Y177.2498 Z-1.2468 F1140.00
G1 X37.0000 Y168.7645 Z-1.2468 F1140.00
G1 X36.0000 Y167.7645 Z-1.2468 F1140.00
G1 X36.0000 Y159.2792 Z-1.2468 F1140.00
G1 X37.0000 Y160.2792 Z-1.2468 F1140.00
G1 X37.0000 Y151.7939 Z-1.2468 F1140.00
G1 X36.0000 Y150.7939 Z-1.2468 F1140.00
G1 X36.0000 Y142.3087 Z-1.2468 F1140.00
G1 X37.0000 Y143.3087 Z-1.2468 F1140.00
G1 X37.0000 Y134.8234 Z-1.2468 F1140.00
G1 X36.0000 Y133.8234 Z-1.2468 F1140.00
G1 X36.0000 Y125.3381 Z-1.2468 F1140.00
G1 X37.0000 Y126.3381 Z-1.2468 F1140.00
G1 X37.0000 Y117.8528 Z-1.2468 F1140.00
G1 X36.0000 Y116.8528 Z-1.2468 F1140.00
G1 X36.0000 Y108.3675 Z-1.2468 F1140.00
G1 X37.0000 Y109.3675 Z-1.2468 F1140.00
G1 X37.0000 Y100.8823 Z-1.2468 F1140.00
G1 X36.0000 Y99.8823 Z-1.2468 F1140.00
G1 X36.0000 Y91.3970 Z-1.2468 F1140.00
G1 X37.0000 Y92.3970 Z-1.2468 F1140.00
G1 X37.0000 Y83.9117 Z-1.2468 F1140.00
G1 X36.0000 Y82.9117 Z-1.2468 F1140.00
G1 X36.0000 Y74.4264 Z-1.2468 F1140.00
G1 X37.0000 Y75.4264 Z-1.2468 F1140.00
G1 X37.0000 Y66.9411 Z-1.2468 F1140.00
G1 X36.0000 Y65.9411 Z-1.2468 F1140.00
G1 X36.0000 Y57.4558 Z-1.2468 F1140.00
G1 X37.0000 Y58.4558 Z-1.2468 F1140.00
G1 X37.0000 Y49.9706 Z-1.2468 F1140.00
G1 X36.0000 Y48.9706 Z-1.2468 F1140.00
G1 X36.0000 Y40.4853 Z-1.2468 F1140.00
G1 X37.0000 Y41.4853 Z-1.2468 F1140.00
G1 X37.0000 Y33.0000 Z-1.2468 F1140.00
G1 X37.0000 Y33.0000 Z-2.4968 F1140.00
G1 X37.0000 Y41.4853 Z-2.4968 F1140.00
G1 X36.0000 Y40.4853 Z-2.4968 F1140.00
G1 X36.0000 Y48.9706 Z-2.4968 F1140.00
G1 X37.0000 Y49.9706 Z-2.4968 F1140.00
G1 X37.0000 Y58.4558 Z-2.4968 F1140.00
G1 X36.0000 Y57.4558 Z-2.4968 F1140.00
G1 X36.0000 Y65.9411 Z-2.4968 F1140.00
G1 X37.0000 Y66.9411 Z-2.4968 F1140.00
G1 X37.0000 Y75.4264 Z-2.4968 F1140.00
G1 X36.0000 Y74.4264 Z-2.4968 F1140.00
G1 X36.0000 Y82.9117 Z-2.4968 F1140.00
G1 X37.0000 Y83.9117 Z-2.4968 F1140.00
G1 X37.0000 Y92.3970 Z-2.4968 F1140.00
G1 X36.0000 Y91.3970 Z-2.4968 F1140.00
G1 X36.0000 Y99.8823 Z-2.4968 F1140.00
G1 X37.0000 Y100.8823 Z-2.4968 F1140.00
G1 X37.0000 Y109.3675 Z-2.4968 F1140.00
G1 X36.0000 Y108.3675 Z-2.4968 F1140.00
G1 X36.0000 Y116.8528 Z-2.4968 F1140.00
G1 X37.0000 Y117.8528 Z-2.4968 F1140.00
G1 X37.0000 Y126.3381 Z-2.4968 F1140.00
G1 X36.0000 Y125.3381 Z-2.4968 F1140.00
G1 X36.0000 Y133.8234 Z-2.4968 F1140.00
G1 X37.0000 Y134.8234 Z-2.4968 F1140.00
G1 X37.0000 Y143.3087 Z-2.4968 F1140.00
G1 X36.0000 Y142.3087 Z-2.4968 F1140.00
G1 X36.0000 Y150.7939 Z-2.4968 F1140.00
G1 X37.0000 Y151.7939 Z-2.4968 F1140.00
G1 X37.0000 Y160.2792 Z-2.4968 F1140.00
G1 X36.0000 Y159.2792 Z-2.4968 F1140.00
G1 X36.0000 Y167.7645 Z-2.4968 F1140.00
G1 X37.0000 Y168.7645 Z-2.4968 F1140.00
G1 X37.0000 Y177.2498 Z-2.4968 F1140.00
G1 X36.0000 Y176.2498 Z-2.4968 F1140.00
G1 X36.0000 Y184.7351 Z-2.4968 F1140.00
G1 X37.0000 Y185.7351 Z-2.4968 F1140.00
G1 X37.0000 Y194.2203 Z-2.4968 F1140.00
G1 X36.0000 Y193.2203 Z-2.4968 F1140.00
G1 X36.0000 Y201.7056 Z-2.4968 F1140.00
G1 X37.0000 Y202.7056 Z-2.4968 F1140.00
G1 X37.0000 Y211.1909 Z-2.4968 F1140.00
G1 X36.0000 Y210.1909 Z-2.4968 F1140.00
G1 X36.0000 Y218.6762 Z-2.4968 F1140.00
G1 X37.0000 Y219.6762 Z-2.4968 F1140.00
G1 X37.0000 Y228.1615 Z-2.4968 F1140.00
G1 X36.0000 Y227.1615 Z-2.4968 F1140.00
G1 X36.0000 Y235.6468 Z-2.4968 F1140.00
G1 X37.0000 Y236.6468 Z-2.4968 F1140.00
G1 X37.0000 Y245.1320 Z-2.4968 F1140.00
G1 X36.0000 Y244.1320 Z-2.4968 F1140.00
G1 X36.0000 Y252.6173 Z-2.4968 F1140.00
G1 X37.0000 Y253.6173 Z-2.4968 F1140.00
G1 X37.0000 Y262.1026 Z-2.4968 F1140.00
G1 X36.0000 Y261.1026 Z-2.4968 F1140.00
G1 X36.0000 Y269.5879 Z-2.4968 F1140.00
G1 X37.0000 Y270.5879 Z-2.4968 F1140.00
G1 X37.0000 Y279.0732 Z-2.4968 F1140.00
G1 X36.0000 Y278.0732 Z-2.4968 F1140.00
G1 X36.0000 Y286.5584 Z-2.4968 F1140.00
G1 X37.0000 Y287.5584 Z-2.4968 F1140.00
G1 X37.0000 Y296.0437 Z-2.4968 F1140.00
G1 X36.0000 Y295.0437 Z-2.4968 F1140.00
G1 X36.0000 Y303.5290 Z-2.4968 F1140.00
G1 X37.0000 Y304.5290 Z-2.4968 F1140.00
G1 X37.0000 Y313.0143 Z-2.4968 F1140.00
G1 X36.0000 Y312.0143 Z-2.4968 F1140.00
G1 X36.0000 Y320.4996 Z-2.4968 F1140.00
G1 X37.0000 Y321.4996 Z-2.4968 F1140.00
G1 X37.0000 Y329.9848 Z-2.4968 F1140.00
G1 X36.0000 Y328.9848 Z-2.4968 F1140.00
G1 X36.0000 Y337.4701 Z-2.4968 F1140.00
G1 X37.0000 Y338.4701 Z-2.4968 F1140.00
G1 X37.0000 Y346.9554 Z-2.4968 F1140.00
G1 X36.0000 Y345.9554 Z-2.4968 F1140.00
G1 X36.0000 Y354.4407 Z-2.4968 F1140.00
G1 X37.0000 Y355.4407 Z-2.4968 F1140.00
G1 X37.0000 Y363.9260 Z-2.4968 F1140.00
G1 X36.0000 Y362.9260 Z-2.4968 F1140.00
G1 X36.0000 Y371.4113 Z-2.4968 F1140.00
G1 X37.0000 Y372.4113 Z-2.4968 F1140.00
G1 X37.0000 Y380.8965 Z-2.4968 F1140.00
G1 X36.0000 Y379.8965 Z-2.4968 F1140.00
G1 X36.0000 Y388.3818 Z-2.4968 F1140.00
G1 X37.0000 Y389.3818 Z-2.4968 F1140.00
G1 X37.0000 Y397.8671 Z-2.4968 F1140.00
G1 X36.0000 Y396.8671 Z-2.4968 F1140.00
G1 X36.0000 Y405.3524 Z-2.4968 F1140.00
G1 X37.0000 Y406.3524 Z-2.4968 F1140.00
G1 X37.0000 Y414.8377 Z-2.4968 F1140.00
G1 X36.0000 Y413.8377 Z-2.4968 F1140.00
G1 X36.0000 Y422.3229 Z-2.4968 F1140.00
G1 X37.0000 Y423.3229 Z-2.4968 F1140.00
G1 X37.0000 Y431.8082 Z-2.4968 F1140.00
G1 X36.0000 Y430.8082 Z-2.4968 F1140.00
G1 X36.0000 Y439.2935 Z-2.4968 F1140.00
G1 X37.0000 Y440.2935 Z-2.4968 F1140.00
G1 X37.0000 Y448.7788 Z-2.4968 F1140.00
G1 X36.0000 Y447.7788 Z-2.4968 F1140.00
G1 X36.0000 Y456.2641 Z-2.4968 F1140.00
G1 X37.0000 Y457.2641 Z-2.4968 F1140.00
G1 X37.0000 Y465.7493 Z-2.4968 F1140.00
G1 X36.0000 Y464.7493 Z-2.4968 F1140.00
G1 X36.0000 Y473.2346 Z-2.4968 F1140.00
G1 X37.0000 Y474.2346 Z-2.4968 F1140.00
G1 X37.0000 Y482.7199 Z-2.4968 F1140.00
G1 X36.0000 Y481.7199 Z-2.4968 F1140.00
G1 X36.0000 Y490.2052 Z-2.4968 F1140.00
G1 X37.0000 Y491.2052 Z-2.4968 F1140.00
G1 X37.0000 Y499.6905 Z-2.4968 F1140.00
G1 X36.0000 Y498.6905 Z-2.4968 F1140.00
G1 X36.0000 Y504.8937 Z-2.4968 F1140.00
G1 X37.0000 Y504.8937 Z-2.4968 F1140.00
G1 X37.0000 Y499.6905 Z-2.4968 F1140.00
G1 X37.0000 Y499.6905 Z-3.7468 F1140.00
G1 X37.0000 Y504.8937 Z-3.7468 F1140.00
G1 X36.0000 Y504.8937 Z-3.7468 F1140.00
G1 X36.0000 Y498.6905 Z-3.7468 F1140.00
G1 X37.0000 Y499.6905 Z-3.7468 F1140.00
G1 X37.0000 Y491.2052 Z-3.7468 F1140.00
G1 X36.0000 Y490.2052 Z-3.7468 F1140.00
G1 X36.0000 Y481.7199 Z-3.7468 F1140.00
G1 X37.0000 Y482.7199 Z-3.7468 F1140.00
G1 X37.0000 Y474.2346 Z-3.7468 F1140.00
G1 X36.0000 Y473.2346 Z-3.7468 F1140.00
G1 X36.0000 Y464.7493 Z-3.7468 F1140.00
G1 X37.0000 Y465.7493 Z-3.7468 F1140.00
G1 X37.0000 Y457.2641 Z-3.7468 F1140.00
G1 X36.0000 Y456.2641 Z-3.7468 F1140.00
G1 X36.0000 Y447.7788 Z-3.7468 F1140.00
G1 X37.0000 Y448.7788 Z-3.7468 F1140.00
G1 X37.0000 Y440.2935 Z-3.7468 F1140.00
G1 X36.0000 Y439.2935 Z-3.7468 F1140.00
G1 X36.0000 Y430.8082 Z-3.7468 F1140.00
G1 X37.0000 Y431.8082 Z-3.7468 F1140.00
G1 X37.0000 Y423.3229 Z-3.7468 F1140.00
G1 X36.0000 Y422.3229 Z-3.7468 F1140.00
G1 X36.0000 Y413.8377 Z-3.7468 F1140.00
G1 X37.0000 Y414.8377 Z-3.7468 F1140.00
G1 X37.0000 Y406.3524 Z-3.7468 F1140.00
G1 X36.0000 Y405.3524 Z-3.7468 F1140.00
G1 X36.0000 Y396.8671 Z-3.7468 F1140.00
G1 X37.0000 Y397.8671 Z-3.7468 F1140.00
G1 X37.0000 Y389.3818 Z-3.7468 F1140.00
G1 X36.0000 Y388.3818 Z-3.7468 F1140.00
G1 X36.0000 Y379.8965 Z-3.7468 F1140.00
G1 X37.0000 Y380.8965 Z-3.7468 F1140.00
G1 X37.0000 Y372.4113 Z-3.7468 F1140.00
G1 X36.0000 Y371.4113 Z-3.7468 F1140.00
G1 X36.0000 Y362.9260 Z-3.7468 F1140.00
G1 X37.0000 Y363.9260 Z-3.7468 F1140.00
G1 X37.0000 Y355.4407 Z-3.7468 F1140.00
G1 X36.0000 Y354.4407 Z-3.7468 F1140.00
G1 X36.0000 Y345.9554 Z-3.7468 F1140.00
G1 X37.0000 Y346.9554 Z-3.7468 F1140.00
G1 X37.0000 Y338.4701 Z-3.7468 F1140.00
G1 X36.0000 Y337.4701 Z-3.7468 F1140.00
G1 X36.0000 Y328.9848 Z-3.7468 F1140.00
G1 X37.0000 Y329.9848 Z-3.7468 F1140.00
G1 X37.0000 Y321.4996 Z-3.7468 F1140.00
G1 X36.0000 Y320.4996 Z-3.7468 F1140.00
G1 X36.0000 Y312.0143 Z-3.7468 F1140.00
G1 X37.0000 Y313.0143 Z-3.7468 F1140.00
G1 X37.0000 Y304.5290 Z-3.7468 F1140.00
G1 X36.0000 Y303.5290 Z-3.7468 F1140.00
G1 X36.0000 Y295.0437 Z-3.7468 F1140.00
G1 X37.0000 Y296.0437 Z-3.7468 F1140.00
G1 X37.0000 Y287.5584 Z-3.7468 F1140.00
G1 X36.0000 Y286.5584 Z-3.7468 F1140.00
G1 X36.0000 Y278.0732 Z-3.7468 F1140.00
G1 X37.0000 Y279.0732 Z-3.7468 F1140.00
G1 X37.0000 Y270.5879 Z-3.7468 F1140.00
G1 X36.0000 Y269.5879 Z-3.7468 F1140.00
G1 X36.0000 Y261.1026 Z-3.7468 F1140.00
G1 X37.0000 Y262.1026 Z-3.7468 F1140.00
G1 X37.0000 Y253.6173 Z-3.7468 F1140.00
G1 X36.0000 Y252.6173 Z-3.7468 F1140.00
G1 X36.0000 Y244.1320 Z-3.7468 F1140.00
G1 X37.0000 Y245.1320 Z-3.7468 F1140.00
G1 X37.0000 Y236.6468 Z-3.7468 F1140.00
G1 X36.0000 Y235.6468 Z-3.7468 F1140.00
G1 X36.0000 Y227.1615 Z-3.7468 F1140.00
G1 X37.0000 Y228.1615 Z-3.7468 F1140.00
G1 X37.0000 Y219.6762 Z-3.7468 F1140.00
G1 X36.0000 Y218.6762 Z-3.7468 F1140.00
G1 X36.0000 Y210.1909 Z-3.7468 F1140.00
G1 X37.0000 Y211.1909 Z-3.7468 F1140.00
G1 X37.0000 Y202.7056 Z-3.7468 F1140.00
G1 X36.0000 Y201.7056 Z-3.7468 F1140.00
G1 X36.0000 Y193.2203 Z-3.7468 F1140.00
G1 X37.0000 Y194.2203 Z-3.7468 F1140.00
G1 X37.0000 Y185.7351 Z-3.7468 F1140.00
G1 X36.0000 Y184.7351 Z-3.7468 F1140.00
G1 X36.0000 Y176.2498 Z-3.7468 F1140.00
G1 X37.0000 Y177.2498 Z-3.7468 F1140.00
G1 X37.0000 Y168.7645 Z-3.7468 F1140.00
G1 X36.0000 Y167.7645 Z-3.7468 F1140.00
G1 X36.0000 Y159.2792 Z-3.7468 F1140.00
G1 X37.0000 Y160.2792 Z-3.7468 F1140.00
G1 X37.0000 Y151.7939 Z-3.7468 F1140.00
G1 X36.0000 Y150.7939 Z-3.7468 F1140.00
G1 X36.0000 Y142.3087 Z-3.7468 F1140.00
G1 X37.0000 Y143.3087 Z-3.7468 F1140.00
G1 X37.0000 Y134.8234 Z-3.7468 F1140.00
G1 X36.0000 Y133.8234 Z-3.7468 F1140.00
G1 X36.0000 Y125.3381 Z-3.7468 F1140.00
G1 X37.0000 Y126.3381 Z-3.7468 F1140.00
G1 X37.0000 Y117.8528 Z-3.7468 F1140.00
G1 X36.0000 Y116.8528 Z-3.7468 F1140.00
G1 X36.0000 Y108.3675 Z-3.7468 F1140.00
G1 X37.0000 Y109.3675 Z-3.7468 F1140.00
G1 X37.0000 Y100.8823 Z-3.7468 F1140.00
G1 X36.0000 Y99.8823 Z-3.7468 F1140.00
G1 X36.0000 Y91.3970 Z-3.7468 F1140.00
G1 X37.0000 Y92.3970 Z-3.7468 F1140.00
G1 X37.0000 Y83.9117 Z-3.7468 F1140.00
G1 X36.0000 Y82.9117 Z-3.7468 F1140.00
G1 X36.0000 Y74.4264 Z-3.7468 F1140.00
G1 X37.0000 Y75.4264 Z-3.7468 F1140.00
G1 X37.0000 Y66.9411 Z-3.7468 F1140.00
G1 X36.0000 Y65.9411 Z-3.7468 F1140.00
G1 X36.0000 Y57.4558 Z-3.7468 F1140.00
G1 X37.0000 Y58.4558 Z-3.7468 F1140.00
G1 X37.0000 Y49.9706 Z-3.7468 F1140.00
G1 X36.0000 Y48.9706 Z-3.7468 F1140.00
G1 X36.0000 Y40.4853 Z-3.7468 F1140.00
G1 X37.0000 Y41.4853 Z-3.7468 F1140.00
G1 X37.0000 Y33.0000 Z-3.7468 F1140.00
G1 X37.0000 Y33.0000 Z-4.9968 F1140.00
G1 X37.0000 Y41.4853 Z-4.9968 F1140.00
G1 X36.0000 Y40.4853 Z-4.9968 F1140.00
G1 X36.0000 Y48.9706 Z-4.9968 F1140.00
G1 X37.0000 Y49.9706 Z-4.9968 F1140.00
G1 X37.0000 Y58.4558 Z-4.9968 F1140.00
G1 X36.0000 Y57.4558 Z-4.9968 F1140.00
G1 X36.0000 Y65.9411 Z-4.9968 F1140.00
G1 X37.0000 Y66.9411 Z-4.9968 F1140.00
G1 X37.0000 Y75.4264 Z-4.9968 F1140.00
G1 X36.0000 Y74.4264 Z-4.9968 F1140.00
G1 X36.0000 Y82.9117 Z-4.9968 F1140.00
G1 X37.0000 Y83.9117 Z-4.9968 F1140.00
G1 X37.0000 Y92.3970 Z-4.9968 F1140.00
G1 X36.0000 Y91.3970 Z-4.9968 F1140.00
G1 X36.0000 Y99.8823 Z-4.9968 F1140.00
G1 X37.0000 Y100.8823 Z-4.9968 F1140.00
G1 X37.0000 Y109.3675 Z-4.9968 F1140.00
G1 X36.0000 Y108.3675 Z-4.9968 F1140.00
G1 X36.0000 Y116.8528 Z-4.9968 F1140.00
G1 X37.0000 Y117.8528 Z-4.9968 F1140.00
G1 X37.0000 Y126.3381 Z-4.9968 F1140.00
G1 X36.0000 Y125.3381 Z-4.9968 F1140.00
G1 X36.0000 Y133.8234 Z-4.9968 F1140.00
G1 X37.0000 Y134.8234 Z-4.9968 F1140.00
G1 X37.0000 Y143.3087 Z-4.9968 F1140.00
G1 X36.0000 Y142.3087 Z-4.9968 F1140.00
G1 X36.0000 Y150.7939 Z-4.9968 F1140.00
G1 X37.0000 Y151.7939 Z-4.9968 F1140.00
G1 X37.0000 Y160.2792 Z-4.9968 F1140.00
G1 X36.0000 Y159.2792 Z-4.9968 F1140.00
G1 X36.0000 Y167.7645 Z-4.9968 F1140.00
G1 X37.0000 Y168.7645 Z-4.9968 F1140.00
G1 X37.0000 Y177.2498 Z-4.9968 F1140.00
G1 X36.0000 Y176.2498 Z-4.9968 F1140.00
G1 X36.0000 Y184.7351 Z-4.9968 F1140.00
G1 X37.0000 Y185.7351 Z-4.9968 F1140.00
G1 X37.0000 Y194.2203 Z-4.9968 F1140.00
G1 X36.0000 Y193.2203 Z-4.9968 F1140.00
G1 X36.0000 Y201.7056 Z-4.9968 F1140.00
G1 X37.0000 Y202.7056 Z-4.9968 F1140.00
G1 X37.0000 Y211.1909 Z-4.9968 F1140.00
G1 X36.0000 Y210.1909 Z-4.9968 F1140.00
G1 X36.0000 Y218.6762 Z-4.9968 F1140.00
G1 X37.0000 Y219.6762 Z-4.9968 F1140.00
G1 X37.0000 Y228.1615 Z-4.9968 F1140.00
G1 X36.0000 Y227.1615 Z-4.9968 F1140.00
G1 X36.0000 Y235.6468 Z-4.9968 F1140.00
G1 X37.0000 Y236.6468 Z-4.9968 F1140.00
G1 X37.0000 Y245.1320 Z-4.9968 F1140.00
G1 X36.0000 Y244.1320 Z-4.9968 F1140.00
G1 X36.0000 Y252.6173 Z-4.9968 F1140.00
G1 X37.0000 Y253.6173 Z-4.9968 F1140.00
G1 X37.0000 Y262.1026 Z-4.9968 F1140.00
G1 X36.0000 Y261.1026 Z-4.9968 F1140.00
G1 X36.0000 Y269.5879 Z-4.9968 F1140.00
G1 X37.0000 Y270.5879 Z-4.9968 F1140.00
G1 X37.0000 Y279.0732 Z-4.9968 F1140.00
G1 X36.0000 Y278.0732 Z-4.9968 F1140.00
G1 X36.0000 Y286.5584 Z-4.9968 F1140.00
G1 X37.0000 Y287.5584 Z-4.9968 F1140.00
G1 X37.0000 Y296.0437 Z-4.9968 F1140.00
G1 X36.0000 Y295.0437 Z-4.9968 F1140.00
G1 X36.0000 Y303.5290 Z-4.9968 F1140.00
G1 X37.0000 Y304.5290 Z-4.9968 F1140.00
G1 X37.0000 Y313.0143 Z-4.9968 F1140.00
G1 X36.0000 Y312.0143 Z-4.9968 F1140.00
G1 X36.0000 Y320.4996 Z-4.9968 F1140.00
G1 X37.0000 Y321.4996 Z-4.9968 F1140.00
G1 X37.0000 Y329.9848 Z-4.9968 F1140.00
G1 X36.0000 Y328.9848 Z-4.9968 F1140.00
G1 X36.0000 Y337.4701 Z-4.9968 F1140.00
G1 X37.0000 Y338.4701 Z-4.9968 F1140.00
G1 X37.0000 Y346.9554 Z-4.9968 F1140.00
G1 X36.0000 Y345.9554 Z-4.9968 F1140.00
G1 X36.0000 Y354.4407 Z-4.9968 F1140.00
G1 X37.0000 Y355.4407 Z-4.9968 F1140.00
G1 X37.0000 Y363.9260 Z-4.9968 F1140.00
G1 X36.0000 Y362.9260 Z-4.9968 F1140.00
G1 X36.0000 Y371.4113 Z-4.9968 F1140.00
G1 X37.0000 Y372.4113 Z-4.9968 F1140.00
G1 X37.0000 Y380.8965 Z-4.9968 F1140.00
G1 X36.0000 Y379.8965 Z-4.9968 F1140.00
G1 X36.0000 Y388.3818 Z-4.9968 F1140.00
G1 X37.0000 Y389.3818 Z-4.9968 F1140.00
G1 X37.0000 Y397.8671 Z-4.9968 F1140.00
G1 X36.0000 Y396.8671 Z-4.9968 F1140.00
G1 X36.0000 Y405.3524 Z-4.9968 F1140.00
G1 X37.0000 Y406.3524 Z-4.9968 F1140.00
G1 X37.0000 Y414.8377 Z-4.9968 F1140.00
G1 X36.0000 Y413.8377 Z-4.9968 F1140.00
G1 X36.0000 Y422.3229 Z-4.9968 F1140.00
G1 X37.0000 Y423.3229 Z-4.9968 F1140.00
G1 X37.0000 Y431.8082 Z-4.9968 F1140.00
G1 X36.0000 Y430.8082 Z-4.9968 F1140.00
G1 X36.0000 Y439.2935 Z-4.9968 F1140.00
G1 X37.0000 Y440.2935 Z-4.9968 F1140.00
G1 X37.0000 Y448.7788 Z-4.9968 F1140.00
G1 X36.0000 Y447.7788 Z-4.9968 F1140.00
G1 X36.0000 Y456.2641 Z-4.9968 F1140.00
G1 X37.0000 Y457.2641 Z-4.9968 F1140.00
G1 X37.0000 Y465.7493 Z-4.9968 F1140.00
G1 X36.0000 Y464.7493 Z-4.9968 F1140.00
G1 X36.0000 Y473.2346 Z-4.9968 F1140.00
G1 X37.0000 Y474.2346 Z-4.9968 F1140.00
G1 X37.0000 Y482.7199 Z-4.9968 F1140.00
G1 X36.0000 Y481.7199 Z-4.9968 F1140.00
G1 X36.0000 Y490.2052 Z-4.9968 F1140.00
G1 X37.0000 Y491.2052 Z-4.9968 F1140.00
G1 X37.0000 Y499.6905 Z-4.9968 F1140.00
G1 X36.0000 Y498.6905 Z-4.9968 F1140.00
G1 X36.0000 Y504.8937 Z-4.9968 F1140.00
G1 X37.0000 Y504.8937 Z-4.9968 F1140.00
G1 X37.0000 Y499.6905 Z-4.9968 F1140.00
G1 X37.0000 Y499.6905 Z-6.2468 F1140.00
G1 X37.0000 Y504.8937 Z-6.2468 F1140.00
G1 X36.0000 Y504.8937 Z-6.2468 F1140.00
G1 X36.0000 Y498.6905 Z-6.2468 F1140.00
G1 X37.0000 Y499.6905 Z-6.2468 F1140.00
G1 X37.0000 Y491.2052 Z-6.2468 F1140.00
G1 X36.0000 Y490.2052 Z-6.2468 F1140.00
G1 X36.0000 Y481.7199 Z-6.2468 F1140.00
G1 X37.0000 Y482.7199 Z-6.2468 F1140.00
G1 X37.0000 Y474.2346 Z-6.2468 F1140.00
G1 X36.0000 Y473.2346 Z-6.2468 F1140.00
G1 X36.0000 Y464.7493 Z-6.2468 F1140.00
G1 X37.0000 Y465.7493 Z-6.2468 F1140.00
G1 X37.0000 Y457.2641 Z-6.2468 F1140.00
G1 X36.0000 Y456.2641 Z-6.2468 F1140.00
G1 X36.0000 Y447.7788 Z-6.2468 F1140.00
G1 X37.0000 Y448.7788 Z-6.2468 F1140.00
G1 X37.0000 Y440.2935 Z-6.2468 F1140.00
G1 X36.0000 Y439.2935 Z-6.2468 F1140.00
G1 X36.0000 Y430.8082 Z-6.2468 F1140.00
G1 X37.0000 Y431.8082 Z-6.2468 F1140.00
G1 X37.0000 Y423.3229 Z-6.2468 F1140.00
G1 X36.0000 Y422.3229 Z-6.2468 F1140.00
G1 X36.0000 Y413.8377 Z-6.2468 F1140.00
G1 X37.0000 Y414.8377 Z-6.2468 F1140.00
G1 X37.0000 Y406.3524 Z-6.2468 F1140.00
G1 X36.0000 Y405.3524 Z-6.2468 F1140.00
G1 X36.0000 Y396.8671 Z-6.2468 F1140.00
G1 X37.0000 Y397.8671 Z-6.2468 F1140.00
G1 X37.0000 Y389.3818 Z-6.2468 F1140.00
G1 X36.0000 Y388.3818 Z-6.2468 F1140.00
G1 X36.0000 Y379.8965 Z-6.2468 F1140.00
G1 X37.0000 Y380.8965 Z-6.2468 F1140.00
G1 X37.0000 Y372.4113 Z-6.2468 F1140.00
G1 X36.0000 Y371.4113 Z-6.2468 F1140.00
G1 X36.0000 Y362.9260 Z-6.2468 F1140.00
G1 X37.0000 Y363.9260 Z-6.2468 F1140.00
G1 X37.0000 Y355.4407 Z-6.2468 F1140.00
G1 X36.0000 Y354.4407 Z-6.2468 F1140.00
G1 X36.0000 Y345.9554 Z-6.2468 F1140.00
G1 X37.0000 Y346.9554 Z-6.2468 F1140.00
G1 X37.0000 Y338.4701 Z-6.2468 F1140.00
G1 X36.0000 Y337.4701 Z-6.2468 F1140.00
G1 X36.0000 Y328.9848 Z-6.2468 F1140.00
G1 X37.0000 Y329.9848 Z-6.2468 F1140.00
G1 X37.0000 Y321.4996 Z-6.2468 F1140.00
G1 X36.0000 Y320.4996 Z-6.2468 F1140.00
G1 X36.0000 Y312.0143 Z-6.2468 F1140.00
G1 X37.0000 Y313.0143 Z-6.2468 F1140.00
G1 X37.0000 Y304.5290 Z-6.2468 F1140.00
G1 X36.0000 Y303.5290 Z-6.2468 F1140.00
G1 X36.0000 Y295.0437 Z-6.2468 F1140.00
G1 X37.0000 Y296.0437 Z-6.2468 F1140.00
G1 X37.0000 Y287.5584 Z-6.2468 F1140.00
G1 X36.0000 Y286.5584 Z-6.2468 F1140.00
G1 X36.0000 Y278.0732 Z-6.2468 F1140.00
G1 X37.0000 Y279.0732 Z-6.2468 F1140.00
G1 X37.0000 Y270.5879 Z-6.2468 F1140.00
G1 X36.0000 Y269.5879 Z-6.2468 F1140.00
G1 X36.0000 Y261.1026 Z-6.2468 F1140.00
G1 X37.0000 Y262.1026 Z-6.2468 F1140.00
G1 X37.0000 Y253.6173 Z-6.2468 F1140.00
G1 X36.0000 Y252.6173 Z-6.2468 F1140.00
G1 X36.0000 Y244.1320 Z-6.2468 F1140.00
G1 X37.0000 Y245.1320 Z-6.2468 F1140.00
G1 X37.0000 Y236.6468 Z-6.2468 F1140.00
G1 X36.0000 Y235.6468 Z-6.2468 F1140.00
G1 X36.0000 Y227.1615 Z-6.2468 F1140.00
G1 X37.0000 Y228.1615 Z-6.2468 F1140.00
G1 X37.0000 Y219.6762 Z-6.2468 F1140.00
G1 X36.0000 Y218.6762 Z-6.2468 F1140.00
G1 X36.0000 Y210.1909 Z-6.2468 F1140.00
G1 X37.0000 Y211.1909 Z-6.2468 F1140.00
G1 X37.0000 Y202.7056 Z-6.2468 F1140.00
G1 X36.0000 Y201.7056 Z-6.2468 F1140.00
G1 X36.0000 Y193.2203 Z-6.2468 F1140.00
G1 X37.0000 Y194.2203 Z-6.2468 F1140.00
G1 X37.0000 Y185.7351 Z-6.2468 F1140.00
G1 X36.0000 Y184.7351 Z-6.2468 F1140.00
G1 X36.0000 Y176.2498 Z-6.2468 F1140.00
G1 X37.0000 Y177.2498 Z-6.2468 F1140.00
G1 X37.0000 Y168.7645 Z-6.2468 F1140.00
G1 X36.0000 Y167.7645 Z-6.2468 F1140.00
G1 X36.0000 Y159.2792 Z-6.2468 F1140.00
G1 X37.0000 Y160.2792 Z-6.2468 F1140.00
G1 X37.0000 Y151.7939 Z-6.2468 F1140.00
G1 X36.0000 Y150.7939 Z-6.2468 F1140.00
G1 X36.0000 Y142.3087 Z-6.2468 F1140.00
G1 X37.0000 Y143.3087 Z-6.2468 F1140.00
G1 X37.0000 Y134.8234 Z-6.2468 F1140.00
G1 X36.0000 Y133.8234 Z-6.2468 F1140.00
G1 X36.0000 Y125.3381 Z-6.2468 F1140.00
G1 X37.0000 Y126.3381 Z-6.2468 F1140.00
G1 X37.0000 Y117.8528 Z-6.2468 F1140.00
G1 X36.0000 Y116.8528 Z-6.2468 F1140.00
G1 X36.0000 Y108.3675 Z-6.2468 F1140.00
G1 X37.0000 Y109.3675 Z-6.2468 F1140.00
G1 X37.0000 Y100.8823 Z-6.2468 F1140.00
G1 X36.0000 Y99.8823 Z-6.2468 F1140.00
G1 X36.0000 Y91.3970 Z-6.2468 F1140.00
G1 X37.0000 Y92.3970 Z-6.2468 F1140.00
G1 X37.0000 Y83.9117 Z-6.2468 F1140.00
G1 X36.0000 Y82.9117 Z-6.2468 F1140.00
G1 X36.0000 Y74.4264 Z-6.2468 F1140.00
G1 X37.0000 Y75.4264 Z-6.2468 F1140.00
G1 X37.0000 Y66.9411 Z-6.2468 F1140.00
G1 X36.0000 Y65.9411 Z-6.2468 F1140.00
G1 X36.0000 Y57.4558 Z-6.2468 F1140.00
G1 X37.0000 Y58.4558 Z-6.2468 F1140.00
G1 X37.0000 Y49.9706 Z-6.2468 F1140.00
G1 X36.0000 Y48.9706 Z-6.2468 F1140.00
G1 X36.0000 Y40.4853 Z-6.2468 F1140.00
G1 X37.0000 Y41.4853 Z-6.2468 F1140.00
G1 X37.0000 Y33.0000 Z-6.2468 F1140.00
G1 X37.0000 Y33.0000 Z-7.0000 F1140.00
G1 X37.0000 Y41.4853 Z-7.0000 F1140.00
G1 X36.0000 Y40.4853 Z-7.0000 F1140.00
G1 X36.0000 Y48.9706 Z-7.0000 F1140.00
G1 X37.0000 Y49.9706 Z-7.0000 F1140.00
G1 X37.0000 Y58.4558 Z-7.0000 F1140.00
G1 X36.0000 Y57.4558 Z-7.0000 F1140.00
G1 X36.0000 Y65.9411 Z-7.0000 F1140.00
G1 X37.0000 Y66.9411 Z-7.0000 F1140.00
G1 X37.0000 Y75.4264 Z-7.0000 F1140.00
G1 X36.0000 Y74.4264 Z-7.0000 F1140.00
G1 X36.0000 Y82.9117 Z-7.0000 F1140.00
G1 X37.0000 Y83.9117 Z-7.0000 F1140.00
G1 X37.0000 Y92.3970 Z-7.0000 F1140.00
G1 X36.0000 Y91.3970 Z-7.0000 F1140.00
G1 X36.0000 Y99.8823 Z-7.0000 F1140.00
G1 X37.0000 Y100.8823 Z-7.0000 F1140.00
G1 X37.0000 Y109.3675 Z-7.0000 F1140.00
G1 X36.0000 Y108.3675 Z-7.0000 F1140.00
G1 X36.0000 Y116.8528 Z-7.0000 F1140.00
G1 X37.0000 Y117.8528 Z-7.0000 F1140.00
G1 X37.0000 Y126.3381 Z-7.0000 F1140.00
G1 X36.0000 Y125.3381 Z-7.0000 F1140.00
G1 X36.0000 Y133.8234 Z-7.0000 F1140.00
G1 X37.0000 Y134.8234 Z-7.0000 F1140.00
G1 X37.0000 Y143.3087 Z-7.0000 F1140.00
G1 X36.0000 Y142.3087 Z-7.0000 F1140.00
G1 X36.0000 Y150.7939 Z-7.0000 F1140.00
G1 X37.0000 Y151.7939 Z-7.0000 F1140.00
G1 X37.0000 Y160.2792 Z-7.0000 F1140.00
G1 X36.0000 Y159.2792 Z-7.0000 F1140.00
G1 X36.0000 Y167.7645 Z-7.0000 F1140.00
G1 X37.0000 Y168.7645 Z-7.0000 F1140.00
G1 X37.0000 Y177.2498 Z-7.0000 F1140.00
G1 X36.0000 Y176.2498 Z-7.0000 F1140.00
G1 X36.0000 Y184.7351 Z-7.0000 F1140.00
G1 X37.0000 Y185.7351 Z-7.0000 F1140.00
G1 X37.0000 Y194.2203 Z-7.0000 F1140.00
G1 X36.0000 Y193.2203 Z-7.0000 F1140.00
G1 X36.0000 Y201.7056 Z-7.0000 F1140.00
G1 X37.0000 Y202.7056 Z-7.0000 F1140.00
G1 X37.0000 Y211.1909 Z-7.0000 F1140.00
G1 X36.0000 Y210.1909 Z-7.0000 F1140.00
G1 X36.0000 Y218.6762 Z-7.0000 F1140.00
G1 X37.0000 Y219.6762 Z-7.0000 F1140.00
G1 X37.0000 Y228.1615 Z-7.0000 F1140.00
G1 X36.0000 Y227.1615 Z-7.0000 F1140.00
G1 X36.0000 Y235.6468 Z-7.0000 F1140.00
G1 X37.0000 Y236.6468 Z-7.0000 F1140.00
G1 X37.0000 Y245.1320 Z-7.0000 F1140.00
G1 X36.0000 Y244.1320 Z-7.0000 F1140.00
G1 X36.0000 Y252.6173 Z-7.0000 F1140.00
G1 X37.0000 Y253.6173 Z-7.0000 F1140.00
G1 X37.0000 Y262.1026 Z-7.0000 F1140.00
G1 X36.0000 Y261.1026 Z-7.0000 F1140.00
G1 X36.0000 Y269.5879 Z-7.0000 F1140.00
G1 X37.0000 Y270.5879 Z-7.0000 F1140.00
G1 X37.0000 Y279.0732 Z-7.0000 F1140.00
G1 X36.0000 Y278.0732 Z-7.0000 F1140.00
G1 X36.0000 Y286.5584 Z-7.0000 F1140.00
G1 X37.0000 Y287.5584 Z-7.0000 F1140.00
G1 X37.0000 Y296.0437 Z-7.0000 F1140.00
G1 X36.0000 Y295.0437 Z-7.0000 F1140.00
G1 X36.0000 Y303.5290 Z-7.0000 F1140.00
G1 X37.0000 Y304.5290 Z-7.0000 F1140.00
G1 X37.0000 Y313.0143 Z-7.0000 F1140.00
G1 X36.0000 Y312.0143 Z-7.0000 F1140.00
G1 X36.0000 Y320.4996 Z-7.0000 F1140.00
G1 X37.0000 Y321.4996 Z-7.0000 F1140.00
G1 X37.0000 Y329.9848 Z-7.0000 F1140.00
G1 X36.0000 Y328.9848 Z-7.0000 F1140.00
G1 X36.0000 Y337.4701 Z-7.0000 F1140.00
G1 X37.0000 Y338.4701 Z-7.0000 F1140.00
G1 X37.0000 Y346.9554 Z-7.0000 F1140.00
G1 X36.0000 Y345.9554 Z-7.0000 F1140.00
G1 X36.0000 Y354.4407 Z-7.0000 F1140.00
G1 X37.0000 Y355.4407 Z-7.0000 F1140.00
G1 X37.0000 Y363.9260 Z-7.0000 F1140.00
G1 X36.0000 Y362.9260 Z-7.0000 F1140.00
G1 X36.0000 Y371.4113 Z-7.0000 F1140.00
G1 X37.0000 Y372.4113 Z-7.0000 F1140.00
G1 X37.0000 Y380.8965 Z-7.0000 F1140.00
G1 X36.0000 Y379.8965 Z-7.0000 F1140.00
G1 X36.0000 Y388.3818 Z-7.0000 F1140.00
G1 X37.0000 Y389.3818 Z-7.0000 F1140.00
G1 X37.0000 Y397.8671 Z-7.0000 F1140.00
G1 X36.0000 Y396.8671 Z-7.0000 F1140.00
G1 X36.0000 Y405.3524 Z-7.0000 F1140.00
G1 X37.0000 Y406.3524 Z-7.0000 F1140.00
G1 X37.0000 Y414.8377 Z-7.0000 F1140.00
G1 X36.0000 Y413.8377 Z-7.0000 F1140.00
G1 X36.0000 Y422.3229 Z-7.0000 F1140.00
G1 X37.0000 Y423.3229 Z-7.0000 F1140.00
G1 X37.0000 Y431.8082 Z-7.0000 F1140.00
G1 X36.0000 Y430.8082 Z-7.0000 F1140.00
G1 X36.0000 Y439.2935 Z-7.0000 F1140.00
G1 X37.0000 Y440.2935 Z-7.0000 F1140.00
G1 X37.0000 Y448.7788 Z-7.0000 F1140.00
G1 X36.0000 Y447.7788 Z-7.0000 F1140.00
G1 X36.0000 Y456.2641 Z-7.0000 F1140.00
G1 X37.0000 Y457.2641 Z-7.0000 F1140.00
G1 X37.0000 Y465.7493 Z-7.0000 F1140.00
G1 X36.0000 Y464.7493 Z-7.0000 F1140.00
G1 X36.0000 Y473.2346 Z-7.0000 F1140.00
G1 X37.0000 Y474.2346 Z-7.0000 F1140.00
G1 X37.0000 Y482.7199 Z-7.0000 F1140.00
G1 X36.0000 Y481.7199 Z-7.0000 F1140.00
G1 X36.0000 Y490.2052 Z-7.0000 F1140.00
G1 X37.0000 Y491.2052 Z-7.0000 F1140.00
G1 X37.0000 Y499.6905 Z-7.0000 F1140.00
G1 X36.0000 Y498.6905 Z-7.0000 F1140.00
G1 X36.0000 Y504.8937 Z-7.0000 F1140.00
G1 X37.0000 Y504.8937 Z-7.0000 F1140.00
G1 X37.0000 Y499.6905 Z-7.0000 F1140.00
G0 Z5.0032
(finish operation: Pocket_Shape)
(begin operation: Helix)
(Path: Helix)
(Helix)
(helix cut operation)
G0 Z5.0032
G0 X27.5958 Y50.0000
G0 Z3.0032
G1 Z0.0032 F1140.00
G2 X26.6469 Y50.0000 Z-0.4731 I-0.4745 J0.0000 F1140.00
G2 X27.5958 Y50.0000 Z-0.9494 I0.4745 J0.0000 F1140.00
G2 X26.6469 Y50.0000 Z-1.4256 I-0.4745 J0.0000 F1140.00
G2 X27.5958 Y50.0000 Z-1.9019 I0.4745 J0.0000 F1140.00
G2 X26.6469 Y50.0000 Z-2.3782 I-0.4745 J0.0000 F1140.00
G2 X27.5958 Y50.0000 Z-2.8544 I0.4745 J0.0000 F1140.00
G2 X26.6469 Y50.0000 Z-3.3307 I-0.4745 J0.0000 F1140.00
G2 X27.5958 Y50.0000 Z-3.8070 I0.4745 J0.0000 F1140.00
G2 X26.6469 Y50.0000 Z-4.2832 I-0.4745 J0.0000 F1140.00
G2 X27.5958 Y50.0000 Z-4.7595 I0.4745 J0.0000 F1140.00
G2 X26.6469 Y50.0000 Z-5.2358 I-0.4745 J0.0000 F1140.00
G2 X27.5958 Y50.0000 Z-5.7120 I0.4745 J0.0000 F1140.00
G2 X26.6469 Y50.0000 Z-6.1883 I-0.4745 J0.0000 F1140.00
G2 X27.5958 Y50.0000 Z-6.6646 I0.4745 J0.0000 F1140.00
G2 X26.6469 Y50.0000 Z-7.1408 I-0.4745 J0.0000 F1140.00
G2 X27.5958 Y50.0000 Z-7.6171 I0.4745 J0.0000 F1140.00
G2 X26.6469 Y50.0000 Z-8.0934 I-0.4745 J0.0000 F1140.00
G2 X27.5958 Y50.0000 Z-8.5696 I0.4745 J0.0000 F1140.00
G2 X26.6469 Y50.0000 Z-9.0459 I-0.4745 J0.0000 F1140.00
G2 X27.5958 Y50.0000 Z-9.5222 I0.4745 J0.0000 F1140.00
G2 X26.6469 Y50.0000 Z-9.9984 I-0.4745 J0.0000 F1140.00
G2 X27.5958 Y50.0000 Z-10.4747 I0.4745 J0.0000 F1140.00
G2 X26.6469 Y50.0000 Z-10.9510 I-0.4745 J0.0000 F1140.00
G2 X27.5958 Y50.0000 Z-11.4272 I0.4745 J0.0000 F1140.00
G2 X26.6469 Y50.0000 Z-11.9035 I-0.4745 J0.0000 F1140.00
G2 X27.5958 Y50.0000 Z-12.3797 I0.4745 J0.0000 F1140.00
G2 X26.6469 Y50.0000 Z-12.8560 I-0.4745 J0.0000 F1140.00
G2 X27.5958 Y50.0000 Z-13.3323 I0.4745 J0.0000 F1140.00
G2 X26.6469 Y50.0000 Z-13.8085 I-0.4745 J0.0000 F1140.00
G2 X27.5958 Y50.0000 Z-14.2848 I0.4745 J0.0000 F1140.00
G2 X26.6469 Y50.0000 Z-14.7611 I-0.4745 J0.0000 F1140.00
G2 X27.5958 Y50.0000 Z-15.2373 I0.4745 J0.0000 F1140.00
G2 X26.6469 Y50.0000 Z-15.7136 I-0.4745 J0.0000 F1140.00
G2 X27.5958 Y50.0000 Z-16.1899 I0.4745 J0.0000 F1140.00
G2 X26.6469 Y50.0000 Z-16.6661 I-0.4745 J0.0000 F1140.00
G2 X27.5958 Y50.0000 Z-17.1424 I0.4745 J0.0000 F1140.00
G2 X26.6469 Y50.0000 Z-17.6187 I-0.4745 J0.0000 F1140.00
G2 X27.5958 Y50.0000 Z-18.0949 I0.4745 J0.0000 F1140.00
G2 X26.6469 Y50.0000 Z-18.5712 I-0.4745 J0.0000 F1140.00
G2 X27.5958 Y50.0000 Z-19.0475 I0.4745 J0.0000 F1140.00
G2 X26.6469 Y50.0000 Z-19.5237 I-0.4745 J0.0000 F1140.00
G2 X27.5958 Y50.0000 Z-20.0000 I0.4745 J0.0000 F1140.00
G2 X26.6469 Y50.0000 Z-20.0000 I-0.4745 J0.0000 F1140.00
G2 X27.5958 Y50.0000 Z-20.0000 I0.4745 J0.0000 F1140.00
G0 Z3.0032
G0 X27.5958 Y15.0000
G0 Z3.0032
G1 Z0.0032 F1140.00
G2 X26.6469 Y15.0000 Z-0.4731 I-0.4745 J0.0000 F1140.00
G2 X27.5958 Y15.0000 Z-0.9494 I0.4745 J0.0000 F1140.00
G2 X26.6469 Y15.0000 Z-1.4256 I-0.4745 J0.0000 F1140.00
G2 X27.5958 Y15.0000 Z-1.9019 I0.4745 J0.0000 F1140.00
G2 X26.6469 Y15.0000 Z-2.3782 I-0.4745 J0.0000 F1140.00
G2 X27.5958 Y15.0000 Z-2.8544 I0.4745 J0.0000 F1140.00
G2 X26.6469 Y15.0000 Z-3.3307 I-0.4745 J0.0000 F1140.00
G2 X27.5958 Y15.0000 Z-3.8070 I0.4745 J0.0000 F1140.00
G2 X26.6469 Y15.0000 Z-4.2832 I-0.4745 J0.0000 F1140.00
G2 X27.5958 Y15.0000 Z-4.7595 I0.4745 J0.0000 F1140.00
G2 X26.6469 Y15.0000 Z-5.2358 I-0.4745 J0.0000 F1140.00
G2 X27.5958 Y15.0000 Z-5.7120 I0.4745 J0.0000 F1140.00
G2 X26.6469 Y15.0000 Z-6.1883 I-0.4745 J0.0000 F1140.00
G2 X27.5958 Y15.0000 Z-6.6646 I0.4745 J0.0000 F1140.00
G2 X26.6469 Y15.0000 Z-7.1408 I-0.4745 J0.0000 F1140.00
G2 X27.5958 Y15.0000 Z-7.6171 I0.4745 J0.0000 F1140.00
G2 X26.6469 Y15.0000 Z-8.0934 I-0.4745 J0.0000 F1140.00
G2 X27.5958 Y15.0000 Z-8.5696 I0.4745 J0.0000 F1140.00
G2 X26.6469 Y15.0000 Z-9.0459 I-0.4745 J0.0000 F1140.00
G2 X27.5958 Y15.0000 Z-9.5222 I0.4745 J0.0000 F1140.00
G2 X26.6469 Y15.0000 Z-9.9984 I-0.4745 J0.0000 F1140.00
G2 X27.5958 Y15.0000 Z-10.4747 I0.4745 J0.0000 F1140.00
G2 X26.6469 Y15.0000 Z-10.9510 I-0.4745 J0.0000 F1140.00
G2 X27.5958 Y15.0000 Z-11.4272 I0.4745 J0.0000 F1140.00
G2 X26.6469 Y15.0000 Z-11.9035 I-0.4745 J0.0000 F1140.00
G2 X27.5958 Y15.0000 Z-12.3797 I0.4745 J0.0000 F1140.00
G2 X26.6469 Y15.0000 Z-12.8560 I-0.4745 J0.0000 F1140.00
G2 X27.5958 Y15.0000 Z-13.3323 I0.4745 J0.0000 F1140.00
G2 X26.6469 Y15.0000 Z-13.8085 I-0.4745 J0.0000 F1140.00
G2 X27.5958 Y15.0000 Z-14.2848 I0.4745 J0.0000 F1140.00
G2 X26.6469 Y15.0000 Z-14.7611 I-0.4745 J0.0000 F1140.00
G2 X27.5958 Y15.0000 Z-15.2373 I0.4745 J0.0000 F1140.00
G2 X26.6469 Y15.0000 Z-15.7136 I-0.4745 J0.0000 F1140.00
G2 X27.5958 Y15.0000 Z-16.1899 I0.4745 J0.0000 F1140.00
G2 X26.6469 Y15.0000 Z-16.6661 I-0.4745 J0.0000 F1140.00
G2 X27.5958 Y15.0000 Z-17.1424 I0.4745 J0.0000 F1140.00
G2 X26.6469 Y15.0000 Z-17.6187 I-0.4745 J0.0000 F1140.00
G2 X27.5958 Y15.0000 Z-18.0949 I0.4745 J0.0000 F1140.00
G2 X26.6469 Y15.0000 Z-18.5712 I-0.4745 J0.0000 F1140.00
G2 X27.5958 Y15.0000 Z-19.0475 I0.4745 J0.0000 F1140.00
G2 X26.6469 Y15.0000 Z-19.5237 I-0.4745 J0.0000 F1140.00
G2 X27.5958 Y15.0000 Z-20.0000 I0.4745 J0.0000 F1140.00
G2 X26.6469 Y15.0000 Z-20.0000 I-0.4745 J0.0000 F1140.00
G2 X27.5958 Y15.0000 Z-20.0000 I0.4745 J0.0000 F1140.00
G0 Z3.0032
G0 Z5.0032
(finish operation: Helix)
(begin postamble)
M5
G17 G90
; M2
