(Exported by FreeCAD)
(Post Processor: grbl_post)
(Output Time:2022-01-17 08:04:29.561609)
(begin preamble)
G17 G90
G21
(begin operation: T2: 1/4inENDMILL001)
(Path: T2: 1/4inENDMILL001)
(T2: 1/4inENDMILL001)
(begin toolchange)
; M6 T2
M3 S0.0000
(finish operation: T2: 1/4inENDMILL001)
(begin operation: Contour001)
(Path: Contour001)
(Contour001)
(Compensated Tool Path. Diameter: 6.0)
G0 Z5.0032
G0 X61.0396 Y607.7749
G0 Z3.0032
G1 X61.0396 Y607.7749 Z-0.9968 F1140.00
G2 X63.0000 Y604.9608 Z-0.9968 I-1.0396 J-2.8141 F1140.00
G1 X63.0000 Y602.3165 Z-0.9968 F1140.00
G1 X62.9602 Y601.8294 Z-0.9968 F1140.00
G3 X59.3584 Y559.2502 Z-0.9968 I240.7100 J-41.8034 F1140.00
G3 X62.9605 Y520.1754 Z-0.9968 I247.1256 J3.0774 F1140.00
G1 X63.0000 Y519.6901 Z-0.9968 F1140.00
G1 X63.0000 Y517.0458 Z-0.9968 F1140.00
G2 X61.6771 Y514.5584 Z-0.9968 I-3.0000 J0.0000 F1140.00
G3 X50.5000 Y505.0462 Z-0.9968 I30.6148 J-47.2960 F1140.00
G1 X50.5000 Y368.0196 Z-0.9968 F1140.00
G3 X67.4675 Y349.8397 Z-0.9968 I24.3264 J5.6961 F1140.00
G2 X69.5000 Y347.0000 Z-0.9968 I-0.9675 J-2.8397 F1140.00
G1 X69.5000 Y0.0000 Z-0.9968 F1140.00
G2 X67.4087 Y-2.8591 Z-0.9968 I-3.0000 J-0.0000 F1140.00
G2 X65.9759 Y-2.9539 Z-0.9968 I-0.9087 J2.8591 F1140.00
G3 X13.0241 Y-2.9539 Z-0.9968 I-26.4759 J-139.5339 F1140.00
G2 X9.5000 Y0.0000 Z-0.9968 I-0.5241 J2.9539 F1140.00
G1 X9.5000 Y505.2956 Z-0.9968 F1140.00
G3 X-1.9395 Y517.9664 Z-0.9968 I-46.9376 J-30.8771 F1140.00
G2 X-3.0000 Y520.2551 Z-0.9968 I1.9395 J2.2887 F1140.00
G1 X-3.0000 Y522.8994 Z-0.9968 F1140.00
G1 X-2.9166 Y523.6018 Z-0.9968 F1140.00
G3 X13.4701 Y627.9029 Z-0.9968 I-597.3823 J147.2922 F1140.00
G2 X19.2928 Y628.6694 Z-0.9968 I2.9915 J-0.2257 F1140.00
G3 X59.1715 Y607.8441 Z-0.9968 I30.5132 J9.8355 F1140.00
G2 X61.0396 Y607.7749 Z-0.9968 I0.8285 J-2.8833 F1140.00
G1 X61.0396 Y607.7749 Z-1.9968 F1140.00
G2 X63.0000 Y604.9608 Z-1.9968 I-1.0396 J-2.8141 F1140.00
G1 X63.0000 Y602.3165 Z-1.9968 F1140.00
G1 X62.9602 Y601.8294 Z-1.9968 F1140.00
G3 X59.3584 Y559.2502 Z-1.9968 I240.7100 J-41.8034 F1140.00
G3 X62.9605 Y520.1754 Z-1.9968 I247.1256 J3.0774 F1140.00
G1 X63.0000 Y519.6901 Z-1.9968 F1140.00
G1 X63.0000 Y517.0458 Z-1.9968 F1140.00
G2 X61.6771 Y514.5584 Z-1.9968 I-3.0000 J0.0000 F1140.00
G3 X50.5000 Y505.0462 Z-1.9968 I30.6148 J-47.2960 F1140.00
G1 X50.5000 Y368.0196 Z-1.9968 F1140.00
G3 X67.4675 Y349.8397 Z-1.9968 I24.3264 J5.6961 F1140.00
G2 X69.5000 Y347.0000 Z-1.9968 I-0.9675 J-2.8397 F1140.00
G1 X69.5000 Y0.0000 Z-1.9968 F1140.00
G2 X67.4087 Y-2.8591 Z-1.9968 I-3.0000 J-0.0000 F1140.00
G2 X65.9759 Y-2.9539 Z-1.9968 I-0.9087 J2.8591 F1140.00
G3 X13.0241 Y-2.9539 Z-1.9968 I-26.4759 J-139.5339 F1140.00
G2 X9.5000 Y0.0000 Z-1.9968 I-0.5241 J2.9539 F1140.00
G1 X9.5000 Y505.2956 Z-1.9968 F1140.00
G3 X-1.9395 Y517.9664 Z-1.9968 I-46.9376 J-30.8771 F1140.00
G2 X-3.0000 Y520.2551 Z-1.9968 I1.9395 J2.2887 F1140.00
G1 X-3.0000 Y522.8994 Z-1.9968 F1140.00
G1 X-2.9166 Y523.6018 Z-1.9968 F1140.00
G3 X13.4701 Y627.9029 Z-1.9968 I-597.3823 J147.2922 F1140.00
G2 X19.2928 Y628.6694 Z-1.9968 I2.9915 J-0.2257 F1140.00
G3 X59.1715 Y607.8441 Z-1.9968 I30.5132 J9.8355 F1140.00
G2 X61.0396 Y607.7749 Z-1.9968 I0.8285 J-2.8833 F1140.00
G1 X61.0396 Y607.7749 Z-2.9968 F1140.00
G2 X63.0000 Y604.9608 Z-2.9968 I-1.0396 J-2.8141 F1140.00
G1 X63.0000 Y602.3165 Z-2.9968 F1140.00
G1 X62.9602 Y601.8294 Z-2.9968 F1140.00
G3 X59.3584 Y559.2502 Z-2.9968 I240.7100 J-41.8034 F1140.00
G3 X62.9605 Y520.1754 Z-2.9968 I247.1256 J3.0774 F1140.00
G1 X63.0000 Y519.6901 Z-2.9968 F1140.00
G1 X63.0000 Y517.0458 Z-2.9968 F1140.00
G2 X61.6771 Y514.5584 Z-2.9968 I-3.0000 J0.0000 F1140.00
G3 X50.5000 Y505.0462 Z-2.9968 I30.6148 J-47.2960 F1140.00
G1 X50.5000 Y368.0196 Z-2.9968 F1140.00
G3 X67.4675 Y349.8397 Z-2.9968 I24.3264 J5.6961 F1140.00
G2 X69.5000 Y347.0000 Z-2.9968 I-0.9675 J-2.8397 F1140.00
G1 X69.5000 Y0.0000 Z-2.9968 F1140.00
G2 X67.4087 Y-2.8591 Z-2.9968 I-3.0000 J-0.0000 F1140.00
G2 X65.9759 Y-2.9539 Z-2.9968 I-0.9087 J2.8591 F1140.00
G3 X13.0241 Y-2.9539 Z-2.9968 I-26.4759 J-139.5339 F1140.00
G2 X9.5000 Y0.0000 Z-2.9968 I-0.5241 J2.9539 F1140.00
G1 X9.5000 Y505.2956 Z-2.9968 F1140.00
G3 X-1.9395 Y517.9664 Z-2.9968 I-46.9376 J-30.8771 F1140.00
G2 X-3.0000 Y520.2551 Z-2.9968 I1.9395 J2.2887 F1140.00
G1 X-3.0000 Y522.8994 Z-2.9968 F1140.00
G1 X-2.9166 Y523.6018 Z-2.9968 F1140.00
G3 X13.4701 Y627.9029 Z-2.9968 I-597.3823 J147.2922 F1140.00
G2 X19.2928 Y628.6694 Z-2.9968 I2.9915 J-0.2257 F1140.00
G3 X59.1715 Y607.8441 Z-2.9968 I30.5132 J9.8355 F1140.00
G2 X61.0396 Y607.7749 Z-2.9968 I0.8285 J-2.8833 F1140.00
G1 X61.0396 Y607.7749 Z-3.9968 F1140.00
G2 X63.0000 Y604.9608 Z-3.9968 I-1.0396 J-2.8141 F1140.00
G1 X63.0000 Y602.3165 Z-3.9968 F1140.00
G1 X62.9602 Y601.8294 Z-3.9968 F1140.00
G3 X59.3584 Y559.2502 Z-3.9968 I240.7100 J-41.8034 F1140.00
G3 X62.9605 Y520.1754 Z-3.9968 I247.1256 J3.0774 F1140.00
G1 X63.0000 Y519.6901 Z-3.9968 F1140.00
G1 X63.0000 Y517.0458 Z-3.9968 F1140.00
G2 X61.6771 Y514.5584 Z-3.9968 I-3.0000 J0.0000 F1140.00
G3 X50.5000 Y505.0462 Z-3.9968 I30.6148 J-47.2960 F1140.00
G1 X50.5000 Y368.0196 Z-3.9968 F1140.00
G3 X67.4675 Y349.8397 Z-3.9968 I24.3264 J5.6961 F1140.00
G2 X69.5000 Y347.0000 Z-3.9968 I-0.9675 J-2.8397 F1140.00
G1 X69.5000 Y0.0000 Z-3.9968 F1140.00
G2 X67.4087 Y-2.8591 Z-3.9968 I-3.0000 J-0.0000 F1140.00
G2 X65.9759 Y-2.9539 Z-3.9968 I-0.9087 J2.8591 F1140.00
G3 X13.0241 Y-2.9539 Z-3.9968 I-26.4759 J-139.5339 F1140.00
G2 X9.5000 Y0.0000 Z-3.9968 I-0.5241 J2.9539 F1140.00
G1 X9.5000 Y505.2956 Z-3.9968 F1140.00
G3 X-1.9395 Y517.9664 Z-3.9968 I-46.9376 J-30.8771 F1140.00
G2 X-3.0000 Y520.2551 Z-3.9968 I1.9395 J2.2887 F1140.00
G1 X-3.0000 Y522.8994 Z-3.9968 F1140.00
G1 X-2.9166 Y523.6018 Z-3.9968 F1140.00
G3 X13.4701 Y627.9029 Z-3.9968 I-597.3823 J147.2922 F1140.00
G2 X19.2928 Y628.6694 Z-3.9968 I2.9915 J-0.2257 F1140.00
G3 X59.1715 Y607.8441 Z-3.9968 I30.5132 J9.8355 F1140.00
G2 X61.0396 Y607.7749 Z-3.9968 I0.8285 J-2.8833 F1140.00
G1 X61.0396 Y607.7749 Z-4.9968 F1140.00
G2 X63.0000 Y604.9608 Z-4.9968 I-1.0396 J-2.8141 F1140.00
G1 X63.0000 Y602.3165 Z-4.9968 F1140.00
G1 X62.9602 Y601.8294 Z-4.9968 F1140.00
G3 X59.3584 Y559.2502 Z-4.9968 I240.7100 J-41.8034 F1140.00
G3 X62.9605 Y520.1754 Z-4.9968 I247.1256 J3.0774 F1140.00
G1 X63.0000 Y519.6901 Z-4.9968 F1140.00
G1 X63.0000 Y517.0458 Z-4.9968 F1140.00
G2 X61.6771 Y514.5584 Z-4.9968 I-3.0000 J0.0000 F1140.00
G3 X50.5000 Y505.0462 Z-4.9968 I30.6148 J-47.2960 F1140.00
G1 X50.5000 Y368.0196 Z-4.9968 F1140.00
G3 X67.4675 Y349.8397 Z-4.9968 I24.3264 J5.6961 F1140.00
G2 X69.5000 Y347.0000 Z-4.9968 I-0.9675 J-2.8397 F1140.00
G1 X69.5000 Y0.0000 Z-4.9968 F1140.00
G2 X67.4087 Y-2.8591 Z-4.9968 I-3.0000 J-0.0000 F1140.00
G2 X65.9759 Y-2.9539 Z-4.9968 I-0.9087 J2.8591 F1140.00
G3 X13.0241 Y-2.9539 Z-4.9968 I-26.4759 J-139.5339 F1140.00
G2 X9.5000 Y0.0000 Z-4.9968 I-0.5241 J2.9539 F1140.00
G1 X9.5000 Y505.2956 Z-4.9968 F1140.00
G3 X-1.9395 Y517.9664 Z-4.9968 I-46.9376 J-30.8771 F1140.00
G2 X-3.0000 Y520.2551 Z-4.9968 I1.9395 J2.2887 F1140.00
G1 X-3.0000 Y522.8994 Z-4.9968 F1140.00
G1 X-2.9166 Y523.6018 Z-4.9968 F1140.00
G3 X13.4701 Y627.9029 Z-4.9968 I-597.3823 J147.2922 F1140.00
G2 X19.2928 Y628.6694 Z-4.9968 I2.9915 J-0.2257 F1140.00
G3 X59.1715 Y607.8441 Z-4.9968 I30.5132 J9.8355 F1140.00
G2 X61.0396 Y607.7749 Z-4.9968 I0.8285 J-2.8833 F1140.00
G1 X61.0396 Y607.7749 Z-5.9968 F1140.00
G2 X63.0000 Y604.9608 Z-5.9968 I-1.0396 J-2.8141 F1140.00
G1 X63.0000 Y602.3165 Z-5.9968 F1140.00
G1 X62.9602 Y601.8294 Z-5.9968 F1140.00
G3 X59.3584 Y559.2502 Z-5.9968 I240.7100 J-41.8034 F1140.00
G3 X62.9605 Y520.1754 Z-5.9968 I247.1256 J3.0774 F1140.00
G1 X63.0000 Y519.6901 Z-5.9968 F1140.00
G1 X63.0000 Y517.0458 Z-5.9968 F1140.00
G2 X61.6771 Y514.5584 Z-5.9968 I-3.0000 J0.0000 F1140.00
G3 X50.5000 Y505.0462 Z-5.9968 I30.6148 J-47.2960 F1140.00
G1 X50.5000 Y368.0196 Z-5.9968 F1140.00
G3 X67.4675 Y349.8397 Z-5.9968 I24.3264 J5.6961 F1140.00
G2 X69.5000 Y347.0000 Z-5.9968 I-0.9675 J-2.8397 F1140.00
G1 X69.5000 Y0.0000 Z-5.9968 F1140.00
G2 X67.4087 Y-2.8591 Z-5.9968 I-3.0000 J-0.0000 F1140.00
G2 X65.9759 Y-2.9539 Z-5.9968 I-0.9087 J2.8591 F1140.00
G3 X13.0241 Y-2.9539 Z-5.9968 I-26.4759 J-139.5339 F1140.00
G2 X9.5000 Y0.0000 Z-5.9968 I-0.5241 J2.9539 F1140.00
G1 X9.5000 Y505.2956 Z-5.9968 F1140.00
G3 X-1.9395 Y517.9664 Z-5.9968 I-46.9376 J-30.8771 F1140.00
G2 X-3.0000 Y520.2551 Z-5.9968 I1.9395 J2.2887 F1140.00
G1 X-3.0000 Y522.8994 Z-5.9968 F1140.00
G1 X-2.9166 Y523.6018 Z-5.9968 F1140.00
G3 X13.4701 Y627.9029 Z-5.9968 I-597.3823 J147.2922 F1140.00
G2 X19.2928 Y628.6694 Z-5.9968 I2.9915 J-0.2257 F1140.00
G3 X59.1715 Y607.8441 Z-5.9968 I30.5132 J9.8355 F1140.00
G2 X61.0396 Y607.7749 Z-5.9968 I0.8285 J-2.8833 F1140.00
G1 X61.0396 Y607.7749 Z-6.9968 F1140.00
G2 X63.0000 Y604.9608 Z-6.9968 I-1.0396 J-2.8141 F1140.00
G1 X63.0000 Y602.3165 Z-6.9968 F1140.00
G1 X62.9602 Y601.8294 Z-6.9968 F1140.00
G3 X59.3584 Y559.2502 Z-6.9968 I240.7100 J-41.8034 F1140.00
G3 X62.9605 Y520.1754 Z-6.9968 I247.1256 J3.0774 F1140.00
G1 X63.0000 Y519.6901 Z-6.9968 F1140.00
G1 X63.0000 Y517.0458 Z-6.9968 F1140.00
G2 X61.6771 Y514.5584 Z-6.9968 I-3.0000 J0.0000 F1140.00
G3 X50.5000 Y505.0462 Z-6.9968 I30.6148 J-47.2960 F1140.00
G1 X50.5000 Y368.0196 Z-6.9968 F1140.00
G3 X67.4675 Y349.8397 Z-6.9968 I24.3264 J5.6961 F1140.00
G2 X69.5000 Y347.0000 Z-6.9968 I-0.9675 J-2.8397 F1140.00
G1 X69.5000 Y0.0000 Z-6.9968 F1140.00
G2 X67.4087 Y-2.8591 Z-6.9968 I-3.0000 J-0.0000 F1140.00
G2 X65.9759 Y-2.9539 Z-6.9968 I-0.9087 J2.8591 F1140.00
G3 X13.0241 Y-2.9539 Z-6.9968 I-26.4759 J-139.5339 F1140.00
G2 X9.5000 Y0.0000 Z-6.9968 I-0.5241 J2.9539 F1140.00
G1 X9.5000 Y505.2956 Z-6.9968 F1140.00
G3 X-1.9395 Y517.9664 Z-6.9968 I-46.9376 J-30.8771 F1140.00
G2 X-3.0000 Y520.2551 Z-6.9968 I1.9395 J2.2887 F1140.00
G1 X-3.0000 Y522.8994 Z-6.9968 F1140.00
G1 X-2.9166 Y523.6018 Z-6.9968 F1140.00
G3 X13.4701 Y627.9029 Z-6.9968 I-597.3823 J147.2922 F1140.00
G2 X19.2928 Y628.6694 Z-6.9968 I2.9915 J-0.2257 F1140.00
G3 X59.1715 Y607.8441 Z-6.9968 I30.5132 J9.8355 F1140.00
G2 X61.0396 Y607.7749 Z-6.9968 I0.8285 J-2.8833 F1140.00
G1 X61.0396 Y607.7749 Z-7.9968 F1140.00
G2 X63.0000 Y604.9608 Z-7.9968 I-1.0396 J-2.8141 F1140.00
G1 X63.0000 Y602.3165 Z-7.9968 F1140.00
G1 X62.9602 Y601.8294 Z-7.9968 F1140.00
G3 X59.3584 Y559.2502 Z-7.9968 I240.7100 J-41.8034 F1140.00
G3 X62.9605 Y520.1754 Z-7.9968 I247.1256 J3.0774 F1140.00
G1 X63.0000 Y519.6901 Z-7.9968 F1140.00
G1 X63.0000 Y517.0458 Z-7.9968 F1140.00
G2 X61.6771 Y514.5584 Z-7.9968 I-3.0000 J0.0000 F1140.00
G3 X50.5000 Y505.0462 Z-7.9968 I30.6148 J-47.2960 F1140.00
G1 X50.5000 Y368.0196 Z-7.9968 F1140.00
G3 X67.4675 Y349.8397 Z-7.9968 I24.3264 J5.6961 F1140.00
G2 X69.5000 Y347.0000 Z-7.9968 I-0.9675 J-2.8397 F1140.00
G1 X69.5000 Y0.0000 Z-7.9968 F1140.00
G2 X67.4087 Y-2.8591 Z-7.9968 I-3.0000 J-0.0000 F1140.00
G2 X65.9759 Y-2.9539 Z-7.9968 I-0.9087 J2.8591 F1140.00
G3 X13.0241 Y-2.9539 Z-7.9968 I-26.4759 J-139.5339 F1140.00
G2 X9.5000 Y0.0000 Z-7.9968 I-0.5241 J2.9539 F1140.00
G1 X9.5000 Y505.2956 Z-7.9968 F1140.00
G3 X-1.9395 Y517.9664 Z-7.9968 I-46.9376 J-30.8771 F1140.00
G2 X-3.0000 Y520.2551 Z-7.9968 I1.9395 J2.2887 F1140.00
G1 X-3.0000 Y522.8994 Z-7.9968 F1140.00
G1 X-2.9166 Y523.6018 Z-7.9968 F1140.00
G3 X13.4701 Y627.9029 Z-7.9968 I-597.3823 J147.2922 F1140.00
G2 X19.2928 Y628.6694 Z-7.9968 I2.9915 J-0.2257 F1140.00
G3 X59.1715 Y607.8441 Z-7.9968 I30.5132 J9.8355 F1140.00
G2 X61.0396 Y607.7749 Z-7.9968 I0.8285 J-2.8833 F1140.00
G1 X61.0396 Y607.7749 Z-8.9968 F1140.00
G2 X63.0000 Y604.9608 Z-8.9968 I-1.0396 J-2.8141 F1140.00
G1 X63.0000 Y602.3165 Z-8.9968 F1140.00
G1 X62.9602 Y601.8294 Z-8.9968 F1140.00
G3 X59.3584 Y559.2502 Z-8.9968 I240.7100 J-41.8034 F1140.00
G3 X62.9605 Y520.1754 Z-8.9968 I247.1256 J3.0774 F1140.00
G1 X63.0000 Y519.6901 Z-8.9968 F1140.00
G1 X63.0000 Y517.0458 Z-8.9968 F1140.00
G2 X61.6771 Y514.5584 Z-8.9968 I-3.0000 J0.0000 F1140.00
G3 X50.5000 Y505.0462 Z-8.9968 I30.6148 J-47.2960 F1140.00
G1 X50.5000 Y368.0196 Z-8.9968 F1140.00
G3 X67.4675 Y349.8397 Z-8.9968 I24.3264 J5.6961 F1140.00
G2 X69.5000 Y347.0000 Z-8.9968 I-0.9675 J-2.8397 F1140.00
G1 X69.5000 Y0.0000 Z-8.9968 F1140.00
G2 X67.4087 Y-2.8591 Z-8.9968 I-3.0000 J-0.0000 F1140.00
G2 X65.9759 Y-2.9539 Z-8.9968 I-0.9087 J2.8591 F1140.00
G3 X13.0241 Y-2.9539 Z-8.9968 I-26.4759 J-139.5339 F1140.00
G2 X9.5000 Y0.0000 Z-8.9968 I-0.5241 J2.9539 F1140.00
G1 X9.5000 Y505.2956 Z-8.9968 F1140.00
G3 X-1.9395 Y517.9664 Z-8.9968 I-46.9376 J-30.8771 F1140.00
G2 X-3.0000 Y520.2551 Z-8.9968 I1.9395 J2.2887 F1140.00
G1 X-3.0000 Y522.8994 Z-8.9968 F1140.00
G1 X-2.9166 Y523.6018 Z-8.9968 F1140.00
G3 X13.4701 Y627.9029 Z-8.9968 I-597.3823 J147.2922 F1140.00
G2 X19.2928 Y628.6694 Z-8.9968 I2.9915 J-0.2257 F1140.00
G3 X59.1715 Y607.8441 Z-8.9968 I30.5132 J9.8355 F1140.00
G2 X61.0396 Y607.7749 Z-8.9968 I0.8285 J-2.8833 F1140.00
G1 X61.0396 Y607.7749 Z-9.9968 F1140.00
G2 X63.0000 Y604.9608 Z-9.9968 I-1.0396 J-2.8141 F1140.00
G1 X63.0000 Y602.3165 Z-9.9968 F1140.00
G1 X62.9602 Y601.8294 Z-9.9968 F1140.00
G3 X59.3584 Y559.2502 Z-9.9968 I240.7100 J-41.8034 F1140.00
G3 X62.9605 Y520.1754 Z-9.9968 I247.1256 J3.0774 F1140.00
G1 X63.0000 Y519.6901 Z-9.9968 F1140.00
G1 X63.0000 Y517.0458 Z-9.9968 F1140.00
G2 X61.6771 Y514.5584 Z-9.9968 I-3.0000 J0.0000 F1140.00
G3 X50.5000 Y505.0462 Z-9.9968 I30.6148 J-47.2960 F1140.00
G1 X50.5000 Y368.0196 Z-9.9968 F1140.00
G3 X67.4675 Y349.8397 Z-9.9968 I24.3264 J5.6961 F1140.00
G2 X69.5000 Y347.0000 Z-9.9968 I-0.9675 J-2.8397 F1140.00
G1 X69.5000 Y0.0000 Z-9.9968 F1140.00
G2 X67.4087 Y-2.8591 Z-9.9968 I-3.0000 J-0.0000 F1140.00
G2 X65.9759 Y-2.9539 Z-9.9968 I-0.9087 J2.8591 F1140.00
G3 X13.0241 Y-2.9539 Z-9.9968 I-26.4759 J-139.5339 F1140.00
G2 X9.5000 Y0.0000 Z-9.9968 I-0.5241 J2.9539 F1140.00
G1 X9.5000 Y505.2956 Z-9.9968 F1140.00
G3 X-1.9395 Y517.9664 Z-9.9968 I-46.9376 J-30.8771 F1140.00
G2 X-3.0000 Y520.2551 Z-9.9968 I1.9395 J2.2887 F1140.00
G1 X-3.0000 Y522.8994 Z-9.9968 F1140.00
G1 X-2.9166 Y523.6018 Z-9.9968 F1140.00
G3 X13.4701 Y627.9029 Z-9.9968 I-597.3823 J147.2922 F1140.00
G2 X19.2928 Y628.6694 Z-9.9968 I2.9915 J-0.2257 F1140.00
G3 X59.1715 Y607.8441 Z-9.9968 I30.5132 J9.8355 F1140.00
G2 X61.0396 Y607.7749 Z-9.9968 I0.8285 J-2.8833 F1140.00
G1 X61.0396 Y607.7749 Z-10.9968 F1140.00
G2 X63.0000 Y604.9608 Z-10.9968 I-1.0396 J-2.8141 F1140.00
G1 X63.0000 Y602.3165 Z-10.9968 F1140.00
G1 X62.9602 Y601.8294 Z-10.9968 F1140.00
G3 X59.3584 Y559.2502 Z-10.9968 I240.7100 J-41.8034 F1140.00
G3 X62.9605 Y520.1754 Z-10.9968 I247.1256 J3.0774 F1140.00
G1 X63.0000 Y519.6901 Z-10.9968 F1140.00
G1 X63.0000 Y517.0458 Z-10.9968 F1140.00
G2 X61.6771 Y514.5584 Z-10.9968 I-3.0000 J0.0000 F1140.00
G3 X50.5000 Y505.0462 Z-10.9968 I30.6148 J-47.2960 F1140.00
G1 X50.5000 Y368.0196 Z-10.9968 F1140.00
G3 X67.4675 Y349.8397 Z-10.9968 I24.3264 J5.6961 F1140.00
G2 X69.5000 Y347.0000 Z-10.9968 I-0.9675 J-2.8397 F1140.00
G1 X69.5000 Y0.0000 Z-10.9968 F1140.00
G2 X67.4087 Y-2.8591 Z-10.9968 I-3.0000 J-0.0000 F1140.00
G2 X65.9759 Y-2.9539 Z-10.9968 I-0.9087 J2.8591 F1140.00
G3 X13.0241 Y-2.9539 Z-10.9968 I-26.4759 J-139.5339 F1140.00
G2 X9.5000 Y0.0000 Z-10.9968 I-0.5241 J2.9539 F1140.00
G1 X9.5000 Y505.2956 Z-10.9968 F1140.00
G3 X-1.9395 Y517.9664 Z-10.9968 I-46.9376 J-30.8771 F1140.00
G2 X-3.0000 Y520.2551 Z-10.9968 I1.9395 J2.2887 F1140.00
G1 X-3.0000 Y522.8994 Z-10.9968 F1140.00
G1 X-2.9166 Y523.6018 Z-10.9968 F1140.00
G3 X13.4701 Y627.9029 Z-10.9968 I-597.3823 J147.2922 F1140.00
G2 X19.2928 Y628.6694 Z-10.9968 I2.9915 J-0.2257 F1140.00
G3 X59.1715 Y607.8441 Z-10.9968 I30.5132 J9.8355 F1140.00
G2 X61.0396 Y607.7749 Z-10.9968 I0.8285 J-2.8833 F1140.00
G1 X61.0396 Y607.7749 Z-11.9968 F1140.00
G2 X63.0000 Y604.9608 Z-11.9968 I-1.0396 J-2.8141 F1140.00
G1 X63.0000 Y602.3165 Z-11.9968 F1140.00
G1 X62.9602 Y601.8294 Z-11.9968 F1140.00
G3 X59.3584 Y559.2502 Z-11.9968 I240.7100 J-41.8034 F1140.00
G3 X62.9605 Y520.1754 Z-11.9968 I247.1256 J3.0774 F1140.00
G1 X63.0000 Y519.6901 Z-11.9968 F1140.00
G1 X63.0000 Y517.0458 Z-11.9968 F1140.00
G2 X61.6771 Y514.5584 Z-11.9968 I-3.0000 J0.0000 F1140.00
G3 X50.5000 Y505.0462 Z-11.9968 I30.6148 J-47.2960 F1140.00
G1 X50.5000 Y368.0196 Z-11.9968 F1140.00
G3 X67.4675 Y349.8397 Z-11.9968 I24.3264 J5.6961 F1140.00
G2 X69.5000 Y347.0000 Z-11.9968 I-0.9675 J-2.8397 F1140.00
G1 X69.5000 Y0.0000 Z-11.9968 F1140.00
G2 X67.4087 Y-2.8591 Z-11.9968 I-3.0000 J-0.0000 F1140.00
G2 X65.9759 Y-2.9539 Z-11.9968 I-0.9087 J2.8591 F1140.00
G3 X13.0241 Y-2.9539 Z-11.9968 I-26.4759 J-139.5339 F1140.00
G2 X9.5000 Y0.0000 Z-11.9968 I-0.5241 J2.9539 F1140.00
G1 X9.5000 Y505.2956 Z-11.9968 F1140.00
G3 X-1.9395 Y517.9664 Z-11.9968 I-46.9376 J-30.8771 F1140.00
G2 X-3.0000 Y520.2551 Z-11.9968 I1.9395 J2.2887 F1140.00
G1 X-3.0000 Y522.8994 Z-11.9968 F1140.00
G1 X-2.9166 Y523.6018 Z-11.9968 F1140.00
G3 X13.4701 Y627.9029 Z-11.9968 I-597.3823 J147.2922 F1140.00
G2 X19.2928 Y628.6694 Z-11.9968 I2.9915 J-0.2257 F1140.00
G3 X59.1715 Y607.8441 Z-11.9968 I30.5132 J9.8355 F1140.00
G2 X61.0396 Y607.7749 Z-11.9968 I0.8285 J-2.8833 F1140.00
G1 X61.0396 Y607.7749 Z-12.9968 F1140.00
G2 X63.0000 Y604.9608 Z-12.9968 I-1.0396 J-2.8141 F1140.00
G1 X63.0000 Y602.3165 Z-12.9968 F1140.00
G1 X62.9602 Y601.8294 Z-12.9968 F1140.00
G3 X59.3584 Y559.2502 Z-12.9968 I240.7100 J-41.8034 F1140.00
G3 X62.9605 Y520.1754 Z-12.9968 I247.1256 J3.0774 F1140.00
G1 X63.0000 Y519.6901 Z-12.9968 F1140.00
G1 X63.0000 Y517.0458 Z-12.9968 F1140.00
G2 X61.6771 Y514.5584 Z-12.9968 I-3.0000 J0.0000 F1140.00
G3 X50.5000 Y505.0462 Z-12.9968 I30.6148 J-47.2960 F1140.00
G1 X50.5000 Y368.0196 Z-12.9968 F1140.00
G3 X67.4675 Y349.8397 Z-12.9968 I24.3264 J5.6961 F1140.00
G2 X69.5000 Y347.0000 Z-12.9968 I-0.9675 J-2.8397 F1140.00
G1 X69.5000 Y0.0000 Z-12.9968 F1140.00
G2 X67.4087 Y-2.8591 Z-12.9968 I-3.0000 J-0.0000 F1140.00
G2 X65.9759 Y-2.9539 Z-12.9968 I-0.9087 J2.8591 F1140.00
G3 X13.0241 Y-2.9539 Z-12.9968 I-26.4759 J-139.5339 F1140.00
G2 X9.5000 Y0.0000 Z-12.9968 I-0.5241 J2.9539 F1140.00
G1 X9.5000 Y505.2956 Z-12.9968 F1140.00
G3 X-1.9395 Y517.9664 Z-12.9968 I-46.9376 J-30.8771 F1140.00
G2 X-3.0000 Y520.2551 Z-12.9968 I1.9395 J2.2887 F1140.00
G1 X-3.0000 Y522.8994 Z-12.9968 F1140.00
G1 X-2.9166 Y523.6018 Z-12.9968 F1140.00
G3 X13.4701 Y627.9029 Z-12.9968 I-597.3823 J147.2922 F1140.00
G2 X19.2928 Y628.6694 Z-12.9968 I2.9915 J-0.2257 F1140.00
G3 X59.1715 Y607.8441 Z-12.9968 I30.5132 J9.8355 F1140.00
G2 X61.0396 Y607.7749 Z-12.9968 I0.8285 J-2.8833 F1140.00
G1 X61.0396 Y607.7749 Z-13.9968 F1140.00
G2 X63.0000 Y604.9608 Z-13.9968 I-1.0396 J-2.8141 F1140.00
G1 X63.0000 Y602.3165 Z-13.9968 F1140.00
G1 X62.9602 Y601.8294 Z-13.9968 F1140.00
G3 X59.3584 Y559.2502 Z-13.9968 I240.7100 J-41.8034 F1140.00
G3 X62.9605 Y520.1754 Z-13.9968 I247.1256 J3.0774 F1140.00
G1 X63.0000 Y519.6901 Z-13.9968 F1140.00
G1 X63.0000 Y517.0458 Z-13.9968 F1140.00
G2 X61.6771 Y514.5584 Z-13.9968 I-3.0000 J0.0000 F1140.00
G3 X50.5000 Y505.0462 Z-13.9968 I30.6148 J-47.2960 F1140.00
G1 X50.5000 Y368.0196 Z-13.9968 F1140.00
G3 X67.4675 Y349.8397 Z-13.9968 I24.3264 J5.6961 F1140.00
G2 X69.5000 Y347.0000 Z-13.9968 I-0.9675 J-2.8397 F1140.00
G1 X69.5000 Y0.0000 Z-13.9968 F1140.00
G2 X67.4087 Y-2.8591 Z-13.9968 I-3.0000 J-0.0000 F1140.00
G2 X65.9759 Y-2.9539 Z-13.9968 I-0.9087 J2.8591 F1140.00
G3 X13.0241 Y-2.9539 Z-13.9968 I-26.4759 J-139.5339 F1140.00
G2 X9.5000 Y0.0000 Z-13.9968 I-0.5241 J2.9539 F1140.00
G1 X9.5000 Y505.2956 Z-13.9968 F1140.00
G3 X-1.9395 Y517.9664 Z-13.9968 I-46.9376 J-30.8771 F1140.00
G2 X-3.0000 Y520.2551 Z-13.9968 I1.9395 J2.2887 F1140.00
G1 X-3.0000 Y522.8994 Z-13.9968 F1140.00
G1 X-2.9166 Y523.6018 Z-13.9968 F1140.00
G3 X13.4701 Y627.9029 Z-13.9968 I-597.3823 J147.2922 F1140.00
G2 X19.2928 Y628.6694 Z-13.9968 I2.9915 J-0.2257 F1140.00
G3 X59.1715 Y607.8441 Z-13.9968 I30.5132 J9.8355 F1140.00
G2 X61.0396 Y607.7749 Z-13.9968 I0.8285 J-2.8833 F1140.00
G1 X61.0396 Y607.7749 Z-14.9968 F1140.00
G2 X63.0000 Y604.9608 Z-14.9968 I-1.0396 J-2.8141 F1140.00
G1 X63.0000 Y602.3165 Z-14.9968 F1140.00
G1 X62.9602 Y601.8294 Z-14.9968 F1140.00
G3 X59.3584 Y559.2502 Z-14.9968 I240.7100 J-41.8034 F1140.00
G3 X62.9605 Y520.1754 Z-14.9968 I247.1256 J3.0774 F1140.00
G1 X63.0000 Y519.6901 Z-14.9968 F1140.00
G1 X63.0000 Y517.0458 Z-14.9968 F1140.00
G2 X61.6771 Y514.5584 Z-14.9968 I-3.0000 J0.0000 F1140.00
G3 X50.5000 Y505.0462 Z-14.9968 I30.6148 J-47.2960 F1140.00
G1 X50.5000 Y368.0196 Z-14.9968 F1140.00
G3 X67.4675 Y349.8397 Z-14.9968 I24.3264 J5.6961 F1140.00
G2 X69.5000 Y347.0000 Z-14.9968 I-0.9675 J-2.8397 F1140.00
G1 X69.5000 Y0.0000 Z-14.9968 F1140.00
G2 X67.4087 Y-2.8591 Z-14.9968 I-3.0000 J-0.0000 F1140.00
G2 X65.9759 Y-2.9539 Z-14.9968 I-0.9087 J2.8591 F1140.00
G3 X13.0241 Y-2.9539 Z-14.9968 I-26.4759 J-139.5339 F1140.00
G2 X9.5000 Y0.0000 Z-14.9968 I-0.5241 J2.9539 F1140.00
G1 X9.5000 Y505.2956 Z-14.9968 F1140.00
G3 X-1.9395 Y517.9664 Z-14.9968 I-46.9376 J-30.8771 F1140.00
G2 X-3.0000 Y520.2551 Z-14.9968 I1.9395 J2.2887 F1140.00
G1 X-3.0000 Y522.8994 Z-14.9968 F1140.00
G1 X-2.9166 Y523.6018 Z-14.9968 F1140.00
G3 X13.4701 Y627.9029 Z-14.9968 I-597.3823 J147.2922 F1140.00
G2 X19.2928 Y628.6694 Z-14.9968 I2.9915 J-0.2257 F1140.00
G3 X59.1715 Y607.8441 Z-14.9968 I30.5132 J9.8355 F1140.00
G2 X61.0396 Y607.7749 Z-14.9968 I0.8285 J-2.8833 F1140.00
G1 X61.0396 Y607.7749 Z-15.9968 F1140.00
G2 X63.0000 Y604.9608 Z-15.9968 I-1.0396 J-2.8141 F1140.00
G1 X63.0000 Y602.3165 Z-15.9968 F1140.00
G1 X62.9602 Y601.8294 Z-15.9968 F1140.00
G3 X59.3584 Y559.2502 Z-15.9968 I240.7100 J-41.8034 F1140.00
G3 X62.9605 Y520.1754 Z-15.9968 I247.1256 J3.0774 F1140.00
G1 X63.0000 Y519.6901 Z-15.9968 F1140.00
G1 X63.0000 Y517.0458 Z-15.9968 F1140.00
G2 X61.6771 Y514.5584 Z-15.9968 I-3.0000 J0.0000 F1140.00
G3 X50.5000 Y505.0462 Z-15.9968 I30.6148 J-47.2960 F1140.00
G1 X50.5000 Y368.0196 Z-15.9968 F1140.00
G3 X67.4675 Y349.8397 Z-15.9968 I24.3264 J5.6961 F1140.00
G2 X69.5000 Y347.0000 Z-15.9968 I-0.9675 J-2.8397 F1140.00
G1 X69.5000 Y0.0000 Z-15.9968 F1140.00
G2 X67.4087 Y-2.8591 Z-15.9968 I-3.0000 J-0.0000 F1140.00
G2 X65.9759 Y-2.9539 Z-15.9968 I-0.9087 J2.8591 F1140.00
G3 X13.0241 Y-2.9539 Z-15.9968 I-26.4759 J-139.5339 F1140.00
G2 X9.5000 Y0.0000 Z-15.9968 I-0.5241 J2.9539 F1140.00
G1 X9.5000 Y505.2956 Z-15.9968 F1140.00
G3 X-1.9395 Y517.9664 Z-15.9968 I-46.9376 J-30.8771 F1140.00
G2 X-3.0000 Y520.2551 Z-15.9968 I1.9395 J2.2887 F1140.00
G1 X-3.0000 Y522.8994 Z-15.9968 F1140.00
G1 X-2.9166 Y523.6018 Z-15.9968 F1140.00
G3 X13.4701 Y627.9029 Z-15.9968 I-597.3823 J147.2922 F1140.00
G2 X19.2928 Y628.6694 Z-15.9968 I2.9915 J-0.2257 F1140.00
G3 X59.1715 Y607.8441 Z-15.9968 I30.5132 J9.8355 F1140.00
G2 X61.0396 Y607.7749 Z-15.9968 I0.8285 J-2.8833 F1140.00
G1 X61.0396 Y607.7749 Z-16.9968 F1140.00
G2 X63.0000 Y604.9608 Z-16.9968 I-1.0396 J-2.8141 F1140.00
G1 X63.0000 Y602.3165 Z-16.9968 F1140.00
G1 X62.9602 Y601.8294 Z-16.9968 F1140.00
G3 X59.3584 Y559.2502 Z-16.9968 I240.7100 J-41.8034 F1140.00
G3 X62.9605 Y520.1754 Z-16.9968 I247.1256 J3.0774 F1140.00
G1 X63.0000 Y519.6901 Z-16.9968 F1140.00
G1 X63.0000 Y517.0458 Z-16.9968 F1140.00
G2 X61.6771 Y514.5584 Z-16.9968 I-3.0000 J0.0000 F1140.00
G3 X50.5000 Y505.0462 Z-16.9968 I30.6148 J-47.2960 F1140.00
G1 X50.5000 Y368.0196 Z-16.9968 F1140.00
G3 X67.4675 Y349.8397 Z-16.9968 I24.3264 J5.6961 F1140.00
G2 X69.5000 Y347.0000 Z-16.9968 I-0.9675 J-2.8397 F1140.00
G1 X69.5000 Y0.0000 Z-16.9968 F1140.00
G2 X67.4087 Y-2.8591 Z-16.9968 I-3.0000 J-0.0000 F1140.00
G2 X65.9759 Y-2.9539 Z-16.9968 I-0.9087 J2.8591 F1140.00
G3 X13.0241 Y-2.9539 Z-16.9968 I-26.4759 J-139.5339 F1140.00
G2 X9.5000 Y0.0000 Z-16.9968 I-0.5241 J2.9539 F1140.00
G1 X9.5000 Y505.2956 Z-16.9968 F1140.00
G3 X-1.9395 Y517.9664 Z-16.9968 I-46.9376 J-30.8771 F1140.00
G2 X-3.0000 Y520.2551 Z-16.9968 I1.9395 J2.2887 F1140.00
G1 X-3.0000 Y522.8994 Z-16.9968 F1140.00
G1 X-2.9166 Y523.6018 Z-16.9968 F1140.00
G3 X13.4701 Y627.9029 Z-16.9968 I-597.3823 J147.2922 F1140.00
G2 X19.2928 Y628.6694 Z-16.9968 I2.9915 J-0.2257 F1140.00
G3 X59.1715 Y607.8441 Z-16.9968 I30.5132 J9.8355 F1140.00
G2 X61.0396 Y607.7749 Z-16.9968 I0.8285 J-2.8833 F1140.00
G1 X61.0396 Y607.7749 Z-17.9968 F1140.00
G2 X63.0000 Y604.9608 Z-17.9968 I-1.0396 J-2.8141 F1140.00
G1 X63.0000 Y602.3165 Z-17.9968 F1140.00
G1 X62.9602 Y601.8294 Z-17.9968 F1140.00
G3 X59.3584 Y559.2502 Z-17.9968 I240.7100 J-41.8034 F1140.00
G3 X62.9605 Y520.1754 Z-17.9968 I247.1256 J3.0774 F1140.00
G1 X63.0000 Y519.6901 Z-17.9968 F1140.00
G1 X63.0000 Y517.0458 Z-17.9968 F1140.00
G2 X61.6771 Y514.5584 Z-17.9968 I-3.0000 J0.0000 F1140.00
G3 X50.5000 Y505.0462 Z-17.9968 I30.6148 J-47.2960 F1140.00
G1 X50.5000 Y368.0196 Z-17.9968 F1140.00
G3 X67.4675 Y349.8397 Z-17.9968 I24.3264 J5.6961 F1140.00
G2 X69.5000 Y347.0000 Z-17.9968 I-0.9675 J-2.8397 F1140.00
G1 X69.5000 Y0.0000 Z-17.9968 F1140.00
G2 X67.4087 Y-2.8591 Z-17.9968 I-3.0000 J-0.0000 F1140.00
G2 X65.9759 Y-2.9539 Z-17.9968 I-0.9087 J2.8591 F1140.00
G3 X13.0241 Y-2.9539 Z-17.9968 I-26.4759 J-139.5339 F1140.00
G2 X9.5000 Y0.0000 Z-17.9968 I-0.5241 J2.9539 F1140.00
G1 X9.5000 Y505.2956 Z-17.9968 F1140.00
G3 X-1.9395 Y517.9664 Z-17.9968 I-46.9376 J-30.8771 F1140.00
G2 X-3.0000 Y520.2551 Z-17.9968 I1.9395 J2.2887 F1140.00
G1 X-3.0000 Y522.8994 Z-17.9968 F1140.00
G1 X-2.9166 Y523.6018 Z-17.9968 F1140.00
G3 X13.4701 Y627.9029 Z-17.9968 I-597.3823 J147.2922 F1140.00
G2 X19.2928 Y628.6694 Z-17.9968 I2.9915 J-0.2257 F1140.00
G3 X59.1715 Y607.8441 Z-17.9968 I30.5132 J9.8355 F1140.00
G2 X61.0396 Y607.7749 Z-17.9968 I0.8285 J-2.8833 F1140.00
G1 X61.0396 Y607.7749 Z-18.9968 F1140.00
G2 X63.0000 Y604.9608 Z-18.9968 I-1.0396 J-2.8141 F1140.00
G1 X63.0000 Y602.3165 Z-18.9968 F1140.00
G1 X62.9602 Y601.8294 Z-18.9968 F1140.00
G3 X59.3584 Y559.2502 Z-18.9968 I240.7100 J-41.8034 F1140.00
G3 X62.9605 Y520.1754 Z-18.9968 I247.1256 J3.0774 F1140.00
G1 X63.0000 Y519.6901 Z-18.9968 F1140.00
G1 X63.0000 Y517.0458 Z-18.9968 F1140.00
G2 X61.6771 Y514.5584 Z-18.9968 I-3.0000 J0.0000 F1140.00
G3 X50.5000 Y505.0462 Z-18.9968 I30.6148 J-47.2960 F1140.00
G1 X50.5000 Y368.0196 Z-18.9968 F1140.00
G3 X67.4675 Y349.8397 Z-18.9968 I24.3264 J5.6961 F1140.00
G2 X69.5000 Y347.0000 Z-18.9968 I-0.9675 J-2.8397 F1140.00
G1 X69.5000 Y0.0000 Z-18.9968 F1140.00
G2 X67.4087 Y-2.8591 Z-18.9968 I-3.0000 J-0.0000 F1140.00
G2 X65.9759 Y-2.9539 Z-18.9968 I-0.9087 J2.8591 F1140.00
G3 X13.0241 Y-2.9539 Z-18.9968 I-26.4759 J-139.5339 F1140.00
G2 X9.5000 Y0.0000 Z-18.9968 I-0.5241 J2.9539 F1140.00
G1 X9.5000 Y505.2956 Z-18.9968 F1140.00
G3 X-1.9395 Y517.9664 Z-18.9968 I-46.9376 J-30.8771 F1140.00
G2 X-3.0000 Y520.2551 Z-18.9968 I1.9395 J2.2887 F1140.00
G1 X-3.0000 Y522.8994 Z-18.9968 F1140.00
G1 X-2.9166 Y523.6018 Z-18.9968 F1140.00
G3 X13.4701 Y627.9029 Z-18.9968 I-597.3823 J147.2922 F1140.00
G2 X19.2928 Y628.6694 Z-18.9968 I2.9915 J-0.2257 F1140.00
G3 X59.1715 Y607.8441 Z-18.9968 I30.5132 J9.8355 F1140.00
G2 X61.0396 Y607.7749 Z-18.9968 I0.8285 J-2.8833 F1140.00
G1 X61.0396 Y607.7749 Z-19.9968 F1140.00
G2 X63.0000 Y604.9608 Z-19.9968 I-1.0396 J-2.8141 F1140.00
G1 X63.0000 Y602.3165 Z-19.9968 F1140.00
G1 X62.9602 Y601.8294 Z-19.9968 F1140.00
G3 X59.3584 Y559.2502 Z-19.9968 I240.7100 J-41.8034 F1140.00
G3 X62.9605 Y520.1754 Z-19.9968 I247.1256 J3.0774 F1140.00
G1 X63.0000 Y519.6901 Z-19.9968 F1140.00
G1 X63.0000 Y517.0458 Z-19.9968 F1140.00
G2 X61.6771 Y514.5584 Z-19.9968 I-3.0000 J0.0000 F1140.00
G3 X50.5000 Y505.0462 Z-19.9968 I30.6148 J-47.2960 F1140.00
G1 X50.5000 Y368.0196 Z-19.9968 F1140.00
G3 X67.4675 Y349.8397 Z-19.9968 I24.3264 J5.6961 F1140.00
G2 X69.5000 Y347.0000 Z-19.9968 I-0.9675 J-2.8397 F1140.00
G1 X69.5000 Y0.0000 Z-19.9968 F1140.00
G2 X67.4087 Y-2.8591 Z-19.9968 I-3.0000 J-0.0000 F1140.00
G2 X65.9759 Y-2.9539 Z-19.9968 I-0.9087 J2.8591 F1140.00
G3 X13.0241 Y-2.9539 Z-19.9968 I-26.4759 J-139.5339 F1140.00
G2 X9.5000 Y0.0000 Z-19.9968 I-0.5241 J2.9539 F1140.00
G1 X9.5000 Y505.2956 Z-19.9968 F1140.00
G3 X-1.9395 Y517.9664 Z-19.9968 I-46.9376 J-30.8771 F1140.00
G2 X-3.0000 Y520.2551 Z-19.9968 I1.9395 J2.2887 F1140.00
G1 X-3.0000 Y522.8994 Z-19.9968 F1140.00
G1 X-2.9166 Y523.6018 Z-19.9968 F1140.00
G3 X13.4701 Y627.9029 Z-19.9968 I-597.3823 J147.2922 F1140.00
G2 X19.2928 Y628.6694 Z-19.9968 I2.9915 J-0.2257 F1140.00
G3 X59.1715 Y607.8441 Z-19.9968 I30.5132 J9.8355 F1140.00
G2 X61.0396 Y607.7749 Z-19.9968 I0.8285 J-2.8833 F1140.00
G1 X61.0396 Y607.7749 Z-20.0000 F1140.00
G2 X63.0000 Y604.9608 Z-20.0000 I-1.0396 J-2.8141 F1140.00
G1 X63.0000 Y602.3165 Z-20.0000 F1140.00
G1 X62.9602 Y601.8294 Z-20.0000 F1140.00
G3 X59.3584 Y559.2502 Z-20.0000 I240.7100 J-41.8034 F1140.00
G3 X62.9605 Y520.1754 Z-20.0000 I247.1256 J3.0774 F1140.00
G1 X63.0000 Y519.6901 Z-20.0000 F1140.00
G1 X63.0000 Y517.0458 Z-20.0000 F1140.00
G2 X61.6771 Y514.5584 Z-20.0000 I-3.0000 J0.0000 F1140.00
G3 X50.5000 Y505.0462 Z-20.0000 I30.6148 J-47.2960 F1140.00
G1 X50.5000 Y368.0196 Z-20.0000 F1140.00
G3 X67.4675 Y349.8397 Z-20.0000 I24.3264 J5.6961 F1140.00
G2 X69.5000 Y347.0000 Z-20.0000 I-0.9675 J-2.8397 F1140.00
G1 X69.5000 Y0.0000 Z-20.0000 F1140.00
G2 X67.4087 Y-2.8591 Z-20.0000 I-3.0000 J-0.0000 F1140.00
G2 X65.9759 Y-2.9539 Z-20.0000 I-0.9087 J2.8591 F1140.00
G3 X13.0241 Y-2.9539 Z-20.0000 I-26.4759 J-139.5339 F1140.00
G2 X9.5000 Y0.0000 Z-20.0000 I-0.5241 J2.9539 F1140.00
G1 X9.5000 Y505.2956 Z-20.0000 F1140.00
G3 X-1.9395 Y517.9664 Z-20.0000 I-46.9376 J-30.8771 F1140.00
G2 X-3.0000 Y520.2551 Z-20.0000 I1.9395 J2.2887 F1140.00
G1 X-3.0000 Y522.8994 Z-20.0000 F1140.00
G1 X-2.9166 Y523.6018 Z-20.0000 F1140.00
G3 X13.4701 Y627.9029 Z-20.0000 I-597.3823 J147.2922 F1140.00
G2 X19.2928 Y628.6694 Z-20.0000 I2.9915 J-0.2257 F1140.00
G3 X59.1715 Y607.8441 Z-20.0000 I30.5132 J9.8355 F1140.00
G2 X61.0396 Y607.7749 Z-20.0000 I0.8285 J-2.8833 F1140.00
G0 Z5.0032
(finish operation: Contour001)
(begin postamble)
M5
G17 G90
; M2
