(Exported by FreeCAD)
(Post Processor: grbl_post)
(Output Time:2022-01-17 08:02:13.342524)
(begin preamble)
G17 G90
G21
(begin operation: T2: 1/4inENDMILL001)
(Path: T2: 1/4inENDMILL001)
(T2: 1/4inENDMILL001)
(begin toolchange)
; M6 T2
M3 S0.0000
(finish operation: T2: 1/4inENDMILL001)
(begin operation: Pocket_3D001)
(Path: Pocket_3D001)
(Pocket_3D001)
G0 Z5.0032
G0 X21.4622 Y610.4713
G0 Z3.0032
G1 X21.4622 Y610.4713 Z-0.9968 F1140.00
G2 X18.5984 Y614.0725 Z-0.9968 I26.8678 J24.3054 F1140.00
G2 X17.9334 Y606.9425 Z-0.9968 I-334.5377 J27.6065 F1140.00
G1 X21.4622 Y610.4713 Z-0.9968 F1140.00
G3 X25.8005 Y606.3244 Z-0.9968 I27.2462 J24.1615 F1140.00
G1 X16.9239 Y597.4478 Z-0.9968 F1140.00
G2 X15.7302 Y587.7688 Z-0.9968 I-454.0326 J51.0843 F1140.00
G1 X30.8365 Y602.8751 Z-0.9968 F1140.00
G3 X36.6119 Y600.1651 Z-0.9968 I18.2820 J31.4536 F1140.00
G1 X14.3716 Y577.9249 Z-0.9968 F1140.00
G2 X12.8024 Y567.8704 Z-0.9968 I-471.7734 J68.4799 F1140.00
G1 X43.2975 Y598.3655 Z-0.9968 F1140.00
G3 X51.2620 Y597.8448 Z-0.9968 I6.4057 J36.8056 F1140.00
G1 X11.0412 Y557.6240 Z-0.9968 F1140.00
G2 X9.0496 Y547.1471 Z-0.9968 I-491.6846 J88.0378 F1140.00
G1 X55.6454 Y593.7428 Z-0.9968 F1140.00
G3 X54.5325 Y584.1446 Z-0.9968 I222.9685 J-30.7168 F1140.00
G1 X6.8202 Y536.4324 Z-0.9968 F1140.00
G2 X4.3416 Y525.4685 Z-0.9968 I-479.7377 J102.6937 F1140.00
G1 X53.8083 Y574.9352 Z-0.9968 F1140.00
G3 X53.4289 Y566.0705 Z-0.9968 I193.6034 J-12.7278 F1140.00
G1 X6.1304 Y518.7720 Z-0.9968 F1140.00
G2 X10.2086 Y514.3649 Z-0.9968 I-39.0581 J-40.2330 F1140.00
G1 X53.3575 Y557.5138 Z-0.9968 F1140.00
G3 X53.5636 Y549.2347 Z-0.9968 I188.8032 J0.5581 F1140.00
G1 X17.3290 Y513.0000 Z-0.9968 F1140.00
G1 X25.8142 Y513.0000 Z-0.9968 F1140.00
G1 X54.0213 Y541.2071 Z-0.9968 F1140.00
G3 X54.7086 Y533.4091 Z-0.9968 I215.4372 J15.0591 F1140.00
G1 X34.2995 Y513.0000 Z-0.9968 F1140.00
G1 X42.7848 Y513.0000 Z-0.9968 F1140.00
G1 X55.6178 Y525.8330 Z-0.9968 F1140.00
G3 X56.7280 Y518.4579 Z-0.9968 I163.2706 J20.8056 F1140.00
G1 X56.7280 Y518.4579 Z-1.9968 F1140.00
G2 X55.6178 Y525.8330 Z-1.9968 I162.1605 J28.1808 F1140.00
G1 X42.7848 Y513.0000 Z-1.9968 F1140.00
G1 X34.2995 Y513.0000 Z-1.9968 F1140.00
G1 X54.7086 Y533.4091 Z-1.9968 F1140.00
G2 X54.0213 Y541.2071 Z-1.9968 I214.7499 J22.8571 F1140.00
G1 X25.8142 Y513.0000 Z-1.9968 F1140.00
G1 X17.3290 Y513.0000 Z-1.9968 F1140.00
G1 X53.5636 Y549.2347 Z-1.9968 F1140.00
G2 X53.3575 Y557.5138 Z-1.9968 I188.5971 J8.8372 F1140.00
G1 X10.2086 Y514.3649 Z-1.9968 F1140.00
G3 X6.1304 Y518.7720 Z-1.9968 I-43.1363 J-35.8259 F1140.00
G1 X53.4289 Y566.0705 Z-1.9968 F1140.00
G2 X53.8083 Y574.9352 Z-1.9968 I193.9828 J-3.8631 F1140.00
G1 X4.3418 Y525.4687 Z-1.9968 F1140.00
G3 X6.8205 Y536.4327 Z-1.9968 I-481.8085 J114.6873 F1140.00
G1 X54.5325 Y584.1446 Z-1.9968 F1140.00
G2 X55.6454 Y593.7428 Z-1.9968 I224.0814 J-21.1186 F1140.00
G1 X9.0493 Y547.1467 Z-1.9968 F1140.00
G3 X11.0423 Y557.6251 Z-1.9968 I-492.4524 J99.0978 F1140.00
G1 X51.2619 Y597.8446 Z-1.9968 F1140.00
G2 X43.3006 Y598.3686 Z-1.9968 I-1.5635 J36.9861 F1140.00
G1 X12.8023 Y567.8703 Z-1.9968 F1140.00
G3 X14.3727 Y577.9260 Z-1.9968 I-404.1214 J68.2606 F1140.00
G1 X36.6151 Y600.1684 Z-1.9968 F1140.00
G2 X30.8356 Y602.8742 Z-1.9968 I12.3166 J33.8344 F1140.00
G1 X15.7302 Y587.7688 Z-1.9968 F1140.00
G3 X16.9264 Y597.4502 Z-1.9968 I-455.4757 J61.1887 F1140.00
G1 X25.8057 Y606.3295 Z-1.9968 F1140.00
G2 X24.0642 Y607.8246 Z-1.9968 I16.9467 J21.5018 F1140.00
G1 X18.8155 Y607.8246 Z-1.9968 F1140.00
G1 X18.0198 Y607.8246 Z-1.9968 F1140.00
G1 X17.9329 Y606.9420 Z-1.9968 F1140.00
G1 X18.8155 Y607.8246 Z-1.9968 F1140.00
G0 X18.8155 Y607.8246 Z5.0032
G0 X16.9240 Y597.4479 Z5.0032
G0 X16.9240 Y597.4479 Z0.0063
G1 X16.9240 Y597.4479 Z-2.9968 F1140.00
G1 X17.2832 Y600.7093 Z-2.9968 F1140.00
G1 X20.1854 Y600.7093 Z-2.9968 F1140.00
G1 X16.9240 Y597.4479 Z-2.9968 F1140.00
G2 X15.7307 Y587.7692 Z-2.9968 I-363.9491 J39.9620 F1140.00
G1 X28.6707 Y600.7093 Z-2.9968 F1140.00
G1 X35.2379 Y600.7093 Z-2.9968 F1140.00
G3 X36.6140 Y600.1673 Z-2.9968 I6.8830 J15.4584 F1140.00
G1 X14.3704 Y577.9237 Z-2.9968 F1140.00
G2 X12.8024 Y567.8704 Z-2.9968 I-369.1687 J52.4286 F1140.00
G1 X43.2994 Y598.3674 Z-2.9968 F1140.00
G3 X51.2620 Y597.8447 Z-2.9968 I6.4007 J36.5920 F1140.00
G1 X11.0438 Y557.6266 Z-2.9968 F1140.00
G2 X9.0489 Y547.1463 Z-2.9968 I-497.8744 J89.3430 F1140.00
G1 X55.6454 Y593.7428 Z-2.9968 F1140.00
G3 X54.5325 Y584.1446 Z-2.9968 I222.9685 J-30.7168 F1140.00
G1 X6.8209 Y536.4330 Z-2.9968 F1140.00
G2 X4.3421 Y525.4690 Z-2.9968 I-490.0163 J105.0208 F1140.00
G1 X53.8083 Y574.9352 Z-2.9968 F1140.00
G3 X53.4289 Y566.0705 Z-2.9968 I193.6034 J-12.7278 F1140.00
G1 X6.1304 Y518.7720 Z-2.9968 F1140.00
G2 X10.2086 Y514.3649 Z-2.9968 I-39.0581 J-40.2330 F1140.00
G1 X53.3575 Y557.5138 Z-2.9968 F1140.00
G3 X53.5636 Y549.2347 Z-2.9968 I188.8032 J0.5581 F1140.00
G1 X17.3290 Y513.0000 Z-2.9968 F1140.00
G1 X25.8142 Y513.0000 Z-2.9968 F1140.00
G1 X54.0213 Y541.2071 Z-2.9968 F1140.00
G3 X54.7086 Y533.4091 Z-2.9968 I215.4372 J15.0591 F1140.00
G1 X34.2995 Y513.0000 Z-2.9968 F1140.00
G1 X42.7848 Y513.0000 Z-2.9968 F1140.00
G1 X55.6178 Y525.8330 Z-2.9968 F1140.00
G3 X56.7280 Y518.4579 Z-2.9968 I163.2706 J20.8056 F1140.00
G0 X56.7280 Y518.4579 Z5.0032
G0 X56.7285 Y518.4583 Z5.0032
G0 X56.7285 Y518.4583 Z-0.9937
G1 X56.7285 Y518.4583 Z-3.9968 F1140.00
G2 X55.6162 Y525.8312 Z-3.9968 I158.7513 J27.7211 F1140.00
G1 X42.7850 Y513.0000 Z-3.9968 F1140.00
G1 X34.2997 Y513.0000 Z-3.9968 F1140.00
G1 X54.7124 Y533.4127 Z-3.9968 F1140.00
G2 X54.0239 Y541.2094 Z-3.9968 I188.6266 J20.5870 F1140.00
G1 X25.8144 Y513.0000 Z-3.9968 F1140.00
G1 X17.3291 Y513.0000 Z-3.9968 F1140.00
G1 X53.5634 Y549.2342 Z-3.9968 F1140.00
G2 X53.3538 Y557.5099 Z-3.9968 I169.9153 J8.4441 F1140.00
G1 X10.2087 Y514.3648 Z-3.9968 F1140.00
G3 X6.1305 Y518.7719 Z-3.9968 I-43.1362 J-35.8257 F1140.00
G1 X53.4220 Y566.0634 Z-3.9968 F1140.00
G2 X53.8002 Y574.9269 Z-3.9968 I183.1573 J-3.3756 F1140.00
G1 X4.3424 Y525.4691 Z-3.9968 F1140.00
G3 X6.8213 Y536.4333 Z-3.9968 I-494.7052 J117.6096 F1140.00
G1 X54.5271 Y584.1391 Z-3.9968 F1140.00
G2 X55.6325 Y593.6254 Z-3.9968 I184.8118 J-16.7290 F1140.00
G1 X55.5280 Y593.6253 Z-3.9968 F1140.00
G1 X9.0484 Y547.1457 Z-3.9968 F1140.00
G3 X11.0458 Y557.6283 Z-3.9968 I-500.1076 J100.7204 F1140.00
G1 X47.0363 Y593.6189 Z-3.9968 F1140.00
G1 X38.5447 Y593.6125 Z-3.9968 F1140.00
G1 X12.8028 Y567.8707 Z-3.9968 F1140.00
G3 X14.3680 Y577.9212 Z-3.9968 I-374.4250 J63.4581 F1140.00
G1 X30.0530 Y593.6061 Z-3.9968 F1140.00
G1 X21.5613 Y593.5997 Z-3.9968 F1140.00
G1 X16.4640 Y593.5959 Z-3.9968 F1140.00
G2 X15.7317 Y587.7701 Z-3.9968 I-279.2425 J32.1401 F1140.00
G1 X21.5613 Y593.5997 Z-3.9968 F1140.00
G0 X21.5613 Y593.5997 Z5.0032
G0 X14.3659 Y577.9192 Z5.0032
G0 X14.3659 Y577.9192 Z-1.9937
G1 X14.3659 Y577.9192 Z-4.9968 F1140.00
G3 X15.5614 Y586.4818 Z-4.9968 I-412.9962 J62.0245 F1140.00
G1 X22.9376 Y586.4909 Z-4.9968 F1140.00
G1 X14.3659 Y577.9192 Z-4.9968 F1140.00
G2 X12.8038 Y567.8718 Z-4.9968 I-390.1609 J55.5144 F1140.00
G1 X31.4335 Y586.5015 Z-4.9968 F1140.00
G1 X39.9293 Y586.5120 Z-4.9968 F1140.00
G1 X11.0445 Y557.6273 Z-4.9968 F1140.00
G2 X9.0482 Y547.1457 Z-4.9968 I-380.9240 J67.1203 F1140.00
G1 X48.4251 Y586.5226 Z-4.9968 F1140.00
G1 X54.7735 Y586.5305 Z-4.9968 F1140.00
G3 X54.5323 Y584.1444 Z-4.9968 I70.3650 J-8.3186 F1140.00
G1 X6.8220 Y536.4341 Z-4.9968 F1140.00
G2 X4.3429 Y525.4698 Z-4.9968 I-506.2825 J108.7088 F1140.00
G1 X53.8083 Y574.9352 Z-4.9968 F1140.00
G3 X53.4289 Y566.0705 Z-4.9968 I194.4030 J-12.7611 F1140.00
G1 X6.1304 Y518.7720 Z-4.9968 F1140.00
G2 X10.2086 Y514.3649 Z-4.9968 I-39.0581 J-40.2330 F1140.00
G1 X53.3575 Y557.5138 Z-4.9968 F1140.00
G3 X53.5636 Y549.2346 Z-4.9968 I189.4655 J0.5735 F1140.00
G1 X17.3290 Y513.0000 Z-4.9968 F1140.00
G1 X25.8142 Y513.0000 Z-4.9968 F1140.00
G1 X54.0212 Y541.2070 Z-4.9968 F1140.00
G3 X54.7085 Y533.4090 Z-4.9968 I216.2637 J15.1317 F1140.00
G1 X34.2995 Y513.0000 Z-4.9968 F1140.00
G1 X42.7848 Y513.0000 Z-4.9968 F1140.00
G1 X55.6178 Y525.8330 Z-4.9968 F1140.00
G3 X56.7280 Y518.4579 Z-4.9968 I163.3939 J20.8229 F1140.00
G0 X56.7280 Y518.4579 Z5.0032
G0 X56.7283 Y518.4581 Z5.0032
G0 X56.7283 Y518.4581 Z-2.9937
G1 X56.7283 Y518.4581 Z-5.9968 F1140.00
G2 X55.6169 Y525.8320 Z-5.9968 I159.7208 J27.8430 F1140.00
G1 X42.7849 Y513.0000 Z-5.9968 F1140.00
G1 X34.2996 Y513.0000 Z-5.9968 F1140.00
G1 X54.7109 Y533.4113 Z-5.9968 F1140.00
G2 X54.0231 Y541.2088 Z-5.9968 I198.2639 J21.4181 F1140.00
G1 X25.8143 Y513.0000 Z-5.9968 F1140.00
G1 X17.3291 Y513.0000 Z-5.9968 F1140.00
G1 X53.5641 Y549.2351 Z-5.9968 F1140.00
G2 X53.3564 Y557.5127 Z-5.9968 I175.9454 J8.5561 F1140.00
G1 X10.2086 Y514.3648 Z-5.9968 F1140.00
G3 X6.1305 Y518.7720 Z-5.9968 I-43.1363 J-35.8258 F1140.00
G1 X53.4265 Y566.0680 Z-5.9968 F1140.00
G2 X53.8060 Y574.9328 Z-5.9968 I179.8365 J-3.2573 F1140.00
G1 X4.3434 Y525.4702 Z-5.9968 F1140.00
G3 X6.8228 Y536.4348 Z-5.9968 I-515.4898 J122.3268 F1140.00
G1 X49.7659 Y579.3780 Z-5.9968 F1140.00
G2 X48.8749 Y579.6057 Z-5.9968 I0.2307 J2.7589 F1140.00
G2 X47.7043 Y579.3632 Z-5.9968 I-1.1577 J2.6411 F1140.00
G1 X41.2658 Y579.3632 Z-5.9968 F1140.00
G1 X9.0480 Y547.1454 Z-5.9968 F1140.00
G3 X11.0420 Y557.6247 Z-5.9968 I-381.3893 J77.9996 F1140.00
G1 X32.7805 Y579.3632 Z-5.9968 F1140.00
G1 X24.2953 Y579.3632 Z-5.9968 F1140.00
G1 X12.8056 Y567.8735 Z-5.9968 F1140.00
G3 X14.3643 Y577.9175 Z-5.9968 I-411.5046 J69.0014 F1140.00
G1 X14.5745 Y579.3632 Z-5.9968 F1140.00
G1 X15.8100 Y579.3632 Z-5.9968 F1140.00
G1 X14.3643 Y577.9175 Z-5.9968 F1140.00
G0 X14.3643 Y577.9175 Z5.0032
G0 X17.1864 Y572.2545 Z5.0032
G0 X17.1864 Y572.2545 Z-3.9937
G1 X17.1864 Y572.2545 Z-6.9968 F1140.00
G1 X13.5029 Y572.2506 Z-6.9968 F1140.00
G1 X12.8127 Y567.8808 Z-6.9968 F1140.00
G1 X17.1864 Y572.2545 Z-6.9968 F1140.00
G1 X25.6809 Y572.2637 Z-6.9968 F1140.00
G1 X11.0341 Y557.6169 Z-6.9968 F1140.00
G2 X9.0576 Y547.1551 Z-6.9968 I-462.9690 J82.0490 F1140.00
G1 X34.1753 Y572.2729 Z-6.9968 F1140.00
G1 X42.6698 Y572.2821 Z-6.9968 F1140.00
G1 X6.8183 Y536.4306 Z-6.9968 F1140.00
G2 X4.3389 Y525.4660 Z-6.9968 I-435.2490 J92.6581 F1140.00
G1 X51.1643 Y572.2913 Z-6.9968 F1140.00
G1 X53.6599 Y572.2940 Z-6.9968 F1140.00
G3 X53.4258 Y566.0675 Z-6.9968 I159.9692 J-9.1332 F1140.00
G1 X6.1304 Y518.7721 Z-6.9968 F1140.00
G2 X10.2085 Y514.3650 Z-6.9968 I-39.0582 J-40.2332 F1140.00
G1 X53.3550 Y557.5114 Z-6.9968 F1140.00
G3 X53.5607 Y549.2319 Z-6.9968 I212.0231 J1.1264 F1140.00
G1 X17.3288 Y513.0000 Z-6.9968 F1140.00
G1 X25.8141 Y513.0000 Z-6.9968 F1140.00
G1 X54.0180 Y541.2039 Z-6.9968 F1140.00
G3 X54.7074 Y533.4080 Z-6.9968 I234.4899 J16.8080 F1140.00
G1 X34.2994 Y513.0000 Z-6.9968 F1140.00
G1 X42.7847 Y513.0000 Z-6.9968 F1140.00
G1 X55.6186 Y525.8340 Z-6.9968 F1140.00
G3 X56.7276 Y518.4576 Z-6.9968 I167.0867 J21.3483 F1140.00
G0 X56.7276 Y518.4576 Z5.0032
G0 X56.7279 Y518.4579 Z5.0032
G0 X56.7279 Y518.4579 Z-4.9937
G1 X56.7279 Y518.4579 Z-7.9968 F1140.00
G2 X55.6179 Y525.8331 Z-7.9968 I162.3909 J28.2132 F1140.00
G1 X42.7848 Y513.0000 Z-7.9968 F1140.00
G1 X34.2995 Y513.0000 Z-7.9968 F1140.00
G1 X54.7084 Y533.4089 Z-7.9968 F1140.00
G2 X54.0211 Y541.2069 Z-7.9968 I216.2749 J22.9910 F1140.00
G1 X25.8142 Y513.0000 Z-7.9968 F1140.00
G1 X17.3289 Y513.0000 Z-7.9968 F1140.00
G1 X53.5635 Y549.2346 Z-7.9968 F1140.00
G2 X53.3575 Y557.5138 Z-7.9968 I189.8220 J8.8660 F1140.00
G1 X10.2086 Y514.3649 Z-7.9968 F1140.00
G3 X6.1304 Y518.7720 Z-7.9968 I-43.1363 J-35.8259 F1140.00
G1 X52.5182 Y565.1598 Z-7.9968 F1140.00
G1 X44.0275 Y565.1544 Z-7.9968 F1140.00
G1 X4.3391 Y525.4660 Z-7.9968 F1140.00
G3 X6.8184 Y536.4305 Z-7.9968 I-435.5915 J104.2572 F1140.00
G1 X35.5367 Y565.1489 Z-7.9968 F1140.00
G1 X27.0460 Y565.1435 Z-7.9968 F1140.00
G1 X9.0568 Y547.1542 Z-7.9968 F1140.00
G3 X11.0342 Y557.6170 Z-7.9968 I-462.9153 J92.9094 F1140.00
G1 X18.5553 Y565.1380 Z-7.9968 F1140.00
G1 X12.3476 Y565.1340 Z-7.9968 F1140.00
G2 X11.0342 Y557.6170 Z-7.9968 I-334.1421 J54.5086 F1140.00
G0 X11.0342 Y557.6170 Z5.0032
G0 X11.0345 Y557.6171 Z5.0032
G0 X11.0345 Y557.6171 Z-5.9937
G1 X11.0345 Y557.6171 Z-8.9968 F1140.00
G1 X11.1073 Y558.0173 Z-8.9968 F1140.00
G1 X11.4348 Y558.0174 Z-8.9968 F1140.00
G1 X11.0345 Y557.6171 Z-8.9968 F1140.00
G2 X9.0557 Y547.1530 Z-8.9968 I-467.5355 J82.9938 F1140.00
G1 X19.9211 Y558.0184 Z-8.9968 F1140.00
G1 X28.4074 Y558.0194 Z-8.9968 F1140.00
G1 X6.8184 Y536.4304 Z-8.9968 F1140.00
G2 X4.3393 Y525.4660 Z-8.9968 I-441.9875 J94.1740 F1140.00
G1 X36.8937 Y558.0204 Z-8.9968 F1140.00
G1 X45.3799 Y558.0214 Z-8.9968 F1140.00
G1 X6.1305 Y518.7719 Z-8.9968 F1140.00
G2 X10.2086 Y514.3648 Z-8.9968 I-39.0581 J-40.2329 F1140.00
G1 X53.3548 Y557.5110 Z-8.9968 F1140.00
G3 X53.5637 Y549.2346 Z-8.9968 I171.7219 J0.1936 F1140.00
G1 X17.3291 Y513.0000 Z-8.9968 F1140.00
G1 X25.8144 Y513.0000 Z-8.9968 F1140.00
G1 X54.0237 Y541.2093 Z-8.9968 F1140.00
G3 X54.7119 Y533.4123 Z-8.9968 I192.3173 J13.0479 F1140.00
G1 X34.2997 Y513.0000 Z-8.9968 F1140.00
G1 X42.7850 Y513.0000 Z-8.9968 F1140.00
G1 X55.6164 Y525.8315 Z-8.9968 F1140.00
G3 X56.7284 Y518.4582 Z-8.9968 I160.0696 J20.3707 F1140.00
G0 X56.7284 Y518.4582 Z5.0032
G0 X56.7274 Y518.4575 Z5.0032
G0 X56.7274 Y518.4575 Z-6.9937
G1 X56.7274 Y518.4575 Z-9.9968 F1140.00
G2 X55.6190 Y525.8344 Z-9.9968 I168.3082 J29.0609 F1140.00
G1 X42.7846 Y513.0000 Z-9.9968 F1140.00
G1 X34.2993 Y513.0000 Z-9.9968 F1140.00
G1 X54.7089 Y533.4096 Z-9.9968 F1140.00
G2 X54.0156 Y541.2016 Z-9.9968 I236.9778 J25.0120 F1140.00
G1 X25.8140 Y513.0000 Z-9.9968 F1140.00
G1 X17.3288 Y513.0000 Z-9.9968 F1140.00
G1 X53.5581 Y549.2293 Z-9.9968 F1140.00
G2 X53.4984 Y550.9017 Z-9.9968 I51.7347 J2.6826 F1140.00
G1 X46.7452 Y550.9017 Z-9.9968 F1140.00
G1 X10.2085 Y514.3650 Z-9.9968 F1140.00
G3 X6.1303 Y518.7721 Z-9.9968 I-43.1363 J-35.8261 F1140.00
G1 X38.2599 Y550.9017 Z-9.9968 F1140.00
G1 X29.7746 Y550.9017 Z-9.9968 F1140.00
G1 X4.3398 Y525.4669 Z-9.9968 F1140.00
G3 X6.8187 Y536.4311 Z-9.9968 I-445.4916 J106.4849 F1140.00
G1 X21.2893 Y550.9017 Z-9.9968 F1140.00
G1 X12.8040 Y550.9017 Z-9.9968 F1140.00
G1 X9.0544 Y547.1521 Z-9.9968 F1140.00
G1 X9.7817 Y550.9017 Z-9.9968 F1140.00
G1 X12.8040 Y550.9017 Z-9.9968 F1140.00
G0 X12.8040 Y550.9017 Z5.0032
G0 X6.8191 Y536.4313 Z5.0032
G0 X6.8191 Y536.4313 Z-7.9937
G1 X6.8191 Y536.4313 Z-10.9968 F1140.00
G3 X8.3702 Y543.7863 Z-10.9968 I-334.4816 J74.3802 F1140.00
G1 X14.1741 Y543.7863 Z-10.9968 F1140.00
G1 X6.8191 Y536.4313 Z-10.9968 F1140.00
G2 X4.3403 Y525.4672 Z-10.9968 I-457.7275 J97.7205 F1140.00
G1 X22.6594 Y543.7863 Z-10.9968 F1140.00
G1 X31.1447 Y543.7863 Z-10.9968 F1140.00
G1 X6.1304 Y518.7720 Z-10.9968 F1140.00
G2 X10.2086 Y514.3649 Z-10.9968 I-39.0582 J-40.2331 F1140.00
G1 X39.6300 Y543.7863 Z-10.9968 F1140.00
G1 X48.1153 Y543.7863 Z-10.9968 F1140.00
G1 X17.3289 Y513.0000 Z-10.9968 F1140.00
G1 X25.8142 Y513.0000 Z-10.9968 F1140.00
G1 X54.0212 Y541.2069 Z-10.9968 F1140.00
G3 X54.7084 Y533.4089 Z-10.9968 I216.8698 J15.1849 F1140.00
G1 X34.2995 Y513.0000 Z-10.9968 F1140.00
G1 X42.7848 Y513.0000 Z-10.9968 F1140.00
G1 X55.6179 Y525.8331 Z-10.9968 F1140.00
G3 X56.7279 Y518.4579 Z-10.9968 I163.4848 J20.8357 F1140.00
G0 X56.7279 Y518.4579 Z5.0032
G0 X56.7263 Y518.4567 Z5.0032
G0 X56.7263 Y518.4567 Z-8.9937
G1 X56.7263 Y518.4567 Z-11.9968 F1140.00
G2 X55.6195 Y525.8353 Z-11.9968 I183.4485 J31.2886 F1140.00
G1 X42.7843 Y513.0000 Z-11.9968 F1140.00
G1 X34.2990 Y513.0000 Z-11.9968 F1140.00
G1 X54.7129 Y533.4139 Z-11.9968 F1140.00
G2 X54.3930 Y536.6709 Z-11.9968 I107.8024 J12.2315 F1140.00
G1 X49.4846 Y536.6709 Z-11.9968 F1140.00
G1 X25.8137 Y513.0000 Z-11.9968 F1140.00
G1 X17.3284 Y513.0000 Z-11.9968 F1140.00
G1 X40.9993 Y536.6709 Z-11.9968 F1140.00
G1 X32.5141 Y536.6709 Z-11.9968 F1140.00
G1 X10.2083 Y514.3652 Z-11.9968 F1140.00
G3 X6.1301 Y518.7723 Z-11.9968 I-43.1365 J-35.8266 F1140.00
G1 X24.0288 Y536.6709 Z-11.9968 F1140.00
G1 X15.5435 Y536.6709 Z-11.9968 F1140.00
G1 X4.3407 Y525.4681 Z-11.9968 F1140.00
G3 X6.8248 Y536.4376 Z-11.9968 I-473.5441 J113.0062 F1140.00
G1 X6.8754 Y536.6709 Z-11.9968 F1140.00
G1 X7.0582 Y536.6709 Z-11.9968 F1140.00
G1 X6.8248 Y536.4376 Z-11.9968 F1140.00
G0 X6.8248 Y536.4376 Z5.0032
G0 X8.4283 Y529.5556 Z5.0032
G0 X8.4283 Y529.5556 Z-9.9937
G1 X8.4283 Y529.5556 Z-12.9968 F1140.00
G1 X5.2933 Y529.5556 Z-12.9968 F1140.00
G2 X4.3445 Y525.4718 Z-12.9968 I-376.7563 J85.3866 F1140.00
G1 X8.4283 Y529.5556 Z-12.9968 F1140.00
G1 X16.9135 Y529.5556 Z-12.9968 F1140.00
G1 X6.1302 Y518.7722 Z-12.9968 F1140.00
G2 X10.2084 Y514.3651 Z-12.9968 I-39.0582 J-40.2335 F1140.00
G1 X25.3988 Y529.5556 Z-12.9968 F1140.00
G1 X33.8841 Y529.5556 Z-12.9968 F1140.00
G1 X17.3285 Y513.0000 Z-12.9968 F1140.00
G1 X25.8138 Y513.0000 Z-12.9968 F1140.00
G1 X42.3694 Y529.5556 Z-12.9968 F1140.00
G1 X50.8547 Y529.5556 Z-12.9968 F1140.00
G1 X34.2991 Y513.0000 Z-12.9968 F1140.00
G1 X42.7844 Y513.0000 Z-12.9968 F1140.00
G1 X55.6196 Y525.8352 Z-12.9968 F1140.00
G3 X56.7267 Y518.4570 Z-12.9968 I178.6272 J23.0308 F1140.00
G0 X56.7267 Y518.4570 Z5.0032
G0 X56.7204 Y518.4528 Z5.0032
G0 X56.7204 Y518.4528 Z-10.9937
G1 X56.7204 Y518.4528 Z-13.9968 F1140.00
G2 X56.0954 Y522.4402 Z-13.9968 I217.1313 J36.0730 F1140.00
G1 X52.2225 Y522.4402 Z-13.9968 F1140.00
G1 X42.7823 Y513.0000 Z-13.9968 F1140.00
G1 X34.2970 Y513.0000 Z-13.9968 F1140.00
G1 X43.7373 Y522.4402 Z-13.9968 F1140.00
G1 X35.2520 Y522.4402 Z-13.9968 F1140.00
G1 X25.8118 Y513.0000 Z-13.9968 F1140.00
G1 X17.3265 Y513.0000 Z-13.9968 F1140.00
G1 X26.7667 Y522.4402 Z-13.9968 F1140.00
G1 X18.2814 Y522.4402 Z-13.9968 F1140.00
G1 X10.2075 Y514.3662 Z-13.9968 F1140.00
G3 X6.1292 Y518.7732 Z-13.9968 I-43.1371 J-35.8290 F1140.00
G3 X3.3551 Y521.3442 Z-13.9968 I-35.1283 J-35.1219 F1140.00
G3 X3.6209 Y522.4402 Z-13.9968 I-254.8093 J62.3676 F1140.00
G1 X9.7961 Y522.4402 Z-13.9968 F1140.00
G1 X6.1292 Y518.7732 Z-13.9968 F1140.00
G0 X6.1292 Y518.7732 Z5.0032
G0 X10.1754 Y515.3248 Z5.0032
G0 X10.1754 Y515.3248 Z-11.9937
G1 X10.1754 Y515.3248 Z-14.9968 F1140.00
G1 X9.7540 Y514.9034 Z-14.9968 F1140.00
G1 X9.3852 Y515.3248 Z-14.9968 F1140.00
G1 X10.1754 Y515.3248 Z-14.9968 F1140.00
G1 X18.6607 Y515.3248 Z-14.9968 F1140.00
G1 X16.3359 Y513.0000 Z-14.9968 F1140.00
G1 X24.8212 Y513.0000 Z-14.9968 F1140.00
G1 X27.1460 Y515.3248 Z-14.9968 F1140.00
G1 X35.6313 Y515.3248 Z-14.9968 F1140.00
G1 X33.3065 Y513.0000 Z-14.9968 F1140.00
G1 X41.7917 Y513.0000 Z-14.9968 F1140.00
G1 X44.1166 Y515.3248 Z-14.9968 F1140.00
G1 X52.6018 Y515.3248 Z-14.9968 F1140.00
G0 Z5.0032
(finish operation: Pocket_3D001)
(begin postamble)
M5
G17 G90
; M2
