(Exported by FreeCAD)
(Post Processor: grbl_post)
(Output Time:2022-01-17 08:03:50.491322)
(begin preamble)
G17 G90
G21
(begin operation: T2: 1/4inENDMILL001)
(Path: T2: 1/4inENDMILL001)
(T2: 1/4inENDMILL001)
(begin toolchange)
; M6 T2
M3 S0.0000
(finish operation: T2: 1/4inENDMILL001)
(begin operation: MillFace)
(Path: MillFace)
(MillFace)
G0 Z5.0032
G0 X63.5000 Y507.0000
G0 Z3.0032
G1 X63.5000 Y507.0000 Z-0.9968 F1140.00
G1 X55.8632 Y507.0000 Z-0.9968 F1140.00
G1 X63.5000 Y499.3632 Z-0.9968 F1140.00
G1 X63.5000 Y491.7265 Z-0.9968 F1140.00
G1 X48.2265 Y507.0000 Z-0.9968 F1140.00
G1 X40.5897 Y507.0000 Z-0.9968 F1140.00
G1 X63.5000 Y484.0897 Z-0.9968 F1140.00
G1 X63.5000 Y476.4530 Z-0.9968 F1140.00
G1 X32.9530 Y507.0000 Z-0.9968 F1140.00
G1 X25.3162 Y507.0000 Z-0.9968 F1140.00
G1 X63.5000 Y468.8162 Z-0.9968 F1140.00
G1 X63.5000 Y461.1795 Z-0.9968 F1140.00
G1 X17.6795 Y507.0000 Z-0.9968 F1140.00
G1 X15.5000 Y507.0000 Z-0.9968 F1140.00
G1 X15.5000 Y501.5427 Z-0.9968 F1140.00
G1 X63.5000 Y453.5427 Z-0.9968 F1140.00
G1 X63.5000 Y445.9060 Z-0.9968 F1140.00
G1 X15.5000 Y493.9060 Z-0.9968 F1140.00
G1 X15.5000 Y486.2692 Z-0.9968 F1140.00
G1 X63.5000 Y438.2692 Z-0.9968 F1140.00
G1 X63.5000 Y430.6325 Z-0.9968 F1140.00
G1 X15.5000 Y478.6325 Z-0.9968 F1140.00
G1 X15.5000 Y470.9957 Z-0.9968 F1140.00
G1 X63.5000 Y422.9957 Z-0.9968 F1140.00
G1 X63.5000 Y415.3590 Z-0.9968 F1140.00
G1 X15.5000 Y463.3590 Z-0.9968 F1140.00
G1 X15.5000 Y455.7222 Z-0.9968 F1140.00
G1 X63.5000 Y407.7222 Z-0.9968 F1140.00
G1 X63.5000 Y400.0855 Z-0.9968 F1140.00
G1 X15.5000 Y448.0855 Z-0.9968 F1140.00
G1 X15.5000 Y440.4487 Z-0.9968 F1140.00
G1 X63.5000 Y392.4487 Z-0.9968 F1140.00
G1 X63.5000 Y384.8119 Z-0.9968 F1140.00
G1 X15.5000 Y432.8119 Z-0.9968 F1140.00
G1 X15.5000 Y425.1752 Z-0.9968 F1140.00
G1 X63.5000 Y377.1752 Z-0.9968 F1140.00
G1 X63.5000 Y369.5384 Z-0.9968 F1140.00
G1 X15.5000 Y417.5384 Z-0.9968 F1140.00
G1 X15.5000 Y409.9017 Z-0.9968 F1140.00
G1 X63.5000 Y361.9017 Z-0.9968 F1140.00
G1 X63.5000 Y354.2649 Z-0.9968 F1140.00
G1 X15.5000 Y402.2649 Z-0.9968 F1140.00
G1 X15.5000 Y394.6282 Z-0.9968 F1140.00
G1 X63.5000 Y346.6282 Z-0.9968 F1140.00
G1 X63.5000 Y338.9914 Z-0.9968 F1140.00
G1 X15.5000 Y386.9914 Z-0.9968 F1140.00
G1 X15.5000 Y379.3547 Z-0.9968 F1140.00
G1 X63.5000 Y331.3547 Z-0.9968 F1140.00
G1 X63.5000 Y323.7179 Z-0.9968 F1140.00
G1 X15.5000 Y371.7179 Z-0.9968 F1140.00
G1 X15.5000 Y364.0812 Z-0.9968 F1140.00
G1 X63.5000 Y316.0812 Z-0.9968 F1140.00
G1 X63.5000 Y308.4444 Z-0.9968 F1140.00
G1 X15.5000 Y356.4444 Z-0.9968 F1140.00
G1 X15.5000 Y348.8077 Z-0.9968 F1140.00
G1 X63.5000 Y300.8077 Z-0.9968 F1140.00
G1 X63.5000 Y293.1709 Z-0.9968 F1140.00
G1 X15.5000 Y341.1709 Z-0.9968 F1140.00
G1 X15.5000 Y333.5342 Z-0.9968 F1140.00
G1 X63.5000 Y285.5342 Z-0.9968 F1140.00
G1 X63.5000 Y277.8974 Z-0.9968 F1140.00
G1 X15.5000 Y325.8974 Z-0.9968 F1140.00
G1 X15.5000 Y318.2606 Z-0.9968 F1140.00
G1 X63.5000 Y270.2606 Z-0.9968 F1140.00
G1 X63.5000 Y262.6239 Z-0.9968 F1140.00
G1 X15.5000 Y310.6239 Z-0.9968 F1140.00
G1 X15.5000 Y302.9871 Z-0.9968 F1140.00
G1 X63.5000 Y254.9871 Z-0.9968 F1140.00
G1 X63.5000 Y247.3504 Z-0.9968 F1140.00
G1 X15.5000 Y295.3504 Z-0.9968 F1140.00
G1 X15.5000 Y287.7136 Z-0.9968 F1140.00
G1 X63.5000 Y239.7136 Z-0.9968 F1140.00
G1 X63.5000 Y232.0769 Z-0.9968 F1140.00
G1 X15.5000 Y280.0769 Z-0.9968 F1140.00
G1 X15.5000 Y272.4401 Z-0.9968 F1140.00
G1 X63.5000 Y224.4401 Z-0.9968 F1140.00
G1 X63.5000 Y216.8034 Z-0.9968 F1140.00
G1 X15.5000 Y264.8034 Z-0.9968 F1140.00
G1 X15.5000 Y257.1666 Z-0.9968 F1140.00
G1 X63.5000 Y209.1666 Z-0.9968 F1140.00
G1 X63.5000 Y201.5299 Z-0.9968 F1140.00
G1 X15.5000 Y249.5299 Z-0.9968 F1140.00
G1 X15.5000 Y241.8931 Z-0.9968 F1140.00
G1 X63.5000 Y193.8931 Z-0.9968 F1140.00
G1 X63.5000 Y186.2564 Z-0.9968 F1140.00
G1 X15.5000 Y234.2564 Z-0.9968 F1140.00
G1 X15.5000 Y226.6196 Z-0.9968 F1140.00
G1 X63.5000 Y178.6196 Z-0.9968 F1140.00
G1 X63.5000 Y170.9829 Z-0.9968 F1140.00
G1 X15.5000 Y218.9829 Z-0.9968 F1140.00
G1 X15.5000 Y211.3461 Z-0.9968 F1140.00
G1 X63.5000 Y163.3461 Z-0.9968 F1140.00
G1 X63.5000 Y155.7094 Z-0.9968 F1140.00
G1 X15.5000 Y203.7094 Z-0.9968 F1140.00
G1 X15.5000 Y196.0726 Z-0.9968 F1140.00
G1 X63.5000 Y148.0726 Z-0.9968 F1140.00
G1 X63.5000 Y140.4358 Z-0.9968 F1140.00
G1 X15.5000 Y188.4358 Z-0.9968 F1140.00
G1 X15.5000 Y180.7991 Z-0.9968 F1140.00
G1 X63.5000 Y132.7991 Z-0.9968 F1140.00
G1 X63.5000 Y125.1623 Z-0.9968 F1140.00
G1 X15.5000 Y173.1623 Z-0.9968 F1140.00
G1 X15.5000 Y165.5256 Z-0.9968 F1140.00
G1 X63.5000 Y117.5256 Z-0.9968 F1140.00
G1 X63.5000 Y109.8888 Z-0.9968 F1140.00
G1 X15.5000 Y157.8888 Z-0.9968 F1140.00
G1 X15.5000 Y150.2521 Z-0.9968 F1140.00
G1 X63.5000 Y102.2521 Z-0.9968 F1140.00
G1 X63.5000 Y94.6153 Z-0.9968 F1140.00
G1 X15.5000 Y142.6153 Z-0.9968 F1140.00
G1 X15.5000 Y134.9786 Z-0.9968 F1140.00
G1 X63.5000 Y86.9786 Z-0.9968 F1140.00
G1 X63.5000 Y79.3418 Z-0.9968 F1140.00
G1 X15.5000 Y127.3418 Z-0.9968 F1140.00
G1 X15.5000 Y119.7051 Z-0.9968 F1140.00
G1 X63.5000 Y71.7051 Z-0.9968 F1140.00
G1 X63.5000 Y64.0683 Z-0.9968 F1140.00
G1 X15.5000 Y112.0683 Z-0.9968 F1140.00
G1 X15.5000 Y104.4316 Z-0.9968 F1140.00
G1 X63.5000 Y56.4316 Z-0.9968 F1140.00
G1 X63.5000 Y48.7948 Z-0.9968 F1140.00
G1 X15.5000 Y96.7948 Z-0.9968 F1140.00
G1 X15.5000 Y89.1581 Z-0.9968 F1140.00
G1 X63.5000 Y41.1581 Z-0.9968 F1140.00
G1 X63.5000 Y33.5213 Z-0.9968 F1140.00
G1 X15.5000 Y81.5213 Z-0.9968 F1140.00
G1 X15.5000 Y73.8845 Z-0.9968 F1140.00
G1 X63.5000 Y25.8845 Z-0.9968 F1140.00
G1 X63.5000 Y18.2478 Z-0.9968 F1140.00
G1 X15.5000 Y66.2478 Z-0.9968 F1140.00
G1 X15.5000 Y58.6110 Z-0.9968 F1140.00
G1 X63.5000 Y10.6110 Z-0.9968 F1140.00
G1 X63.5000 Y3.0000 Z-0.9968 F1140.00
G1 X63.4743 Y3.0000 Z-0.9968 F1140.00
G1 X15.5000 Y50.9743 Z-0.9968 F1140.00
G1 X15.5000 Y43.3375 Z-0.9968 F1140.00
G1 X55.8375 Y3.0000 Z-0.9968 F1140.00
G1 X48.2008 Y3.0000 Z-0.9968 F1140.00
G1 X15.5000 Y35.7008 Z-0.9968 F1140.00
G1 X15.5000 Y28.0640 Z-0.9968 F1140.00
G1 X40.5640 Y3.0000 Z-0.9968 F1140.00
G1 X32.9273 Y3.0000 Z-0.9968 F1140.00
G1 X15.5000 Y20.4273 Z-0.9968 F1140.00
G1 X15.5000 Y12.7905 Z-0.9968 F1140.00
G1 X25.2905 Y3.0000 Z-0.9968 F1140.00
G1 X17.6538 Y3.0000 Z-0.9968 F1140.00
G1 X15.5000 Y3.0000 Z-0.9968 F1140.00
G1 X15.5000 Y5.1538 Z-0.9968 F1140.00
G1 X17.6538 Y3.0000 Z-0.9968 F1140.00
G1 X17.6538 Y3.0000 Z-1.9968 F1140.00
G1 X15.5000 Y5.1538 Z-1.9968 F1140.00
G1 X15.5000 Y3.0000 Z-1.9968 F1140.00
G1 X17.6538 Y3.0000 Z-1.9968 F1140.00
G1 X25.2905 Y3.0000 Z-1.9968 F1140.00
G1 X15.5000 Y12.7905 Z-1.9968 F1140.00
G1 X15.5000 Y20.4273 Z-1.9968 F1140.00
G1 X32.9273 Y3.0000 Z-1.9968 F1140.00
G1 X40.5640 Y3.0000 Z-1.9968 F1140.00
G1 X15.5000 Y28.0640 Z-1.9968 F1140.00
G1 X15.5000 Y35.7008 Z-1.9968 F1140.00
G1 X48.2008 Y3.0000 Z-1.9968 F1140.00
G1 X55.8375 Y3.0000 Z-1.9968 F1140.00
G1 X15.5000 Y43.3375 Z-1.9968 F1140.00
G1 X15.5000 Y50.9743 Z-1.9968 F1140.00
G1 X63.4743 Y3.0000 Z-1.9968 F1140.00
G1 X63.5000 Y3.0000 Z-1.9968 F1140.00
G1 X63.5000 Y10.6110 Z-1.9968 F1140.00
G1 X15.5000 Y58.6110 Z-1.9968 F1140.00
G1 X15.5000 Y66.2478 Z-1.9968 F1140.00
G1 X63.5000 Y18.2478 Z-1.9968 F1140.00
G1 X63.5000 Y25.8845 Z-1.9968 F1140.00
G1 X15.5000 Y73.8845 Z-1.9968 F1140.00
G1 X15.5000 Y81.5213 Z-1.9968 F1140.00
G1 X63.5000 Y33.5213 Z-1.9968 F1140.00
G1 X63.5000 Y41.1581 Z-1.9968 F1140.00
G1 X15.5000 Y89.1581 Z-1.9968 F1140.00
G1 X15.5000 Y96.7948 Z-1.9968 F1140.00
G1 X63.5000 Y48.7948 Z-1.9968 F1140.00
G1 X63.5000 Y56.4316 Z-1.9968 F1140.00
G1 X15.5000 Y104.4316 Z-1.9968 F1140.00
G1 X15.5000 Y112.0683 Z-1.9968 F1140.00
G1 X63.5000 Y64.0683 Z-1.9968 F1140.00
G1 X63.5000 Y71.7051 Z-1.9968 F1140.00
G1 X15.5000 Y119.7051 Z-1.9968 F1140.00
G1 X15.5000 Y127.3418 Z-1.9968 F1140.00
G1 X63.5000 Y79.3418 Z-1.9968 F1140.00
G1 X63.5000 Y86.9786 Z-1.9968 F1140.00
G1 X15.5000 Y134.9786 Z-1.9968 F1140.00
G1 X15.5000 Y142.6153 Z-1.9968 F1140.00
G1 X63.5000 Y94.6153 Z-1.9968 F1140.00
G1 X63.5000 Y102.2521 Z-1.9968 F1140.00
G1 X15.5000 Y150.2521 Z-1.9968 F1140.00
G1 X15.5000 Y157.8888 Z-1.9968 F1140.00
G1 X63.5000 Y109.8888 Z-1.9968 F1140.00
G1 X63.5000 Y117.5256 Z-1.9968 F1140.00
G1 X15.5000 Y165.5256 Z-1.9968 F1140.00
G1 X15.5000 Y173.1623 Z-1.9968 F1140.00
G1 X63.5000 Y125.1623 Z-1.9968 F1140.00
G1 X63.5000 Y132.7991 Z-1.9968 F1140.00
G1 X15.5000 Y180.7991 Z-1.9968 F1140.00
G1 X15.5000 Y188.4358 Z-1.9968 F1140.00
G1 X63.5000 Y140.4358 Z-1.9968 F1140.00
G1 X63.5000 Y148.0726 Z-1.9968 F1140.00
G1 X15.5000 Y196.0726 Z-1.9968 F1140.00
G1 X15.5000 Y203.7094 Z-1.9968 F1140.00
G1 X63.5000 Y155.7094 Z-1.9968 F1140.00
G1 X63.5000 Y163.3461 Z-1.9968 F1140.00
G1 X15.5000 Y211.3461 Z-1.9968 F1140.00
G1 X15.5000 Y218.9829 Z-1.9968 F1140.00
G1 X63.5000 Y170.9829 Z-1.9968 F1140.00
G1 X63.5000 Y178.6196 Z-1.9968 F1140.00
G1 X15.5000 Y226.6196 Z-1.9968 F1140.00
G1 X15.5000 Y234.2564 Z-1.9968 F1140.00
G1 X63.5000 Y186.2564 Z-1.9968 F1140.00
G1 X63.5000 Y193.8931 Z-1.9968 F1140.00
G1 X15.5000 Y241.8931 Z-1.9968 F1140.00
G1 X15.5000 Y249.5299 Z-1.9968 F1140.00
G1 X63.5000 Y201.5299 Z-1.9968 F1140.00
G1 X63.5000 Y209.1666 Z-1.9968 F1140.00
G1 X15.5000 Y257.1666 Z-1.9968 F1140.00
G1 X15.5000 Y264.8034 Z-1.9968 F1140.00
G1 X63.5000 Y216.8034 Z-1.9968 F1140.00
G1 X63.5000 Y224.4401 Z-1.9968 F1140.00
G1 X15.5000 Y272.4401 Z-1.9968 F1140.00
G1 X15.5000 Y280.0769 Z-1.9968 F1140.00
G1 X63.5000 Y232.0769 Z-1.9968 F1140.00
G1 X63.5000 Y239.7136 Z-1.9968 F1140.00
G1 X15.5000 Y287.7136 Z-1.9968 F1140.00
G1 X15.5000 Y295.3504 Z-1.9968 F1140.00
G1 X63.5000 Y247.3504 Z-1.9968 F1140.00
G1 X63.5000 Y254.9871 Z-1.9968 F1140.00
G1 X15.5000 Y302.9871 Z-1.9968 F1140.00
G1 X15.5000 Y310.6239 Z-1.9968 F1140.00
G1 X63.5000 Y262.6239 Z-1.9968 F1140.00
G1 X63.5000 Y270.2606 Z-1.9968 F1140.00
G1 X15.5000 Y318.2606 Z-1.9968 F1140.00
G1 X15.5000 Y325.8974 Z-1.9968 F1140.00
G1 X63.5000 Y277.8974 Z-1.9968 F1140.00
G1 X63.5000 Y285.5342 Z-1.9968 F1140.00
G1 X15.5000 Y333.5342 Z-1.9968 F1140.00
G1 X15.5000 Y341.1709 Z-1.9968 F1140.00
G1 X63.5000 Y293.1709 Z-1.9968 F1140.00
G1 X63.5000 Y300.8077 Z-1.9968 F1140.00
G1 X15.5000 Y348.8077 Z-1.9968 F1140.00
G1 X15.5000 Y356.4444 Z-1.9968 F1140.00
G1 X63.5000 Y308.4444 Z-1.9968 F1140.00
G1 X63.5000 Y316.0812 Z-1.9968 F1140.00
G1 X15.5000 Y364.0812 Z-1.9968 F1140.00
G1 X15.5000 Y371.7179 Z-1.9968 F1140.00
G1 X63.5000 Y323.7179 Z-1.9968 F1140.00
G1 X63.5000 Y331.3547 Z-1.9968 F1140.00
G1 X15.5000 Y379.3547 Z-1.9968 F1140.00
G1 X15.5000 Y386.9914 Z-1.9968 F1140.00
G1 X63.5000 Y338.9914 Z-1.9968 F1140.00
G1 X63.5000 Y346.6282 Z-1.9968 F1140.00
G1 X15.5000 Y394.6282 Z-1.9968 F1140.00
G1 X15.5000 Y402.2649 Z-1.9968 F1140.00
G1 X63.5000 Y354.2649 Z-1.9968 F1140.00
G1 X63.5000 Y361.9017 Z-1.9968 F1140.00
G1 X15.5000 Y409.9017 Z-1.9968 F1140.00
G1 X15.5000 Y417.5384 Z-1.9968 F1140.00
G1 X63.5000 Y369.5384 Z-1.9968 F1140.00
G1 X63.5000 Y377.1752 Z-1.9968 F1140.00
G1 X15.5000 Y425.1752 Z-1.9968 F1140.00
G1 X15.5000 Y432.8119 Z-1.9968 F1140.00
G1 X63.5000 Y384.8119 Z-1.9968 F1140.00
G1 X63.5000 Y392.4487 Z-1.9968 F1140.00
G1 X15.5000 Y440.4487 Z-1.9968 F1140.00
G1 X15.5000 Y448.0855 Z-1.9968 F1140.00
G1 X63.5000 Y400.0855 Z-1.9968 F1140.00
G1 X63.5000 Y407.7222 Z-1.9968 F1140.00
G1 X15.5000 Y455.7222 Z-1.9968 F1140.00
G1 X15.5000 Y463.3590 Z-1.9968 F1140.00
G1 X63.5000 Y415.3590 Z-1.9968 F1140.00
G1 X63.5000 Y422.9957 Z-1.9968 F1140.00
G1 X15.5000 Y470.9957 Z-1.9968 F1140.00
G1 X15.5000 Y478.6325 Z-1.9968 F1140.00
G1 X63.5000 Y430.6325 Z-1.9968 F1140.00
G1 X63.5000 Y438.2692 Z-1.9968 F1140.00
G1 X15.5000 Y486.2692 Z-1.9968 F1140.00
G1 X15.5000 Y493.9060 Z-1.9968 F1140.00
G1 X63.5000 Y445.9060 Z-1.9968 F1140.00
G1 X63.5000 Y453.5427 Z-1.9968 F1140.00
G1 X15.5000 Y501.5427 Z-1.9968 F1140.00
G1 X15.5000 Y507.0000 Z-1.9968 F1140.00
G1 X17.6795 Y507.0000 Z-1.9968 F1140.00
G1 X63.5000 Y461.1795 Z-1.9968 F1140.00
G1 X63.5000 Y468.8162 Z-1.9968 F1140.00
G1 X25.3162 Y507.0000 Z-1.9968 F1140.00
G1 X32.9530 Y507.0000 Z-1.9968 F1140.00
G1 X63.5000 Y476.4530 Z-1.9968 F1140.00
G1 X63.5000 Y484.0897 Z-1.9968 F1140.00
G1 X40.5897 Y507.0000 Z-1.9968 F1140.00
G1 X48.2265 Y507.0000 Z-1.9968 F1140.00
G1 X63.5000 Y491.7265 Z-1.9968 F1140.00
G1 X63.5000 Y499.3632 Z-1.9968 F1140.00
G1 X55.8632 Y507.0000 Z-1.9968 F1140.00
G1 X63.5000 Y507.0000 Z-1.9968 F1140.00
G1 X63.5000 Y507.0000 Z-2.9968 F1140.00
G1 X55.8632 Y507.0000 Z-2.9968 F1140.00
G1 X63.5000 Y499.3632 Z-2.9968 F1140.00
G1 X63.5000 Y491.7265 Z-2.9968 F1140.00
G1 X48.2265 Y507.0000 Z-2.9968 F1140.00
G1 X40.5897 Y507.0000 Z-2.9968 F1140.00
G1 X63.5000 Y484.0897 Z-2.9968 F1140.00
G1 X63.5000 Y476.4530 Z-2.9968 F1140.00
G1 X32.9530 Y507.0000 Z-2.9968 F1140.00
G1 X25.3162 Y507.0000 Z-2.9968 F1140.00
G1 X63.5000 Y468.8162 Z-2.9968 F1140.00
G1 X63.5000 Y461.1795 Z-2.9968 F1140.00
G1 X17.6795 Y507.0000 Z-2.9968 F1140.00
G1 X15.5000 Y507.0000 Z-2.9968 F1140.00
G1 X15.5000 Y501.5427 Z-2.9968 F1140.00
G1 X63.5000 Y453.5427 Z-2.9968 F1140.00
G1 X63.5000 Y445.9060 Z-2.9968 F1140.00
G1 X15.5000 Y493.9060 Z-2.9968 F1140.00
G1 X15.5000 Y486.2692 Z-2.9968 F1140.00
G1 X63.5000 Y438.2692 Z-2.9968 F1140.00
G1 X63.5000 Y430.6325 Z-2.9968 F1140.00
G1 X15.5000 Y478.6325 Z-2.9968 F1140.00
G1 X15.5000 Y470.9957 Z-2.9968 F1140.00
G1 X63.5000 Y422.9957 Z-2.9968 F1140.00
G1 X63.5000 Y415.3590 Z-2.9968 F1140.00
G1 X15.5000 Y463.3590 Z-2.9968 F1140.00
G1 X15.5000 Y455.7222 Z-2.9968 F1140.00
G1 X63.5000 Y407.7222 Z-2.9968 F1140.00
G1 X63.5000 Y400.0855 Z-2.9968 F1140.00
G1 X15.5000 Y448.0855 Z-2.9968 F1140.00
G1 X15.5000 Y440.4487 Z-2.9968 F1140.00
G1 X63.5000 Y392.4487 Z-2.9968 F1140.00
G1 X63.5000 Y384.8119 Z-2.9968 F1140.00
G1 X15.5000 Y432.8119 Z-2.9968 F1140.00
G1 X15.5000 Y425.1752 Z-2.9968 F1140.00
G1 X63.5000 Y377.1752 Z-2.9968 F1140.00
G1 X63.5000 Y369.5384 Z-2.9968 F1140.00
G1 X15.5000 Y417.5384 Z-2.9968 F1140.00
G1 X15.5000 Y409.9017 Z-2.9968 F1140.00
G1 X63.5000 Y361.9017 Z-2.9968 F1140.00
G1 X63.5000 Y354.2649 Z-2.9968 F1140.00
G1 X15.5000 Y402.2649 Z-2.9968 F1140.00
G1 X15.5000 Y394.6282 Z-2.9968 F1140.00
G1 X63.5000 Y346.6282 Z-2.9968 F1140.00
G1 X63.5000 Y338.9914 Z-2.9968 F1140.00
G1 X15.5000 Y386.9914 Z-2.9968 F1140.00
G1 X15.5000 Y379.3547 Z-2.9968 F1140.00
G1 X63.5000 Y331.3547 Z-2.9968 F1140.00
G1 X63.5000 Y323.7179 Z-2.9968 F1140.00
G1 X15.5000 Y371.7179 Z-2.9968 F1140.00
G1 X15.5000 Y364.0812 Z-2.9968 F1140.00
G1 X63.5000 Y316.0812 Z-2.9968 F1140.00
G1 X63.5000 Y308.4444 Z-2.9968 F1140.00
G1 X15.5000 Y356.4444 Z-2.9968 F1140.00
G1 X15.5000 Y348.8077 Z-2.9968 F1140.00
G1 X63.5000 Y300.8077 Z-2.9968 F1140.00
G1 X63.5000 Y293.1709 Z-2.9968 F1140.00
G1 X15.5000 Y341.1709 Z-2.9968 F1140.00
G1 X15.5000 Y333.5342 Z-2.9968 F1140.00
G1 X63.5000 Y285.5342 Z-2.9968 F1140.00
G1 X63.5000 Y277.8974 Z-2.9968 F1140.00
G1 X15.5000 Y325.8974 Z-2.9968 F1140.00
G1 X15.5000 Y318.2606 Z-2.9968 F1140.00
G1 X63.5000 Y270.2606 Z-2.9968 F1140.00
G1 X63.5000 Y262.6239 Z-2.9968 F1140.00
G1 X15.5000 Y310.6239 Z-2.9968 F1140.00
G1 X15.5000 Y302.9871 Z-2.9968 F1140.00
G1 X63.5000 Y254.9871 Z-2.9968 F1140.00
G1 X63.5000 Y247.3504 Z-2.9968 F1140.00
G1 X15.5000 Y295.3504 Z-2.9968 F1140.00
G1 X15.5000 Y287.7136 Z-2.9968 F1140.00
G1 X63.5000 Y239.7136 Z-2.9968 F1140.00
G1 X63.5000 Y232.0769 Z-2.9968 F1140.00
G1 X15.5000 Y280.0769 Z-2.9968 F1140.00
G1 X15.5000 Y272.4401 Z-2.9968 F1140.00
G1 X63.5000 Y224.4401 Z-2.9968 F1140.00
G1 X63.5000 Y216.8034 Z-2.9968 F1140.00
G1 X15.5000 Y264.8034 Z-2.9968 F1140.00
G1 X15.5000 Y257.1666 Z-2.9968 F1140.00
G1 X63.5000 Y209.1666 Z-2.9968 F1140.00
G1 X63.5000 Y201.5299 Z-2.9968 F1140.00
G1 X15.5000 Y249.5299 Z-2.9968 F1140.00
G1 X15.5000 Y241.8931 Z-2.9968 F1140.00
G1 X63.5000 Y193.8931 Z-2.9968 F1140.00
G1 X63.5000 Y186.2564 Z-2.9968 F1140.00
G1 X15.5000 Y234.2564 Z-2.9968 F1140.00
G1 X15.5000 Y226.6196 Z-2.9968 F1140.00
G1 X63.5000 Y178.6196 Z-2.9968 F1140.00
G1 X63.5000 Y170.9829 Z-2.9968 F1140.00
G1 X15.5000 Y218.9829 Z-2.9968 F1140.00
G1 X15.5000 Y211.3461 Z-2.9968 F1140.00
G1 X63.5000 Y163.3461 Z-2.9968 F1140.00
G1 X63.5000 Y155.7094 Z-2.9968 F1140.00
G1 X15.5000 Y203.7094 Z-2.9968 F1140.00
G1 X15.5000 Y196.0726 Z-2.9968 F1140.00
G1 X63.5000 Y148.0726 Z-2.9968 F1140.00
G1 X63.5000 Y140.4358 Z-2.9968 F1140.00
G1 X15.5000 Y188.4358 Z-2.9968 F1140.00
G1 X15.5000 Y180.7991 Z-2.9968 F1140.00
G1 X63.5000 Y132.7991 Z-2.9968 F1140.00
G1 X63.5000 Y125.1623 Z-2.9968 F1140.00
G1 X15.5000 Y173.1623 Z-2.9968 F1140.00
G1 X15.5000 Y165.5256 Z-2.9968 F1140.00
G1 X63.5000 Y117.5256 Z-2.9968 F1140.00
G1 X63.5000 Y109.8888 Z-2.9968 F1140.00
G1 X15.5000 Y157.8888 Z-2.9968 F1140.00
G1 X15.5000 Y150.2521 Z-2.9968 F1140.00
G1 X63.5000 Y102.2521 Z-2.9968 F1140.00
G1 X63.5000 Y94.6153 Z-2.9968 F1140.00
G1 X15.5000 Y142.6153 Z-2.9968 F1140.00
G1 X15.5000 Y134.9786 Z-2.9968 F1140.00
G1 X63.5000 Y86.9786 Z-2.9968 F1140.00
G1 X63.5000 Y79.3418 Z-2.9968 F1140.00
G1 X15.5000 Y127.3418 Z-2.9968 F1140.00
G1 X15.5000 Y119.7051 Z-2.9968 F1140.00
G1 X63.5000 Y71.7051 Z-2.9968 F1140.00
G1 X63.5000 Y64.0683 Z-2.9968 F1140.00
G1 X15.5000 Y112.0683 Z-2.9968 F1140.00
G1 X15.5000 Y104.4316 Z-2.9968 F1140.00
G1 X63.5000 Y56.4316 Z-2.9968 F1140.00
G1 X63.5000 Y48.7948 Z-2.9968 F1140.00
G1 X15.5000 Y96.7948 Z-2.9968 F1140.00
G1 X15.5000 Y89.1581 Z-2.9968 F1140.00
G1 X63.5000 Y41.1581 Z-2.9968 F1140.00
G1 X63.5000 Y33.5213 Z-2.9968 F1140.00
G1 X15.5000 Y81.5213 Z-2.9968 F1140.00
G1 X15.5000 Y73.8845 Z-2.9968 F1140.00
G1 X63.5000 Y25.8845 Z-2.9968 F1140.00
G1 X63.5000 Y18.2478 Z-2.9968 F1140.00
G1 X15.5000 Y66.2478 Z-2.9968 F1140.00
G1 X15.5000 Y58.6110 Z-2.9968 F1140.00
G1 X63.5000 Y10.6110 Z-2.9968 F1140.00
G1 X63.5000 Y3.0000 Z-2.9968 F1140.00
G1 X63.4743 Y3.0000 Z-2.9968 F1140.00
G1 X15.5000 Y50.9743 Z-2.9968 F1140.00
G1 X15.5000 Y43.3375 Z-2.9968 F1140.00
G1 X55.8375 Y3.0000 Z-2.9968 F1140.00
G1 X48.2008 Y3.0000 Z-2.9968 F1140.00
G1 X15.5000 Y35.7008 Z-2.9968 F1140.00
G1 X15.5000 Y28.0640 Z-2.9968 F1140.00
G1 X40.5640 Y3.0000 Z-2.9968 F1140.00
G1 X32.9273 Y3.0000 Z-2.9968 F1140.00
G1 X15.5000 Y20.4273 Z-2.9968 F1140.00
G1 X15.5000 Y12.7905 Z-2.9968 F1140.00
G1 X25.2905 Y3.0000 Z-2.9968 F1140.00
G1 X17.6538 Y3.0000 Z-2.9968 F1140.00
G1 X15.5000 Y3.0000 Z-2.9968 F1140.00
G1 X15.5000 Y5.1538 Z-2.9968 F1140.00
G1 X17.6538 Y3.0000 Z-2.9968 F1140.00
G1 X17.6538 Y3.0000 Z-3.9968 F1140.00
G1 X15.5000 Y5.1538 Z-3.9968 F1140.00
G1 X15.5000 Y3.0000 Z-3.9968 F1140.00
G1 X17.6538 Y3.0000 Z-3.9968 F1140.00
G1 X25.2905 Y3.0000 Z-3.9968 F1140.00
G1 X15.5000 Y12.7905 Z-3.9968 F1140.00
G1 X15.5000 Y20.4273 Z-3.9968 F1140.00
G1 X32.9273 Y3.0000 Z-3.9968 F1140.00
G1 X40.5640 Y3.0000 Z-3.9968 F1140.00
G1 X15.5000 Y28.0640 Z-3.9968 F1140.00
G1 X15.5000 Y35.7008 Z-3.9968 F1140.00
G1 X48.2008 Y3.0000 Z-3.9968 F1140.00
G1 X55.8375 Y3.0000 Z-3.9968 F1140.00
G1 X15.5000 Y43.3375 Z-3.9968 F1140.00
G1 X15.5000 Y50.9743 Z-3.9968 F1140.00
G1 X63.4743 Y3.0000 Z-3.9968 F1140.00
G1 X63.5000 Y3.0000 Z-3.9968 F1140.00
G1 X63.5000 Y10.6110 Z-3.9968 F1140.00
G1 X15.5000 Y58.6110 Z-3.9968 F1140.00
G1 X15.5000 Y66.2478 Z-3.9968 F1140.00
G1 X63.5000 Y18.2478 Z-3.9968 F1140.00
G1 X63.5000 Y25.8845 Z-3.9968 F1140.00
G1 X15.5000 Y73.8845 Z-3.9968 F1140.00
G1 X15.5000 Y81.5213 Z-3.9968 F1140.00
G1 X63.5000 Y33.5213 Z-3.9968 F1140.00
G1 X63.5000 Y41.1581 Z-3.9968 F1140.00
G1 X15.5000 Y89.1581 Z-3.9968 F1140.00
G1 X15.5000 Y96.7948 Z-3.9968 F1140.00
G1 X63.5000 Y48.7948 Z-3.9968 F1140.00
G1 X63.5000 Y56.4316 Z-3.9968 F1140.00
G1 X15.5000 Y104.4316 Z-3.9968 F1140.00
G1 X15.5000 Y112.0683 Z-3.9968 F1140.00
G1 X63.5000 Y64.0683 Z-3.9968 F1140.00
G1 X63.5000 Y71.7051 Z-3.9968 F1140.00
G1 X15.5000 Y119.7051 Z-3.9968 F1140.00
G1 X15.5000 Y127.3418 Z-3.9968 F1140.00
G1 X63.5000 Y79.3418 Z-3.9968 F1140.00
G1 X63.5000 Y86.9786 Z-3.9968 F1140.00
G1 X15.5000 Y134.9786 Z-3.9968 F1140.00
G1 X15.5000 Y142.6153 Z-3.9968 F1140.00
G1 X63.5000 Y94.6153 Z-3.9968 F1140.00
G1 X63.5000 Y102.2521 Z-3.9968 F1140.00
G1 X15.5000 Y150.2521 Z-3.9968 F1140.00
G1 X15.5000 Y157.8888 Z-3.9968 F1140.00
G1 X63.5000 Y109.8888 Z-3.9968 F1140.00
G1 X63.5000 Y117.5256 Z-3.9968 F1140.00
G1 X15.5000 Y165.5256 Z-3.9968 F1140.00
G1 X15.5000 Y173.1623 Z-3.9968 F1140.00
G1 X63.5000 Y125.1623 Z-3.9968 F1140.00
G1 X63.5000 Y132.7991 Z-3.9968 F1140.00
G1 X15.5000 Y180.7991 Z-3.9968 F1140.00
G1 X15.5000 Y188.4358 Z-3.9968 F1140.00
G1 X63.5000 Y140.4358 Z-3.9968 F1140.00
G1 X63.5000 Y148.0726 Z-3.9968 F1140.00
G1 X15.5000 Y196.0726 Z-3.9968 F1140.00
G1 X15.5000 Y203.7094 Z-3.9968 F1140.00
G1 X63.5000 Y155.7094 Z-3.9968 F1140.00
G1 X63.5000 Y163.3461 Z-3.9968 F1140.00
G1 X15.5000 Y211.3461 Z-3.9968 F1140.00
G1 X15.5000 Y218.9829 Z-3.9968 F1140.00
G1 X63.5000 Y170.9829 Z-3.9968 F1140.00
G1 X63.5000 Y178.6196 Z-3.9968 F1140.00
G1 X15.5000 Y226.6196 Z-3.9968 F1140.00
G1 X15.5000 Y234.2564 Z-3.9968 F1140.00
G1 X63.5000 Y186.2564 Z-3.9968 F1140.00
G1 X63.5000 Y193.8931 Z-3.9968 F1140.00
G1 X15.5000 Y241.8931 Z-3.9968 F1140.00
G1 X15.5000 Y249.5299 Z-3.9968 F1140.00
G1 X63.5000 Y201.5299 Z-3.9968 F1140.00
G1 X63.5000 Y209.1666 Z-3.9968 F1140.00
G1 X15.5000 Y257.1666 Z-3.9968 F1140.00
G1 X15.5000 Y264.8034 Z-3.9968 F1140.00
G1 X63.5000 Y216.8034 Z-3.9968 F1140.00
G1 X63.5000 Y224.4401 Z-3.9968 F1140.00
G1 X15.5000 Y272.4401 Z-3.9968 F1140.00
G1 X15.5000 Y280.0769 Z-3.9968 F1140.00
G1 X63.5000 Y232.0769 Z-3.9968 F1140.00
G1 X63.5000 Y239.7136 Z-3.9968 F1140.00
G1 X15.5000 Y287.7136 Z-3.9968 F1140.00
G1 X15.5000 Y295.3504 Z-3.9968 F1140.00
G1 X63.5000 Y247.3504 Z-3.9968 F1140.00
G1 X63.5000 Y254.9871 Z-3.9968 F1140.00
G1 X15.5000 Y302.9871 Z-3.9968 F1140.00
G1 X15.5000 Y310.6239 Z-3.9968 F1140.00
G1 X63.5000 Y262.6239 Z-3.9968 F1140.00
G1 X63.5000 Y270.2606 Z-3.9968 F1140.00
G1 X15.5000 Y318.2606 Z-3.9968 F1140.00
G1 X15.5000 Y325.8974 Z-3.9968 F1140.00
G1 X63.5000 Y277.8974 Z-3.9968 F1140.00
G1 X63.5000 Y285.5342 Z-3.9968 F1140.00
G1 X15.5000 Y333.5342 Z-3.9968 F1140.00
G1 X15.5000 Y341.1709 Z-3.9968 F1140.00
G1 X63.5000 Y293.1709 Z-3.9968 F1140.00
G1 X63.5000 Y300.8077 Z-3.9968 F1140.00
G1 X15.5000 Y348.8077 Z-3.9968 F1140.00
G1 X15.5000 Y356.4444 Z-3.9968 F1140.00
G1 X63.5000 Y308.4444 Z-3.9968 F1140.00
G1 X63.5000 Y316.0812 Z-3.9968 F1140.00
G1 X15.5000 Y364.0812 Z-3.9968 F1140.00
G1 X15.5000 Y371.7179 Z-3.9968 F1140.00
G1 X63.5000 Y323.7179 Z-3.9968 F1140.00
G1 X63.5000 Y331.3547 Z-3.9968 F1140.00
G1 X15.5000 Y379.3547 Z-3.9968 F1140.00
G1 X15.5000 Y386.9914 Z-3.9968 F1140.00
G1 X63.5000 Y338.9914 Z-3.9968 F1140.00
G1 X63.5000 Y346.6282 Z-3.9968 F1140.00
G1 X15.5000 Y394.6282 Z-3.9968 F1140.00
G1 X15.5000 Y402.2649 Z-3.9968 F1140.00
G1 X63.5000 Y354.2649 Z-3.9968 F1140.00
G1 X63.5000 Y361.9017 Z-3.9968 F1140.00
G1 X15.5000 Y409.9017 Z-3.9968 F1140.00
G1 X15.5000 Y417.5384 Z-3.9968 F1140.00
G1 X63.5000 Y369.5384 Z-3.9968 F1140.00
G1 X63.5000 Y377.1752 Z-3.9968 F1140.00
G1 X15.5000 Y425.1752 Z-3.9968 F1140.00
G1 X15.5000 Y432.8119 Z-3.9968 F1140.00
G1 X63.5000 Y384.8119 Z-3.9968 F1140.00
G1 X63.5000 Y392.4487 Z-3.9968 F1140.00
G1 X15.5000 Y440.4487 Z-3.9968 F1140.00
G1 X15.5000 Y448.0855 Z-3.9968 F1140.00
G1 X63.5000 Y400.0855 Z-3.9968 F1140.00
G1 X63.5000 Y407.7222 Z-3.9968 F1140.00
G1 X15.5000 Y455.7222 Z-3.9968 F1140.00
G1 X15.5000 Y463.3590 Z-3.9968 F1140.00
G1 X63.5000 Y415.3590 Z-3.9968 F1140.00
G1 X63.5000 Y422.9957 Z-3.9968 F1140.00
G1 X15.5000 Y470.9957 Z-3.9968 F1140.00
G1 X15.5000 Y478.6325 Z-3.9968 F1140.00
G1 X63.5000 Y430.6325 Z-3.9968 F1140.00
G1 X63.5000 Y438.2692 Z-3.9968 F1140.00
G1 X15.5000 Y486.2692 Z-3.9968 F1140.00
G1 X15.5000 Y493.9060 Z-3.9968 F1140.00
G1 X63.5000 Y445.9060 Z-3.9968 F1140.00
G1 X63.5000 Y453.5427 Z-3.9968 F1140.00
G1 X15.5000 Y501.5427 Z-3.9968 F1140.00
G1 X15.5000 Y507.0000 Z-3.9968 F1140.00
G1 X17.6795 Y507.0000 Z-3.9968 F1140.00
G1 X63.5000 Y461.1795 Z-3.9968 F1140.00
G1 X63.5000 Y468.8162 Z-3.9968 F1140.00
G1 X25.3162 Y507.0000 Z-3.9968 F1140.00
G1 X32.9530 Y507.0000 Z-3.9968 F1140.00
G1 X63.5000 Y476.4530 Z-3.9968 F1140.00
G1 X63.5000 Y484.0897 Z-3.9968 F1140.00
G1 X40.5897 Y507.0000 Z-3.9968 F1140.00
G1 X48.2265 Y507.0000 Z-3.9968 F1140.00
G1 X63.5000 Y491.7265 Z-3.9968 F1140.00
G1 X63.5000 Y499.3632 Z-3.9968 F1140.00
G1 X55.8632 Y507.0000 Z-3.9968 F1140.00
G1 X63.5000 Y507.0000 Z-3.9968 F1140.00
G1 X63.5000 Y507.0000 Z-4.9968 F1140.00
G1 X55.8632 Y507.0000 Z-4.9968 F1140.00
G1 X63.5000 Y499.3632 Z-4.9968 F1140.00
G1 X63.5000 Y491.7265 Z-4.9968 F1140.00
G1 X48.2265 Y507.0000 Z-4.9968 F1140.00
G1 X40.5897 Y507.0000 Z-4.9968 F1140.00
G1 X63.5000 Y484.0897 Z-4.9968 F1140.00
G1 X63.5000 Y476.4530 Z-4.9968 F1140.00
G1 X32.9530 Y507.0000 Z-4.9968 F1140.00
G1 X25.3162 Y507.0000 Z-4.9968 F1140.00
G1 X63.5000 Y468.8162 Z-4.9968 F1140.00
G1 X63.5000 Y461.1795 Z-4.9968 F1140.00
G1 X17.6795 Y507.0000 Z-4.9968 F1140.00
G1 X15.5000 Y507.0000 Z-4.9968 F1140.00
G1 X15.5000 Y501.5427 Z-4.9968 F1140.00
G1 X63.5000 Y453.5427 Z-4.9968 F1140.00
G1 X63.5000 Y445.9060 Z-4.9968 F1140.00
G1 X15.5000 Y493.9060 Z-4.9968 F1140.00
G1 X15.5000 Y486.2692 Z-4.9968 F1140.00
G1 X63.5000 Y438.2692 Z-4.9968 F1140.00
G1 X63.5000 Y430.6325 Z-4.9968 F1140.00
G1 X15.5000 Y478.6325 Z-4.9968 F1140.00
G1 X15.5000 Y470.9957 Z-4.9968 F1140.00
G1 X63.5000 Y422.9957 Z-4.9968 F1140.00
G1 X63.5000 Y415.3590 Z-4.9968 F1140.00
G1 X15.5000 Y463.3590 Z-4.9968 F1140.00
G1 X15.5000 Y455.7222 Z-4.9968 F1140.00
G1 X63.5000 Y407.7222 Z-4.9968 F1140.00
G1 X63.5000 Y400.0855 Z-4.9968 F1140.00
G1 X15.5000 Y448.0855 Z-4.9968 F1140.00
G1 X15.5000 Y440.4487 Z-4.9968 F1140.00
G1 X63.5000 Y392.4487 Z-4.9968 F1140.00
G1 X63.5000 Y384.8119 Z-4.9968 F1140.00
G1 X15.5000 Y432.8119 Z-4.9968 F1140.00
G1 X15.5000 Y425.1752 Z-4.9968 F1140.00
G1 X63.5000 Y377.1752 Z-4.9968 F1140.00
G1 X63.5000 Y369.5384 Z-4.9968 F1140.00
G1 X15.5000 Y417.5384 Z-4.9968 F1140.00
G1 X15.5000 Y409.9017 Z-4.9968 F1140.00
G1 X63.5000 Y361.9017 Z-4.9968 F1140.00
G1 X63.5000 Y354.2649 Z-4.9968 F1140.00
G1 X15.5000 Y402.2649 Z-4.9968 F1140.00
G1 X15.5000 Y394.6282 Z-4.9968 F1140.00
G1 X63.5000 Y346.6282 Z-4.9968 F1140.00
G1 X63.5000 Y338.9914 Z-4.9968 F1140.00
G1 X15.5000 Y386.9914 Z-4.9968 F1140.00
G1 X15.5000 Y379.3547 Z-4.9968 F1140.00
G1 X63.5000 Y331.3547 Z-4.9968 F1140.00
G1 X63.5000 Y323.7179 Z-4.9968 F1140.00
G1 X15.5000 Y371.7179 Z-4.9968 F1140.00
G1 X15.5000 Y364.0812 Z-4.9968 F1140.00
G1 X63.5000 Y316.0812 Z-4.9968 F1140.00
G1 X63.5000 Y308.4444 Z-4.9968 F1140.00
G1 X15.5000 Y356.4444 Z-4.9968 F1140.00
G1 X15.5000 Y348.8077 Z-4.9968 F1140.00
G1 X63.5000 Y300.8077 Z-4.9968 F1140.00
G1 X63.5000 Y293.1709 Z-4.9968 F1140.00
G1 X15.5000 Y341.1709 Z-4.9968 F1140.00
G1 X15.5000 Y333.5342 Z-4.9968 F1140.00
G1 X63.5000 Y285.5342 Z-4.9968 F1140.00
G1 X63.5000 Y277.8974 Z-4.9968 F1140.00
G1 X15.5000 Y325.8974 Z-4.9968 F1140.00
G1 X15.5000 Y318.2606 Z-4.9968 F1140.00
G1 X63.5000 Y270.2606 Z-4.9968 F1140.00
G1 X63.5000 Y262.6239 Z-4.9968 F1140.00
G1 X15.5000 Y310.6239 Z-4.9968 F1140.00
G1 X15.5000 Y302.9871 Z-4.9968 F1140.00
G1 X63.5000 Y254.9871 Z-4.9968 F1140.00
G1 X63.5000 Y247.3504 Z-4.9968 F1140.00
G1 X15.5000 Y295.3504 Z-4.9968 F1140.00
G1 X15.5000 Y287.7136 Z-4.9968 F1140.00
G1 X63.5000 Y239.7136 Z-4.9968 F1140.00
G1 X63.5000 Y232.0769 Z-4.9968 F1140.00
G1 X15.5000 Y280.0769 Z-4.9968 F1140.00
G1 X15.5000 Y272.4401 Z-4.9968 F1140.00
G1 X63.5000 Y224.4401 Z-4.9968 F1140.00
G1 X63.5000 Y216.8034 Z-4.9968 F1140.00
G1 X15.5000 Y264.8034 Z-4.9968 F1140.00
G1 X15.5000 Y257.1666 Z-4.9968 F1140.00
G1 X63.5000 Y209.1666 Z-4.9968 F1140.00
G1 X63.5000 Y201.5299 Z-4.9968 F1140.00
G1 X15.5000 Y249.5299 Z-4.9968 F1140.00
G1 X15.5000 Y241.8931 Z-4.9968 F1140.00
G1 X63.5000 Y193.8931 Z-4.9968 F1140.00
G1 X63.5000 Y186.2564 Z-4.9968 F1140.00
G1 X15.5000 Y234.2564 Z-4.9968 F1140.00
G1 X15.5000 Y226.6196 Z-4.9968 F1140.00
G1 X63.5000 Y178.6196 Z-4.9968 F1140.00
G1 X63.5000 Y170.9829 Z-4.9968 F1140.00
G1 X15.5000 Y218.9829 Z-4.9968 F1140.00
G1 X15.5000 Y211.3461 Z-4.9968 F1140.00
G1 X63.5000 Y163.3461 Z-4.9968 F1140.00
G1 X63.5000 Y155.7094 Z-4.9968 F1140.00
G1 X15.5000 Y203.7094 Z-4.9968 F1140.00
G1 X15.5000 Y196.0726 Z-4.9968 F1140.00
G1 X63.5000 Y148.0726 Z-4.9968 F1140.00
G1 X63.5000 Y140.4358 Z-4.9968 F1140.00
G1 X15.5000 Y188.4358 Z-4.9968 F1140.00
G1 X15.5000 Y180.7991 Z-4.9968 F1140.00
G1 X63.5000 Y132.7991 Z-4.9968 F1140.00
G1 X63.5000 Y125.1623 Z-4.9968 F1140.00
G1 X15.5000 Y173.1623 Z-4.9968 F1140.00
G1 X15.5000 Y165.5256 Z-4.9968 F1140.00
G1 X63.5000 Y117.5256 Z-4.9968 F1140.00
G1 X63.5000 Y109.8888 Z-4.9968 F1140.00
G1 X15.5000 Y157.8888 Z-4.9968 F1140.00
G1 X15.5000 Y150.2521 Z-4.9968 F1140.00
G1 X63.5000 Y102.2521 Z-4.9968 F1140.00
G1 X63.5000 Y94.6153 Z-4.9968 F1140.00
G1 X15.5000 Y142.6153 Z-4.9968 F1140.00
G1 X15.5000 Y134.9786 Z-4.9968 F1140.00
G1 X63.5000 Y86.9786 Z-4.9968 F1140.00
G1 X63.5000 Y79.3418 Z-4.9968 F1140.00
G1 X15.5000 Y127.3418 Z-4.9968 F1140.00
G1 X15.5000 Y119.7051 Z-4.9968 F1140.00
G1 X63.5000 Y71.7051 Z-4.9968 F1140.00
G1 X63.5000 Y64.0683 Z-4.9968 F1140.00
G1 X15.5000 Y112.0683 Z-4.9968 F1140.00
G1 X15.5000 Y104.4316 Z-4.9968 F1140.00
G1 X63.5000 Y56.4316 Z-4.9968 F1140.00
G1 X63.5000 Y48.7948 Z-4.9968 F1140.00
G1 X15.5000 Y96.7948 Z-4.9968 F1140.00
G1 X15.5000 Y89.1581 Z-4.9968 F1140.00
G1 X63.5000 Y41.1581 Z-4.9968 F1140.00
G1 X63.5000 Y33.5213 Z-4.9968 F1140.00
G1 X15.5000 Y81.5213 Z-4.9968 F1140.00
G1 X15.5000 Y73.8845 Z-4.9968 F1140.00
G1 X63.5000 Y25.8845 Z-4.9968 F1140.00
G1 X63.5000 Y18.2478 Z-4.9968 F1140.00
G1 X15.5000 Y66.2478 Z-4.9968 F1140.00
G1 X15.5000 Y58.6110 Z-4.9968 F1140.00
G1 X63.5000 Y10.6110 Z-4.9968 F1140.00
G1 X63.5000 Y3.0000 Z-4.9968 F1140.00
G1 X63.4743 Y3.0000 Z-4.9968 F1140.00
G1 X15.5000 Y50.9743 Z-4.9968 F1140.00
G1 X15.5000 Y43.3375 Z-4.9968 F1140.00
G1 X55.8375 Y3.0000 Z-4.9968 F1140.00
G1 X48.2008 Y3.0000 Z-4.9968 F1140.00
G1 X15.5000 Y35.7008 Z-4.9968 F1140.00
G1 X15.5000 Y28.0640 Z-4.9968 F1140.00
G1 X40.5640 Y3.0000 Z-4.9968 F1140.00
G1 X32.9273 Y3.0000 Z-4.9968 F1140.00
G1 X15.5000 Y20.4273 Z-4.9968 F1140.00
G1 X15.5000 Y12.7905 Z-4.9968 F1140.00
G1 X25.2905 Y3.0000 Z-4.9968 F1140.00
G1 X17.6538 Y3.0000 Z-4.9968 F1140.00
G1 X15.5000 Y3.0000 Z-4.9968 F1140.00
G1 X15.5000 Y5.1538 Z-4.9968 F1140.00
G1 X17.6538 Y3.0000 Z-4.9968 F1140.00
G1 X17.6538 Y3.0000 Z-5.9968 F1140.00
G1 X15.5000 Y5.1538 Z-5.9968 F1140.00
G1 X15.5000 Y3.0000 Z-5.9968 F1140.00
G1 X17.6538 Y3.0000 Z-5.9968 F1140.00
G1 X25.2905 Y3.0000 Z-5.9968 F1140.00
G1 X15.5000 Y12.7905 Z-5.9968 F1140.00
G1 X15.5000 Y20.4273 Z-5.9968 F1140.00
G1 X32.9273 Y3.0000 Z-5.9968 F1140.00
G1 X40.5640 Y3.0000 Z-5.9968 F1140.00
G1 X15.5000 Y28.0640 Z-5.9968 F1140.00
G1 X15.5000 Y35.7008 Z-5.9968 F1140.00
G1 X48.2008 Y3.0000 Z-5.9968 F1140.00
G1 X55.8375 Y3.0000 Z-5.9968 F1140.00
G1 X15.5000 Y43.3375 Z-5.9968 F1140.00
G1 X15.5000 Y50.9743 Z-5.9968 F1140.00
G1 X63.4743 Y3.0000 Z-5.9968 F1140.00
G1 X63.5000 Y3.0000 Z-5.9968 F1140.00
G1 X63.5000 Y10.6110 Z-5.9968 F1140.00
G1 X15.5000 Y58.6110 Z-5.9968 F1140.00
G1 X15.5000 Y66.2478 Z-5.9968 F1140.00
G1 X63.5000 Y18.2478 Z-5.9968 F1140.00
G1 X63.5000 Y25.8845 Z-5.9968 F1140.00
G1 X15.5000 Y73.8845 Z-5.9968 F1140.00
G1 X15.5000 Y81.5213 Z-5.9968 F1140.00
G1 X63.5000 Y33.5213 Z-5.9968 F1140.00
G1 X63.5000 Y41.1581 Z-5.9968 F1140.00
G1 X15.5000 Y89.1581 Z-5.9968 F1140.00
G1 X15.5000 Y96.7948 Z-5.9968 F1140.00
G1 X63.5000 Y48.7948 Z-5.9968 F1140.00
G1 X63.5000 Y56.4316 Z-5.9968 F1140.00
G1 X15.5000 Y104.4316 Z-5.9968 F1140.00
G1 X15.5000 Y112.0683 Z-5.9968 F1140.00
G1 X63.5000 Y64.0683 Z-5.9968 F1140.00
G1 X63.5000 Y71.7051 Z-5.9968 F1140.00
G1 X15.5000 Y119.7051 Z-5.9968 F1140.00
G1 X15.5000 Y127.3418 Z-5.9968 F1140.00
G1 X63.5000 Y79.3418 Z-5.9968 F1140.00
G1 X63.5000 Y86.9786 Z-5.9968 F1140.00
G1 X15.5000 Y134.9786 Z-5.9968 F1140.00
G1 X15.5000 Y142.6153 Z-5.9968 F1140.00
G1 X63.5000 Y94.6153 Z-5.9968 F1140.00
G1 X63.5000 Y102.2521 Z-5.9968 F1140.00
G1 X15.5000 Y150.2521 Z-5.9968 F1140.00
G1 X15.5000 Y157.8888 Z-5.9968 F1140.00
G1 X63.5000 Y109.8888 Z-5.9968 F1140.00
G1 X63.5000 Y117.5256 Z-5.9968 F1140.00
G1 X15.5000 Y165.5256 Z-5.9968 F1140.00
G1 X15.5000 Y173.1623 Z-5.9968 F1140.00
G1 X63.5000 Y125.1623 Z-5.9968 F1140.00
G1 X63.5000 Y132.7991 Z-5.9968 F1140.00
G1 X15.5000 Y180.7991 Z-5.9968 F1140.00
G1 X15.5000 Y188.4358 Z-5.9968 F1140.00
G1 X63.5000 Y140.4358 Z-5.9968 F1140.00
G1 X63.5000 Y148.0726 Z-5.9968 F1140.00
G1 X15.5000 Y196.0726 Z-5.9968 F1140.00
G1 X15.5000 Y203.7094 Z-5.9968 F1140.00
G1 X63.5000 Y155.7094 Z-5.9968 F1140.00
G1 X63.5000 Y163.3461 Z-5.9968 F1140.00
G1 X15.5000 Y211.3461 Z-5.9968 F1140.00
G1 X15.5000 Y218.9829 Z-5.9968 F1140.00
G1 X63.5000 Y170.9829 Z-5.9968 F1140.00
G1 X63.5000 Y178.6196 Z-5.9968 F1140.00
G1 X15.5000 Y226.6196 Z-5.9968 F1140.00
G1 X15.5000 Y234.2564 Z-5.9968 F1140.00
G1 X63.5000 Y186.2564 Z-5.9968 F1140.00
G1 X63.5000 Y193.8931 Z-5.9968 F1140.00
G1 X15.5000 Y241.8931 Z-5.9968 F1140.00
G1 X15.5000 Y249.5299 Z-5.9968 F1140.00
G1 X63.5000 Y201.5299 Z-5.9968 F1140.00
G1 X63.5000 Y209.1666 Z-5.9968 F1140.00
G1 X15.5000 Y257.1666 Z-5.9968 F1140.00
G1 X15.5000 Y264.8034 Z-5.9968 F1140.00
G1 X63.5000 Y216.8034 Z-5.9968 F1140.00
G1 X63.5000 Y224.4401 Z-5.9968 F1140.00
G1 X15.5000 Y272.4401 Z-5.9968 F1140.00
G1 X15.5000 Y280.0769 Z-5.9968 F1140.00
G1 X63.5000 Y232.0769 Z-5.9968 F1140.00
G1 X63.5000 Y239.7136 Z-5.9968 F1140.00
G1 X15.5000 Y287.7136 Z-5.9968 F1140.00
G1 X15.5000 Y295.3504 Z-5.9968 F1140.00
G1 X63.5000 Y247.3504 Z-5.9968 F1140.00
G1 X63.5000 Y254.9871 Z-5.9968 F1140.00
G1 X15.5000 Y302.9871 Z-5.9968 F1140.00
G1 X15.5000 Y310.6239 Z-5.9968 F1140.00
G1 X63.5000 Y262.6239 Z-5.9968 F1140.00
G1 X63.5000 Y270.2606 Z-5.9968 F1140.00
G1 X15.5000 Y318.2606 Z-5.9968 F1140.00
G1 X15.5000 Y325.8974 Z-5.9968 F1140.00
G1 X63.5000 Y277.8974 Z-5.9968 F1140.00
G1 X63.5000 Y285.5342 Z-5.9968 F1140.00
G1 X15.5000 Y333.5342 Z-5.9968 F1140.00
G1 X15.5000 Y341.1709 Z-5.9968 F1140.00
G1 X63.5000 Y293.1709 Z-5.9968 F1140.00
G1 X63.5000 Y300.8077 Z-5.9968 F1140.00
G1 X15.5000 Y348.8077 Z-5.9968 F1140.00
G1 X15.5000 Y356.4444 Z-5.9968 F1140.00
G1 X63.5000 Y308.4444 Z-5.9968 F1140.00
G1 X63.5000 Y316.0812 Z-5.9968 F1140.00
G1 X15.5000 Y364.0812 Z-5.9968 F1140.00
G1 X15.5000 Y371.7179 Z-5.9968 F1140.00
G1 X63.5000 Y323.7179 Z-5.9968 F1140.00
G1 X63.5000 Y331.3547 Z-5.9968 F1140.00
G1 X15.5000 Y379.3547 Z-5.9968 F1140.00
G1 X15.5000 Y386.9914 Z-5.9968 F1140.00
G1 X63.5000 Y338.9914 Z-5.9968 F1140.00
G1 X63.5000 Y346.6282 Z-5.9968 F1140.00
G1 X15.5000 Y394.6282 Z-5.9968 F1140.00
G1 X15.5000 Y402.2649 Z-5.9968 F1140.00
G1 X63.5000 Y354.2649 Z-5.9968 F1140.00
G1 X63.5000 Y361.9017 Z-5.9968 F1140.00
G1 X15.5000 Y409.9017 Z-5.9968 F1140.00
G1 X15.5000 Y417.5384 Z-5.9968 F1140.00
G1 X63.5000 Y369.5384 Z-5.9968 F1140.00
G1 X63.5000 Y377.1752 Z-5.9968 F1140.00
G1 X15.5000 Y425.1752 Z-5.9968 F1140.00
G1 X15.5000 Y432.8119 Z-5.9968 F1140.00
G1 X63.5000 Y384.8119 Z-5.9968 F1140.00
G1 X63.5000 Y392.4487 Z-5.9968 F1140.00
G1 X15.5000 Y440.4487 Z-5.9968 F1140.00
G1 X15.5000 Y448.0855 Z-5.9968 F1140.00
G1 X63.5000 Y400.0855 Z-5.9968 F1140.00
G1 X63.5000 Y407.7222 Z-5.9968 F1140.00
G1 X15.5000 Y455.7222 Z-5.9968 F1140.00
G1 X15.5000 Y463.3590 Z-5.9968 F1140.00
G1 X63.5000 Y415.3590 Z-5.9968 F1140.00
G1 X63.5000 Y422.9957 Z-5.9968 F1140.00
G1 X15.5000 Y470.9957 Z-5.9968 F1140.00
G1 X15.5000 Y478.6325 Z-5.9968 F1140.00
G1 X63.5000 Y430.6325 Z-5.9968 F1140.00
G1 X63.5000 Y438.2692 Z-5.9968 F1140.00
G1 X15.5000 Y486.2692 Z-5.9968 F1140.00
G1 X15.5000 Y493.9060 Z-5.9968 F1140.00
G1 X63.5000 Y445.9060 Z-5.9968 F1140.00
G1 X63.5000 Y453.5427 Z-5.9968 F1140.00
G1 X15.5000 Y501.5427 Z-5.9968 F1140.00
G1 X15.5000 Y507.0000 Z-5.9968 F1140.00
G1 X17.6795 Y507.0000 Z-5.9968 F1140.00
G1 X63.5000 Y461.1795 Z-5.9968 F1140.00
G1 X63.5000 Y468.8162 Z-5.9968 F1140.00
G1 X25.3162 Y507.0000 Z-5.9968 F1140.00
G1 X32.9530 Y507.0000 Z-5.9968 F1140.00
G1 X63.5000 Y476.4530 Z-5.9968 F1140.00
G1 X63.5000 Y484.0897 Z-5.9968 F1140.00
G1 X40.5897 Y507.0000 Z-5.9968 F1140.00
G1 X48.2265 Y507.0000 Z-5.9968 F1140.00
G1 X63.5000 Y491.7265 Z-5.9968 F1140.00
G1 X63.5000 Y499.3632 Z-5.9968 F1140.00
G1 X55.8632 Y507.0000 Z-5.9968 F1140.00
G1 X63.5000 Y507.0000 Z-5.9968 F1140.00
G1 X63.5000 Y507.0000 Z-6.9968 F1140.00
G1 X55.8632 Y507.0000 Z-6.9968 F1140.00
G1 X63.5000 Y499.3632 Z-6.9968 F1140.00
G1 X63.5000 Y491.7265 Z-6.9968 F1140.00
G1 X48.2265 Y507.0000 Z-6.9968 F1140.00
G1 X40.5897 Y507.0000 Z-6.9968 F1140.00
G1 X63.5000 Y484.0897 Z-6.9968 F1140.00
G1 X63.5000 Y476.4530 Z-6.9968 F1140.00
G1 X32.9530 Y507.0000 Z-6.9968 F1140.00
G1 X25.3162 Y507.0000 Z-6.9968 F1140.00
G1 X63.5000 Y468.8162 Z-6.9968 F1140.00
G1 X63.5000 Y461.1795 Z-6.9968 F1140.00
G1 X17.6795 Y507.0000 Z-6.9968 F1140.00
G1 X15.5000 Y507.0000 Z-6.9968 F1140.00
G1 X15.5000 Y501.5427 Z-6.9968 F1140.00
G1 X63.5000 Y453.5427 Z-6.9968 F1140.00
G1 X63.5000 Y445.9060 Z-6.9968 F1140.00
G1 X15.5000 Y493.9060 Z-6.9968 F1140.00
G1 X15.5000 Y486.2692 Z-6.9968 F1140.00
G1 X63.5000 Y438.2692 Z-6.9968 F1140.00
G1 X63.5000 Y430.6325 Z-6.9968 F1140.00
G1 X15.5000 Y478.6325 Z-6.9968 F1140.00
G1 X15.5000 Y470.9957 Z-6.9968 F1140.00
G1 X63.5000 Y422.9957 Z-6.9968 F1140.00
G1 X63.5000 Y415.3590 Z-6.9968 F1140.00
G1 X15.5000 Y463.3590 Z-6.9968 F1140.00
G1 X15.5000 Y455.7222 Z-6.9968 F1140.00
G1 X63.5000 Y407.7222 Z-6.9968 F1140.00
G1 X63.5000 Y400.0855 Z-6.9968 F1140.00
G1 X15.5000 Y448.0855 Z-6.9968 F1140.00
G1 X15.5000 Y440.4487 Z-6.9968 F1140.00
G1 X63.5000 Y392.4487 Z-6.9968 F1140.00
G1 X63.5000 Y384.8119 Z-6.9968 F1140.00
G1 X15.5000 Y432.8119 Z-6.9968 F1140.00
G1 X15.5000 Y425.1752 Z-6.9968 F1140.00
G1 X63.5000 Y377.1752 Z-6.9968 F1140.00
G1 X63.5000 Y369.5384 Z-6.9968 F1140.00
G1 X15.5000 Y417.5384 Z-6.9968 F1140.00
G1 X15.5000 Y409.9017 Z-6.9968 F1140.00
G1 X63.5000 Y361.9017 Z-6.9968 F1140.00
G1 X63.5000 Y354.2649 Z-6.9968 F1140.00
G1 X15.5000 Y402.2649 Z-6.9968 F1140.00
G1 X15.5000 Y394.6282 Z-6.9968 F1140.00
G1 X63.5000 Y346.6282 Z-6.9968 F1140.00
G1 X63.5000 Y338.9914 Z-6.9968 F1140.00
G1 X15.5000 Y386.9914 Z-6.9968 F1140.00
G1 X15.5000 Y379.3547 Z-6.9968 F1140.00
G1 X63.5000 Y331.3547 Z-6.9968 F1140.00
G1 X63.5000 Y323.7179 Z-6.9968 F1140.00
G1 X15.5000 Y371.7179 Z-6.9968 F1140.00
G1 X15.5000 Y364.0812 Z-6.9968 F1140.00
G1 X63.5000 Y316.0812 Z-6.9968 F1140.00
G1 X63.5000 Y308.4444 Z-6.9968 F1140.00
G1 X15.5000 Y356.4444 Z-6.9968 F1140.00
G1 X15.5000 Y348.8077 Z-6.9968 F1140.00
G1 X63.5000 Y300.8077 Z-6.9968 F1140.00
G1 X63.5000 Y293.1709 Z-6.9968 F1140.00
G1 X15.5000 Y341.1709 Z-6.9968 F1140.00
G1 X15.5000 Y333.5342 Z-6.9968 F1140.00
G1 X63.5000 Y285.5342 Z-6.9968 F1140.00
G1 X63.5000 Y277.8974 Z-6.9968 F1140.00
G1 X15.5000 Y325.8974 Z-6.9968 F1140.00
G1 X15.5000 Y318.2606 Z-6.9968 F1140.00
G1 X63.5000 Y270.2606 Z-6.9968 F1140.00
G1 X63.5000 Y262.6239 Z-6.9968 F1140.00
G1 X15.5000 Y310.6239 Z-6.9968 F1140.00
G1 X15.5000 Y302.9871 Z-6.9968 F1140.00
G1 X63.5000 Y254.9871 Z-6.9968 F1140.00
G1 X63.5000 Y247.3504 Z-6.9968 F1140.00
G1 X15.5000 Y295.3504 Z-6.9968 F1140.00
G1 X15.5000 Y287.7136 Z-6.9968 F1140.00
G1 X63.5000 Y239.7136 Z-6.9968 F1140.00
G1 X63.5000 Y232.0769 Z-6.9968 F1140.00
G1 X15.5000 Y280.0769 Z-6.9968 F1140.00
G1 X15.5000 Y272.4401 Z-6.9968 F1140.00
G1 X63.5000 Y224.4401 Z-6.9968 F1140.00
G1 X63.5000 Y216.8034 Z-6.9968 F1140.00
G1 X15.5000 Y264.8034 Z-6.9968 F1140.00
G1 X15.5000 Y257.1666 Z-6.9968 F1140.00
G1 X63.5000 Y209.1666 Z-6.9968 F1140.00
G1 X63.5000 Y201.5299 Z-6.9968 F1140.00
G1 X15.5000 Y249.5299 Z-6.9968 F1140.00
G1 X15.5000 Y241.8931 Z-6.9968 F1140.00
G1 X63.5000 Y193.8931 Z-6.9968 F1140.00
G1 X63.5000 Y186.2564 Z-6.9968 F1140.00
G1 X15.5000 Y234.2564 Z-6.9968 F1140.00
G1 X15.5000 Y226.6196 Z-6.9968 F1140.00
G1 X63.5000 Y178.6196 Z-6.9968 F1140.00
G1 X63.5000 Y170.9829 Z-6.9968 F1140.00
G1 X15.5000 Y218.9829 Z-6.9968 F1140.00
G1 X15.5000 Y211.3461 Z-6.9968 F1140.00
G1 X63.5000 Y163.3461 Z-6.9968 F1140.00
G1 X63.5000 Y155.7094 Z-6.9968 F1140.00
G1 X15.5000 Y203.7094 Z-6.9968 F1140.00
G1 X15.5000 Y196.0726 Z-6.9968 F1140.00
G1 X63.5000 Y148.0726 Z-6.9968 F1140.00
G1 X63.5000 Y140.4358 Z-6.9968 F1140.00
G1 X15.5000 Y188.4358 Z-6.9968 F1140.00
G1 X15.5000 Y180.7991 Z-6.9968 F1140.00
G1 X63.5000 Y132.7991 Z-6.9968 F1140.00
G1 X63.5000 Y125.1623 Z-6.9968 F1140.00
G1 X15.5000 Y173.1623 Z-6.9968 F1140.00
G1 X15.5000 Y165.5256 Z-6.9968 F1140.00
G1 X63.5000 Y117.5256 Z-6.9968 F1140.00
G1 X63.5000 Y109.8888 Z-6.9968 F1140.00
G1 X15.5000 Y157.8888 Z-6.9968 F1140.00
G1 X15.5000 Y150.2521 Z-6.9968 F1140.00
G1 X63.5000 Y102.2521 Z-6.9968 F1140.00
G1 X63.5000 Y94.6153 Z-6.9968 F1140.00
G1 X15.5000 Y142.6153 Z-6.9968 F1140.00
G1 X15.5000 Y134.9786 Z-6.9968 F1140.00
G1 X63.5000 Y86.9786 Z-6.9968 F1140.00
G1 X63.5000 Y79.3418 Z-6.9968 F1140.00
G1 X15.5000 Y127.3418 Z-6.9968 F1140.00
G1 X15.5000 Y119.7051 Z-6.9968 F1140.00
G1 X63.5000 Y71.7051 Z-6.9968 F1140.00
G1 X63.5000 Y64.0683 Z-6.9968 F1140.00
G1 X15.5000 Y112.0683 Z-6.9968 F1140.00
G1 X15.5000 Y104.4316 Z-6.9968 F1140.00
G1 X63.5000 Y56.4316 Z-6.9968 F1140.00
G1 X63.5000 Y48.7948 Z-6.9968 F1140.00
G1 X15.5000 Y96.7948 Z-6.9968 F1140.00
G1 X15.5000 Y89.1581 Z-6.9968 F1140.00
G1 X63.5000 Y41.1581 Z-6.9968 F1140.00
G1 X63.5000 Y33.5213 Z-6.9968 F1140.00
G1 X15.5000 Y81.5213 Z-6.9968 F1140.00
G1 X15.5000 Y73.8845 Z-6.9968 F1140.00
G1 X63.5000 Y25.8845 Z-6.9968 F1140.00
G1 X63.5000 Y18.2478 Z-6.9968 F1140.00
G1 X15.5000 Y66.2478 Z-6.9968 F1140.00
G1 X15.5000 Y58.6110 Z-6.9968 F1140.00
G1 X63.5000 Y10.6110 Z-6.9968 F1140.00
G1 X63.5000 Y3.0000 Z-6.9968 F1140.00
G1 X63.4743 Y3.0000 Z-6.9968 F1140.00
G1 X15.5000 Y50.9743 Z-6.9968 F1140.00
G1 X15.5000 Y43.3375 Z-6.9968 F1140.00
G1 X55.8375 Y3.0000 Z-6.9968 F1140.00
G1 X48.2008 Y3.0000 Z-6.9968 F1140.00
G1 X15.5000 Y35.7008 Z-6.9968 F1140.00
G1 X15.5000 Y28.0640 Z-6.9968 F1140.00
G1 X40.5640 Y3.0000 Z-6.9968 F1140.00
G1 X32.9273 Y3.0000 Z-6.9968 F1140.00
G1 X15.5000 Y20.4273 Z-6.9968 F1140.00
G1 X15.5000 Y12.7905 Z-6.9968 F1140.00
G1 X25.2905 Y3.0000 Z-6.9968 F1140.00
G1 X17.6538 Y3.0000 Z-6.9968 F1140.00
G1 X15.5000 Y3.0000 Z-6.9968 F1140.00
G1 X15.5000 Y5.1538 Z-6.9968 F1140.00
G1 X17.6538 Y3.0000 Z-6.9968 F1140.00
G1 X17.6538 Y3.0000 Z-7.9968 F1140.00
G1 X15.5000 Y5.1538 Z-7.9968 F1140.00
G1 X15.5000 Y3.0000 Z-7.9968 F1140.00
G1 X17.6538 Y3.0000 Z-7.9968 F1140.00
G1 X25.2905 Y3.0000 Z-7.9968 F1140.00
G1 X15.5000 Y12.7905 Z-7.9968 F1140.00
G1 X15.5000 Y20.4273 Z-7.9968 F1140.00
G1 X32.9273 Y3.0000 Z-7.9968 F1140.00
G1 X40.5640 Y3.0000 Z-7.9968 F1140.00
G1 X15.5000 Y28.0640 Z-7.9968 F1140.00
G1 X15.5000 Y35.7008 Z-7.9968 F1140.00
G1 X48.2008 Y3.0000 Z-7.9968 F1140.00
G1 X55.8375 Y3.0000 Z-7.9968 F1140.00
G1 X15.5000 Y43.3375 Z-7.9968 F1140.00
G1 X15.5000 Y50.9743 Z-7.9968 F1140.00
G1 X63.4743 Y3.0000 Z-7.9968 F1140.00
G1 X63.5000 Y3.0000 Z-7.9968 F1140.00
G1 X63.5000 Y10.6110 Z-7.9968 F1140.00
G1 X15.5000 Y58.6110 Z-7.9968 F1140.00
G1 X15.5000 Y66.2478 Z-7.9968 F1140.00
G1 X63.5000 Y18.2478 Z-7.9968 F1140.00
G1 X63.5000 Y25.8845 Z-7.9968 F1140.00
G1 X15.5000 Y73.8845 Z-7.9968 F1140.00
G1 X15.5000 Y81.5213 Z-7.9968 F1140.00
G1 X63.5000 Y33.5213 Z-7.9968 F1140.00
G1 X63.5000 Y41.1581 Z-7.9968 F1140.00
G1 X15.5000 Y89.1581 Z-7.9968 F1140.00
G1 X15.5000 Y96.7948 Z-7.9968 F1140.00
G1 X63.5000 Y48.7948 Z-7.9968 F1140.00
G1 X63.5000 Y56.4316 Z-7.9968 F1140.00
G1 X15.5000 Y104.4316 Z-7.9968 F1140.00
G1 X15.5000 Y112.0683 Z-7.9968 F1140.00
G1 X63.5000 Y64.0683 Z-7.9968 F1140.00
G1 X63.5000 Y71.7051 Z-7.9968 F1140.00
G1 X15.5000 Y119.7051 Z-7.9968 F1140.00
G1 X15.5000 Y127.3418 Z-7.9968 F1140.00
G1 X63.5000 Y79.3418 Z-7.9968 F1140.00
G1 X63.5000 Y86.9786 Z-7.9968 F1140.00
G1 X15.5000 Y134.9786 Z-7.9968 F1140.00
G1 X15.5000 Y142.6153 Z-7.9968 F1140.00
G1 X63.5000 Y94.6153 Z-7.9968 F1140.00
G1 X63.5000 Y102.2521 Z-7.9968 F1140.00
G1 X15.5000 Y150.2521 Z-7.9968 F1140.00
G1 X15.5000 Y157.8888 Z-7.9968 F1140.00
G1 X63.5000 Y109.8888 Z-7.9968 F1140.00
G1 X63.5000 Y117.5256 Z-7.9968 F1140.00
G1 X15.5000 Y165.5256 Z-7.9968 F1140.00
G1 X15.5000 Y173.1623 Z-7.9968 F1140.00
G1 X63.5000 Y125.1623 Z-7.9968 F1140.00
G1 X63.5000 Y132.7991 Z-7.9968 F1140.00
G1 X15.5000 Y180.7991 Z-7.9968 F1140.00
G1 X15.5000 Y188.4358 Z-7.9968 F1140.00
G1 X63.5000 Y140.4358 Z-7.9968 F1140.00
G1 X63.5000 Y148.0726 Z-7.9968 F1140.00
G1 X15.5000 Y196.0726 Z-7.9968 F1140.00
G1 X15.5000 Y203.7094 Z-7.9968 F1140.00
G1 X63.5000 Y155.7094 Z-7.9968 F1140.00
G1 X63.5000 Y163.3461 Z-7.9968 F1140.00
G1 X15.5000 Y211.3461 Z-7.9968 F1140.00
G1 X15.5000 Y218.9829 Z-7.9968 F1140.00
G1 X63.5000 Y170.9829 Z-7.9968 F1140.00
G1 X63.5000 Y178.6196 Z-7.9968 F1140.00
G1 X15.5000 Y226.6196 Z-7.9968 F1140.00
G1 X15.5000 Y234.2564 Z-7.9968 F1140.00
G1 X63.5000 Y186.2564 Z-7.9968 F1140.00
G1 X63.5000 Y193.8931 Z-7.9968 F1140.00
G1 X15.5000 Y241.8931 Z-7.9968 F1140.00
G1 X15.5000 Y249.5299 Z-7.9968 F1140.00
G1 X63.5000 Y201.5299 Z-7.9968 F1140.00
G1 X63.5000 Y209.1666 Z-7.9968 F1140.00
G1 X15.5000 Y257.1666 Z-7.9968 F1140.00
G1 X15.5000 Y264.8034 Z-7.9968 F1140.00
G1 X63.5000 Y216.8034 Z-7.9968 F1140.00
G1 X63.5000 Y224.4401 Z-7.9968 F1140.00
G1 X15.5000 Y272.4401 Z-7.9968 F1140.00
G1 X15.5000 Y280.0769 Z-7.9968 F1140.00
G1 X63.5000 Y232.0769 Z-7.9968 F1140.00
G1 X63.5000 Y239.7136 Z-7.9968 F1140.00
G1 X15.5000 Y287.7136 Z-7.9968 F1140.00
G1 X15.5000 Y295.3504 Z-7.9968 F1140.00
G1 X63.5000 Y247.3504 Z-7.9968 F1140.00
G1 X63.5000 Y254.9871 Z-7.9968 F1140.00
G1 X15.5000 Y302.9871 Z-7.9968 F1140.00
G1 X15.5000 Y310.6239 Z-7.9968 F1140.00
G1 X63.5000 Y262.6239 Z-7.9968 F1140.00
G1 X63.5000 Y270.2606 Z-7.9968 F1140.00
G1 X15.5000 Y318.2606 Z-7.9968 F1140.00
G1 X15.5000 Y325.8974 Z-7.9968 F1140.00
G1 X63.5000 Y277.8974 Z-7.9968 F1140.00
G1 X63.5000 Y285.5342 Z-7.9968 F1140.00
G1 X15.5000 Y333.5342 Z-7.9968 F1140.00
G1 X15.5000 Y341.1709 Z-7.9968 F1140.00
G1 X63.5000 Y293.1709 Z-7.9968 F1140.00
G1 X63.5000 Y300.8077 Z-7.9968 F1140.00
G1 X15.5000 Y348.8077 Z-7.9968 F1140.00
G1 X15.5000 Y356.4444 Z-7.9968 F1140.00
G1 X63.5000 Y308.4444 Z-7.9968 F1140.00
G1 X63.5000 Y316.0812 Z-7.9968 F1140.00
G1 X15.5000 Y364.0812 Z-7.9968 F1140.00
G1 X15.5000 Y371.7179 Z-7.9968 F1140.00
G1 X63.5000 Y323.7179 Z-7.9968 F1140.00
G1 X63.5000 Y331.3547 Z-7.9968 F1140.00
G1 X15.5000 Y379.3547 Z-7.9968 F1140.00
G1 X15.5000 Y386.9914 Z-7.9968 F1140.00
G1 X63.5000 Y338.9914 Z-7.9968 F1140.00
G1 X63.5000 Y346.6282 Z-7.9968 F1140.00
G1 X15.5000 Y394.6282 Z-7.9968 F1140.00
G1 X15.5000 Y402.2649 Z-7.9968 F1140.00
G1 X63.5000 Y354.2649 Z-7.9968 F1140.00
G1 X63.5000 Y361.9017 Z-7.9968 F1140.00
G1 X15.5000 Y409.9017 Z-7.9968 F1140.00
G1 X15.5000 Y417.5384 Z-7.9968 F1140.00
G1 X63.5000 Y369.5384 Z-7.9968 F1140.00
G1 X63.5000 Y377.1752 Z-7.9968 F1140.00
G1 X15.5000 Y425.1752 Z-7.9968 F1140.00
G1 X15.5000 Y432.8119 Z-7.9968 F1140.00
G1 X63.5000 Y384.8119 Z-7.9968 F1140.00
G1 X63.5000 Y392.4487 Z-7.9968 F1140.00
G1 X15.5000 Y440.4487 Z-7.9968 F1140.00
G1 X15.5000 Y448.0855 Z-7.9968 F1140.00
G1 X63.5000 Y400.0855 Z-7.9968 F1140.00
G1 X63.5000 Y407.7222 Z-7.9968 F1140.00
G1 X15.5000 Y455.7222 Z-7.9968 F1140.00
G1 X15.5000 Y463.3590 Z-7.9968 F1140.00
G1 X63.5000 Y415.3590 Z-7.9968 F1140.00
G1 X63.5000 Y422.9957 Z-7.9968 F1140.00
G1 X15.5000 Y470.9957 Z-7.9968 F1140.00
G1 X15.5000 Y478.6325 Z-7.9968 F1140.00
G1 X63.5000 Y430.6325 Z-7.9968 F1140.00
G1 X63.5000 Y438.2692 Z-7.9968 F1140.00
G1 X15.5000 Y486.2692 Z-7.9968 F1140.00
G1 X15.5000 Y493.9060 Z-7.9968 F1140.00
G1 X63.5000 Y445.9060 Z-7.9968 F1140.00
G1 X63.5000 Y453.5427 Z-7.9968 F1140.00
G1 X15.5000 Y501.5427 Z-7.9968 F1140.00
G1 X15.5000 Y507.0000 Z-7.9968 F1140.00
G1 X17.6795 Y507.0000 Z-7.9968 F1140.00
G1 X63.5000 Y461.1795 Z-7.9968 F1140.00
G1 X63.5000 Y468.8162 Z-7.9968 F1140.00
G1 X25.3162 Y507.0000 Z-7.9968 F1140.00
G1 X32.9530 Y507.0000 Z-7.9968 F1140.00
G1 X63.5000 Y476.4530 Z-7.9968 F1140.00
G1 X63.5000 Y484.0897 Z-7.9968 F1140.00
G1 X40.5897 Y507.0000 Z-7.9968 F1140.00
G1 X48.2265 Y507.0000 Z-7.9968 F1140.00
G1 X63.5000 Y491.7265 Z-7.9968 F1140.00
G1 X63.5000 Y499.3632 Z-7.9968 F1140.00
G1 X55.8632 Y507.0000 Z-7.9968 F1140.00
G1 X63.5000 Y507.0000 Z-7.9968 F1140.00
G1 X63.5000 Y507.0000 Z-8.9968 F1140.00
G1 X55.8632 Y507.0000 Z-8.9968 F1140.00
G1 X63.5000 Y499.3632 Z-8.9968 F1140.00
G1 X63.5000 Y491.7265 Z-8.9968 F1140.00
G1 X48.2265 Y507.0000 Z-8.9968 F1140.00
G1 X40.5897 Y507.0000 Z-8.9968 F1140.00
G1 X63.5000 Y484.0897 Z-8.9968 F1140.00
G1 X63.5000 Y476.4530 Z-8.9968 F1140.00
G1 X32.9530 Y507.0000 Z-8.9968 F1140.00
G1 X25.3162 Y507.0000 Z-8.9968 F1140.00
G1 X63.5000 Y468.8162 Z-8.9968 F1140.00
G1 X63.5000 Y461.1795 Z-8.9968 F1140.00
G1 X17.6795 Y507.0000 Z-8.9968 F1140.00
G1 X15.5000 Y507.0000 Z-8.9968 F1140.00
G1 X15.5000 Y501.5427 Z-8.9968 F1140.00
G1 X63.5000 Y453.5427 Z-8.9968 F1140.00
G1 X63.5000 Y445.9060 Z-8.9968 F1140.00
G1 X15.5000 Y493.9060 Z-8.9968 F1140.00
G1 X15.5000 Y486.2692 Z-8.9968 F1140.00
G1 X63.5000 Y438.2692 Z-8.9968 F1140.00
G1 X63.5000 Y430.6325 Z-8.9968 F1140.00
G1 X15.5000 Y478.6325 Z-8.9968 F1140.00
G1 X15.5000 Y470.9957 Z-8.9968 F1140.00
G1 X63.5000 Y422.9957 Z-8.9968 F1140.00
G1 X63.5000 Y415.3590 Z-8.9968 F1140.00
G1 X15.5000 Y463.3590 Z-8.9968 F1140.00
G1 X15.5000 Y455.7222 Z-8.9968 F1140.00
G1 X63.5000 Y407.7222 Z-8.9968 F1140.00
G1 X63.5000 Y400.0855 Z-8.9968 F1140.00
G1 X15.5000 Y448.0855 Z-8.9968 F1140.00
G1 X15.5000 Y440.4487 Z-8.9968 F1140.00
G1 X63.5000 Y392.4487 Z-8.9968 F1140.00
G1 X63.5000 Y384.8119 Z-8.9968 F1140.00
G1 X15.5000 Y432.8119 Z-8.9968 F1140.00
G1 X15.5000 Y425.1752 Z-8.9968 F1140.00
G1 X63.5000 Y377.1752 Z-8.9968 F1140.00
G1 X63.5000 Y369.5384 Z-8.9968 F1140.00
G1 X15.5000 Y417.5384 Z-8.9968 F1140.00
G1 X15.5000 Y409.9017 Z-8.9968 F1140.00
G1 X63.5000 Y361.9017 Z-8.9968 F1140.00
G1 X63.5000 Y354.2649 Z-8.9968 F1140.00
G1 X15.5000 Y402.2649 Z-8.9968 F1140.00
G1 X15.5000 Y394.6282 Z-8.9968 F1140.00
G1 X63.5000 Y346.6282 Z-8.9968 F1140.00
G1 X63.5000 Y338.9914 Z-8.9968 F1140.00
G1 X15.5000 Y386.9914 Z-8.9968 F1140.00
G1 X15.5000 Y379.3547 Z-8.9968 F1140.00
G1 X63.5000 Y331.3547 Z-8.9968 F1140.00
G1 X63.5000 Y323.7179 Z-8.9968 F1140.00
G1 X15.5000 Y371.7179 Z-8.9968 F1140.00
G1 X15.5000 Y364.0812 Z-8.9968 F1140.00
G1 X63.5000 Y316.0812 Z-8.9968 F1140.00
G1 X63.5000 Y308.4444 Z-8.9968 F1140.00
G1 X15.5000 Y356.4444 Z-8.9968 F1140.00
G1 X15.5000 Y348.8077 Z-8.9968 F1140.00
G1 X63.5000 Y300.8077 Z-8.9968 F1140.00
G1 X63.5000 Y293.1709 Z-8.9968 F1140.00
G1 X15.5000 Y341.1709 Z-8.9968 F1140.00
G1 X15.5000 Y333.5342 Z-8.9968 F1140.00
G1 X63.5000 Y285.5342 Z-8.9968 F1140.00
G1 X63.5000 Y277.8974 Z-8.9968 F1140.00
G1 X15.5000 Y325.8974 Z-8.9968 F1140.00
G1 X15.5000 Y318.2606 Z-8.9968 F1140.00
G1 X63.5000 Y270.2606 Z-8.9968 F1140.00
G1 X63.5000 Y262.6239 Z-8.9968 F1140.00
G1 X15.5000 Y310.6239 Z-8.9968 F1140.00
G1 X15.5000 Y302.9871 Z-8.9968 F1140.00
G1 X63.5000 Y254.9871 Z-8.9968 F1140.00
G1 X63.5000 Y247.3504 Z-8.9968 F1140.00
G1 X15.5000 Y295.3504 Z-8.9968 F1140.00
G1 X15.5000 Y287.7136 Z-8.9968 F1140.00
G1 X63.5000 Y239.7136 Z-8.9968 F1140.00
G1 X63.5000 Y232.0769 Z-8.9968 F1140.00
G1 X15.5000 Y280.0769 Z-8.9968 F1140.00
G1 X15.5000 Y272.4401 Z-8.9968 F1140.00
G1 X63.5000 Y224.4401 Z-8.9968 F1140.00
G1 X63.5000 Y216.8034 Z-8.9968 F1140.00
G1 X15.5000 Y264.8034 Z-8.9968 F1140.00
G1 X15.5000 Y257.1666 Z-8.9968 F1140.00
G1 X63.5000 Y209.1666 Z-8.9968 F1140.00
G1 X63.5000 Y201.5299 Z-8.9968 F1140.00
G1 X15.5000 Y249.5299 Z-8.9968 F1140.00
G1 X15.5000 Y241.8931 Z-8.9968 F1140.00
G1 X63.5000 Y193.8931 Z-8.9968 F1140.00
G1 X63.5000 Y186.2564 Z-8.9968 F1140.00
G1 X15.5000 Y234.2564 Z-8.9968 F1140.00
G1 X15.5000 Y226.6196 Z-8.9968 F1140.00
G1 X63.5000 Y178.6196 Z-8.9968 F1140.00
G1 X63.5000 Y170.9829 Z-8.9968 F1140.00
G1 X15.5000 Y218.9829 Z-8.9968 F1140.00
G1 X15.5000 Y211.3461 Z-8.9968 F1140.00
G1 X63.5000 Y163.3461 Z-8.9968 F1140.00
G1 X63.5000 Y155.7094 Z-8.9968 F1140.00
G1 X15.5000 Y203.7094 Z-8.9968 F1140.00
G1 X15.5000 Y196.0726 Z-8.9968 F1140.00
G1 X63.5000 Y148.0726 Z-8.9968 F1140.00
G1 X63.5000 Y140.4358 Z-8.9968 F1140.00
G1 X15.5000 Y188.4358 Z-8.9968 F1140.00
G1 X15.5000 Y180.7991 Z-8.9968 F1140.00
G1 X63.5000 Y132.7991 Z-8.9968 F1140.00
G1 X63.5000 Y125.1623 Z-8.9968 F1140.00
G1 X15.5000 Y173.1623 Z-8.9968 F1140.00
G1 X15.5000 Y165.5256 Z-8.9968 F1140.00
G1 X63.5000 Y117.5256 Z-8.9968 F1140.00
G1 X63.5000 Y109.8888 Z-8.9968 F1140.00
G1 X15.5000 Y157.8888 Z-8.9968 F1140.00
G1 X15.5000 Y150.2521 Z-8.9968 F1140.00
G1 X63.5000 Y102.2521 Z-8.9968 F1140.00
G1 X63.5000 Y94.6153 Z-8.9968 F1140.00
G1 X15.5000 Y142.6153 Z-8.9968 F1140.00
G1 X15.5000 Y134.9786 Z-8.9968 F1140.00
G1 X63.5000 Y86.9786 Z-8.9968 F1140.00
G1 X63.5000 Y79.3418 Z-8.9968 F1140.00
G1 X15.5000 Y127.3418 Z-8.9968 F1140.00
G1 X15.5000 Y119.7051 Z-8.9968 F1140.00
G1 X63.5000 Y71.7051 Z-8.9968 F1140.00
G1 X63.5000 Y64.0683 Z-8.9968 F1140.00
G1 X15.5000 Y112.0683 Z-8.9968 F1140.00
G1 X15.5000 Y104.4316 Z-8.9968 F1140.00
G1 X63.5000 Y56.4316 Z-8.9968 F1140.00
G1 X63.5000 Y48.7948 Z-8.9968 F1140.00
G1 X15.5000 Y96.7948 Z-8.9968 F1140.00
G1 X15.5000 Y89.1581 Z-8.9968 F1140.00
G1 X63.5000 Y41.1581 Z-8.9968 F1140.00
G1 X63.5000 Y33.5213 Z-8.9968 F1140.00
G1 X15.5000 Y81.5213 Z-8.9968 F1140.00
G1 X15.5000 Y73.8845 Z-8.9968 F1140.00
G1 X63.5000 Y25.8845 Z-8.9968 F1140.00
G1 X63.5000 Y18.2478 Z-8.9968 F1140.00
G1 X15.5000 Y66.2478 Z-8.9968 F1140.00
G1 X15.5000 Y58.6110 Z-8.9968 F1140.00
G1 X63.5000 Y10.6110 Z-8.9968 F1140.00
G1 X63.5000 Y3.0000 Z-8.9968 F1140.00
G1 X63.4743 Y3.0000 Z-8.9968 F1140.00
G1 X15.5000 Y50.9743 Z-8.9968 F1140.00
G1 X15.5000 Y43.3375 Z-8.9968 F1140.00
G1 X55.8375 Y3.0000 Z-8.9968 F1140.00
G1 X48.2008 Y3.0000 Z-8.9968 F1140.00
G1 X15.5000 Y35.7008 Z-8.9968 F1140.00
G1 X15.5000 Y28.0640 Z-8.9968 F1140.00
G1 X40.5640 Y3.0000 Z-8.9968 F1140.00
G1 X32.9273 Y3.0000 Z-8.9968 F1140.00
G1 X15.5000 Y20.4273 Z-8.9968 F1140.00
G1 X15.5000 Y12.7905 Z-8.9968 F1140.00
G1 X25.2905 Y3.0000 Z-8.9968 F1140.00
G1 X17.6538 Y3.0000 Z-8.9968 F1140.00
G1 X15.5000 Y3.0000 Z-8.9968 F1140.00
G1 X15.5000 Y5.1538 Z-8.9968 F1140.00
G1 X17.6538 Y3.0000 Z-8.9968 F1140.00
G1 X17.6538 Y3.0000 Z-9.7500 F1140.00
G1 X15.5000 Y5.1538 Z-9.7500 F1140.00
G1 X15.5000 Y3.0000 Z-9.7500 F1140.00
G1 X17.6538 Y3.0000 Z-9.7500 F1140.00
G1 X25.2905 Y3.0000 Z-9.7500 F1140.00
G1 X15.5000 Y12.7905 Z-9.7500 F1140.00
G1 X15.5000 Y20.4273 Z-9.7500 F1140.00
G1 X32.9273 Y3.0000 Z-9.7500 F1140.00
G1 X40.5640 Y3.0000 Z-9.7500 F1140.00
G1 X15.5000 Y28.0640 Z-9.7500 F1140.00
G1 X15.5000 Y35.7008 Z-9.7500 F1140.00
G1 X48.2008 Y3.0000 Z-9.7500 F1140.00
G1 X55.8375 Y3.0000 Z-9.7500 F1140.00
G1 X15.5000 Y43.3375 Z-9.7500 F1140.00
G1 X15.5000 Y50.9743 Z-9.7500 F1140.00
G1 X63.4743 Y3.0000 Z-9.7500 F1140.00
G1 X63.5000 Y3.0000 Z-9.7500 F1140.00
G1 X63.5000 Y10.6110 Z-9.7500 F1140.00
G1 X15.5000 Y58.6110 Z-9.7500 F1140.00
G1 X15.5000 Y66.2478 Z-9.7500 F1140.00
G1 X63.5000 Y18.2478 Z-9.7500 F1140.00
G1 X63.5000 Y25.8845 Z-9.7500 F1140.00
G1 X15.5000 Y73.8845 Z-9.7500 F1140.00
G1 X15.5000 Y81.5213 Z-9.7500 F1140.00
G1 X63.5000 Y33.5213 Z-9.7500 F1140.00
G1 X63.5000 Y41.1581 Z-9.7500 F1140.00
G1 X15.5000 Y89.1581 Z-9.7500 F1140.00
G1 X15.5000 Y96.7948 Z-9.7500 F1140.00
G1 X63.5000 Y48.7948 Z-9.7500 F1140.00
G1 X63.5000 Y56.4316 Z-9.7500 F1140.00
G1 X15.5000 Y104.4316 Z-9.7500 F1140.00
G1 X15.5000 Y112.0683 Z-9.7500 F1140.00
G1 X63.5000 Y64.0683 Z-9.7500 F1140.00
G1 X63.5000 Y71.7051 Z-9.7500 F1140.00
G1 X15.5000 Y119.7051 Z-9.7500 F1140.00
G1 X15.5000 Y127.3418 Z-9.7500 F1140.00
G1 X63.5000 Y79.3418 Z-9.7500 F1140.00
G1 X63.5000 Y86.9786 Z-9.7500 F1140.00
G1 X15.5000 Y134.9786 Z-9.7500 F1140.00
G1 X15.5000 Y142.6153 Z-9.7500 F1140.00
G1 X63.5000 Y94.6153 Z-9.7500 F1140.00
G1 X63.5000 Y102.2521 Z-9.7500 F1140.00
G1 X15.5000 Y150.2521 Z-9.7500 F1140.00
G1 X15.5000 Y157.8888 Z-9.7500 F1140.00
G1 X63.5000 Y109.8888 Z-9.7500 F1140.00
G1 X63.5000 Y117.5256 Z-9.7500 F1140.00
G1 X15.5000 Y165.5256 Z-9.7500 F1140.00
G1 X15.5000 Y173.1623 Z-9.7500 F1140.00
G1 X63.5000 Y125.1623 Z-9.7500 F1140.00
G1 X63.5000 Y132.7991 Z-9.7500 F1140.00
G1 X15.5000 Y180.7991 Z-9.7500 F1140.00
G1 X15.5000 Y188.4358 Z-9.7500 F1140.00
G1 X63.5000 Y140.4358 Z-9.7500 F1140.00
G1 X63.5000 Y148.0726 Z-9.7500 F1140.00
G1 X15.5000 Y196.0726 Z-9.7500 F1140.00
G1 X15.5000 Y203.7094 Z-9.7500 F1140.00
G1 X63.5000 Y155.7094 Z-9.7500 F1140.00
G1 X63.5000 Y163.3461 Z-9.7500 F1140.00
G1 X15.5000 Y211.3461 Z-9.7500 F1140.00
G1 X15.5000 Y218.9829 Z-9.7500 F1140.00
G1 X63.5000 Y170.9829 Z-9.7500 F1140.00
G1 X63.5000 Y178.6196 Z-9.7500 F1140.00
G1 X15.5000 Y226.6196 Z-9.7500 F1140.00
G1 X15.5000 Y234.2564 Z-9.7500 F1140.00
G1 X63.5000 Y186.2564 Z-9.7500 F1140.00
G1 X63.5000 Y193.8931 Z-9.7500 F1140.00
G1 X15.5000 Y241.8931 Z-9.7500 F1140.00
G1 X15.5000 Y249.5299 Z-9.7500 F1140.00
G1 X63.5000 Y201.5299 Z-9.7500 F1140.00
G1 X63.5000 Y209.1666 Z-9.7500 F1140.00
G1 X15.5000 Y257.1666 Z-9.7500 F1140.00
G1 X15.5000 Y264.8034 Z-9.7500 F1140.00
G1 X63.5000 Y216.8034 Z-9.7500 F1140.00
G1 X63.5000 Y224.4401 Z-9.7500 F1140.00
G1 X15.5000 Y272.4401 Z-9.7500 F1140.00
G1 X15.5000 Y280.0769 Z-9.7500 F1140.00
G1 X63.5000 Y232.0769 Z-9.7500 F1140.00
G1 X63.5000 Y239.7136 Z-9.7500 F1140.00
G1 X15.5000 Y287.7136 Z-9.7500 F1140.00
G1 X15.5000 Y295.3504 Z-9.7500 F1140.00
G1 X63.5000 Y247.3504 Z-9.7500 F1140.00
G1 X63.5000 Y254.9871 Z-9.7500 F1140.00
G1 X15.5000 Y302.9871 Z-9.7500 F1140.00
G1 X15.5000 Y310.6239 Z-9.7500 F1140.00
G1 X63.5000 Y262.6239 Z-9.7500 F1140.00
G1 X63.5000 Y270.2606 Z-9.7500 F1140.00
G1 X15.5000 Y318.2606 Z-9.7500 F1140.00
G1 X15.5000 Y325.8974 Z-9.7500 F1140.00
G1 X63.5000 Y277.8974 Z-9.7500 F1140.00
G1 X63.5000 Y285.5342 Z-9.7500 F1140.00
G1 X15.5000 Y333.5342 Z-9.7500 F1140.00
G1 X15.5000 Y341.1709 Z-9.7500 F1140.00
G1 X63.5000 Y293.1709 Z-9.7500 F1140.00
G1 X63.5000 Y300.8077 Z-9.7500 F1140.00
G1 X15.5000 Y348.8077 Z-9.7500 F1140.00
G1 X15.5000 Y356.4444 Z-9.7500 F1140.00
G1 X63.5000 Y308.4444 Z-9.7500 F1140.00
G1 X63.5000 Y316.0812 Z-9.7500 F1140.00
G1 X15.5000 Y364.0812 Z-9.7500 F1140.00
G1 X15.5000 Y371.7179 Z-9.7500 F1140.00
G1 X63.5000 Y323.7179 Z-9.7500 F1140.00
G1 X63.5000 Y331.3547 Z-9.7500 F1140.00
G1 X15.5000 Y379.3547 Z-9.7500 F1140.00
G1 X15.5000 Y386.9914 Z-9.7500 F1140.00
G1 X63.5000 Y338.9914 Z-9.7500 F1140.00
G1 X63.5000 Y346.6282 Z-9.7500 F1140.00
G1 X15.5000 Y394.6282 Z-9.7500 F1140.00
G1 X15.5000 Y402.2649 Z-9.7500 F1140.00
G1 X63.5000 Y354.2649 Z-9.7500 F1140.00
G1 X63.5000 Y361.9017 Z-9.7500 F1140.00
G1 X15.5000 Y409.9017 Z-9.7500 F1140.00
G1 X15.5000 Y417.5384 Z-9.7500 F1140.00
G1 X63.5000 Y369.5384 Z-9.7500 F1140.00
G1 X63.5000 Y377.1752 Z-9.7500 F1140.00
G1 X15.5000 Y425.1752 Z-9.7500 F1140.00
G1 X15.5000 Y432.8119 Z-9.7500 F1140.00
G1 X63.5000 Y384.8119 Z-9.7500 F1140.00
G1 X63.5000 Y392.4487 Z-9.7500 F1140.00
G1 X15.5000 Y440.4487 Z-9.7500 F1140.00
G1 X15.5000 Y448.0855 Z-9.7500 F1140.00
G1 X63.5000 Y400.0855 Z-9.7500 F1140.00
G1 X63.5000 Y407.7222 Z-9.7500 F1140.00
G1 X15.5000 Y455.7222 Z-9.7500 F1140.00
G1 X15.5000 Y463.3590 Z-9.7500 F1140.00
G1 X63.5000 Y415.3590 Z-9.7500 F1140.00
G1 X63.5000 Y422.9957 Z-9.7500 F1140.00
G1 X15.5000 Y470.9957 Z-9.7500 F1140.00
G1 X15.5000 Y478.6325 Z-9.7500 F1140.00
G1 X63.5000 Y430.6325 Z-9.7500 F1140.00
G1 X63.5000 Y438.2692 Z-9.7500 F1140.00
G1 X15.5000 Y486.2692 Z-9.7500 F1140.00
G1 X15.5000 Y493.9060 Z-9.7500 F1140.00
G1 X63.5000 Y445.9060 Z-9.7500 F1140.00
G1 X63.5000 Y453.5427 Z-9.7500 F1140.00
G1 X15.5000 Y501.5427 Z-9.7500 F1140.00
G1 X15.5000 Y507.0000 Z-9.7500 F1140.00
G1 X17.6795 Y507.0000 Z-9.7500 F1140.00
G1 X63.5000 Y461.1795 Z-9.7500 F1140.00
G1 X63.5000 Y468.8162 Z-9.7500 F1140.00
G1 X25.3162 Y507.0000 Z-9.7500 F1140.00
G1 X32.9530 Y507.0000 Z-9.7500 F1140.00
G1 X63.5000 Y476.4530 Z-9.7500 F1140.00
G1 X63.5000 Y484.0897 Z-9.7500 F1140.00
G1 X40.5897 Y507.0000 Z-9.7500 F1140.00
G1 X48.2265 Y507.0000 Z-9.7500 F1140.00
G1 X63.5000 Y491.7265 Z-9.7500 F1140.00
G1 X63.5000 Y499.3632 Z-9.7500 F1140.00
G1 X55.8632 Y507.0000 Z-9.7500 F1140.00
G1 X63.5000 Y507.0000 Z-9.7500 F1140.00
G0 Z5.0032
(finish operation: MillFace)
(begin operation: Profile_Faces)
(Path: Profile_Faces)
(Profile_Faces)
(Compensated Tool Path. Diameter: 6.0)
G0 Z5.0032
G0 X50.0364 Y510.3976
G0 Z3.0032
G1 X50.0364 Y510.3976 Z-1.0000 F1140.00
G2 X50.0530 Y510.2426 Z-1.0000 I-2.9735 J-0.3976 F1140.00
G1 X50.2909 Y507.3105 Z-1.0000 F1140.00
G2 X50.5000 Y506.2321 Z-1.0000 I-2.0830 J-0.9633 F1140.00
G1 X50.5000 Y367.9984 Z-1.0000 F1140.00
G3 X51.0895 Y365.9005 Z-1.0000 I23.4474 J5.4568 F1140.00
G2 X48.2278 Y362.0000 Z-1.0000 I-2.8617 J-0.9005 F1140.00
G1 X44.0000 Y362.0000 Z-1.0000 F1140.00
G2 X41.0000 Y365.0000 Z-1.0000 I-0.0000 J3.0000 F1140.00
G1 X41.0000 Y510.0000 Z-1.0000 F1140.00
G2 X44.0000 Y513.0000 Z-1.0000 I3.0000 J-0.0000 F1140.00
G1 X47.0628 Y513.0000 Z-1.0000 F1140.00
G2 X50.0364 Y510.3976 Z-1.0000 I0.0000 J-3.0000 F1140.00
G0 X50.0364 Y510.3976 Z5.0032
G0 X18.9998 Y510.0350 Z5.0032
G0 X18.9998 Y510.0350 Z2.0032
G1 X18.9998 Y510.0350 Z-1.0000 F1140.00
G2 X19.0000 Y510.0000 Z-1.0000 I-2.9998 J-0.0350 F1140.00
G1 X19.0000 Y365.0000 Z-1.0000 F1140.00
G2 X18.9338 Y364.4211 Z-1.0000 I-2.0730 J-0.0561 F1140.00
G1 X18.9338 Y65.0000 Z-1.0000 F1140.00
G2 X15.9338 Y62.0000 Z-1.0000 I-3.0000 J0.0000 F1140.00
G1 X12.5000 Y62.0000 Z-1.0000 F1140.00
G2 X9.5000 Y65.0000 Z-1.0000 I0.0000 J3.0000 F1140.00
G1 X9.5000 Y506.2321 Z-1.0000 F1140.00
G2 X9.7104 Y507.3272 Z-1.0000 I2.9057 J0.0094 F1140.00
G1 X9.9470 Y510.2426 Z-1.0000 F1140.00
G2 X12.9372 Y513.0000 Z-1.0000 I2.9902 J-0.2426 F1140.00
G1 X16.0000 Y513.0000 Z-1.0000 F1140.00
G2 X18.9998 Y510.0350 Z-1.0000 I-0.0000 J-3.0000 F1140.00
G0 X18.9998 Y510.0350 Z5.0032
G0 X62.2775 Y351.2180 Z5.0032
G0 X62.2775 Y351.2180 Z2.0032
G1 X62.2775 Y351.2180 Z-1.0000 F1140.00
G2 X64.2819 Y351.0662 Z-1.0000 I0.7887 J-2.8945 F1140.00
G3 X67.4396 Y349.8491 Z-1.0000 I10.6865 J23.0206 F1140.00
G2 X69.5000 Y347.0000 Z-1.0000 I-0.9396 J-2.8491 F1140.00
G1 X69.5000 Y65.0000 Z-1.0000 F1140.00
G2 X66.5000 Y62.0000 Z-1.0000 I-3.0000 J0.0000 F1140.00
G1 X63.0662 Y62.0000 Z-1.0000 F1140.00
G2 X60.0662 Y65.0000 Z-1.0000 I0.0000 J3.0000 F1140.00
G1 X60.0662 Y348.3235 Z-1.0000 F1140.00
G2 X62.2775 Y351.2180 Z-1.0000 I3.0000 J-0.0000 F1140.00
G1 X62.2775 Y351.2180 Z-2.0000 F1140.00
G2 X64.2819 Y351.0662 Z-2.0000 I0.7887 J-2.8945 F1140.00
G3 X67.4396 Y349.8491 Z-2.0000 I10.6865 J23.0206 F1140.00
G2 X69.5000 Y347.0000 Z-2.0000 I-0.9396 J-2.8491 F1140.00
G1 X69.5000 Y65.0000 Z-2.0000 F1140.00
G2 X66.5000 Y62.0000 Z-2.0000 I-3.0000 J0.0000 F1140.00
G1 X63.0662 Y62.0000 Z-2.0000 F1140.00
G2 X60.0662 Y65.0000 Z-2.0000 I0.0000 J3.0000 F1140.00
G1 X60.0662 Y348.3235 Z-2.0000 F1140.00
G2 X62.2775 Y351.2180 Z-2.0000 I3.0000 J-0.0000 F1140.00
G0 X62.2775 Y351.2180 Z5.0032
G0 X50.3695 Y362.8992 Z5.0032
G0 X50.3695 Y362.8992 Z1.0032
G1 X50.3695 Y362.8992 Z-2.0000 F1140.00
G2 X48.2278 Y362.0000 Z-2.0000 I-2.1416 J2.1008 F1140.00
G1 X44.0000 Y362.0000 Z-2.0000 F1140.00
G2 X41.0000 Y365.0000 Z-2.0000 I-0.0000 J3.0000 F1140.00
G1 X41.0000 Y510.0000 Z-2.0000 F1140.00
G2 X44.0000 Y513.0000 Z-2.0000 I3.0000 J-0.0000 F1140.00
G1 X47.0628 Y513.0000 Z-2.0000 F1140.00
G2 X50.0530 Y510.2426 Z-2.0000 I0.0000 J-3.0000 F1140.00
G1 X50.2909 Y507.3105 Z-2.0000 F1140.00
G2 X50.5000 Y506.2321 Z-2.0000 I-2.0830 J-0.9633 F1140.00
G1 X50.5000 Y367.9984 Z-2.0000 F1140.00
G3 X51.0895 Y365.9005 Z-2.0000 I23.4474 J5.4568 F1140.00
G2 X50.3695 Y362.8992 Z-2.0000 I-2.8617 J-0.9005 F1140.00
G0 X50.3695 Y362.8992 Z5.0032
G0 X18.9969 Y364.8174 Z5.0032
G0 X18.9969 Y364.8174 Z1.0032
G1 X18.9969 Y364.8174 Z-2.0000 F1140.00
G2 X18.9338 Y364.4211 Z-2.0000 I-2.0699 J0.1266 F1140.00
G1 X18.9338 Y65.0000 Z-2.0000 F1140.00
G2 X15.9338 Y62.0000 Z-2.0000 I-3.0000 J0.0000 F1140.00
G1 X12.5000 Y62.0000 Z-2.0000 F1140.00
G2 X9.5000 Y65.0000 Z-2.0000 I0.0000 J3.0000 F1140.00
G1 X9.5000 Y506.2321 Z-2.0000 F1140.00
G2 X9.7104 Y507.3272 Z-2.0000 I2.9057 J0.0094 F1140.00
G1 X9.9470 Y510.2426 Z-2.0000 F1140.00
G2 X12.9372 Y513.0000 Z-2.0000 I2.9902 J-0.2426 F1140.00
G1 X16.0000 Y513.0000 Z-2.0000 F1140.00
G2 X19.0000 Y510.0000 Z-2.0000 I-0.0000 J-3.0000 F1140.00
G1 X19.0000 Y365.0000 Z-2.0000 F1140.00
G2 X18.9969 Y364.8174 Z-2.0000 I-2.0730 J-0.0561 F1140.00
G1 X18.9969 Y364.8174 Z-3.0000 F1140.00
G2 X18.9338 Y364.4211 Z-3.0000 I-2.0699 J0.1266 F1140.00
G1 X18.9338 Y65.0000 Z-3.0000 F1140.00
G2 X15.9338 Y62.0000 Z-3.0000 I-3.0000 J0.0000 F1140.00
G1 X12.5000 Y62.0000 Z-3.0000 F1140.00
G2 X9.5000 Y65.0000 Z-3.0000 I0.0000 J3.0000 F1140.00
G1 X9.5000 Y506.2321 Z-3.0000 F1140.00
G2 X9.7104 Y507.3272 Z-3.0000 I2.9057 J0.0094 F1140.00
G1 X9.9470 Y510.2426 Z-3.0000 F1140.00
G2 X12.9372 Y513.0000 Z-3.0000 I2.9902 J-0.2426 F1140.00
G1 X16.0000 Y513.0000 Z-3.0000 F1140.00
G2 X19.0000 Y510.0000 Z-3.0000 I-0.0000 J-3.0000 F1140.00
G1 X19.0000 Y365.0000 Z-3.0000 F1140.00
G2 X18.9969 Y364.8174 Z-3.0000 I-2.0730 J-0.0561 F1140.00
G0 X18.9969 Y364.8174 Z5.0032
G0 X41.0001 Y364.9781 Z5.0032
G0 X41.0001 Y364.9781 Z0.0032
G1 X41.0001 Y364.9781 Z-3.0000 F1140.00
G2 X41.0000 Y365.0000 Z-3.0000 I2.9999 J0.0219 F1140.00
G1 X41.0000 Y510.0000 Z-3.0000 F1140.00
G2 X44.0000 Y513.0000 Z-3.0000 I3.0000 J-0.0000 F1140.00
G1 X47.0628 Y513.0000 Z-3.0000 F1140.00
G2 X50.0530 Y510.2426 Z-3.0000 I0.0000 J-3.0000 F1140.00
G1 X50.2909 Y507.3105 Z-3.0000 F1140.00
G2 X50.5000 Y506.2321 Z-3.0000 I-2.0830 J-0.9633 F1140.00
G1 X50.5000 Y367.9984 Z-3.0000 F1140.00
G3 X51.0895 Y365.9005 Z-3.0000 I23.4474 J5.4568 F1140.00
G2 X48.2278 Y362.0000 Z-3.0000 I-2.8617 J-0.9005 F1140.00
G1 X44.0000 Y362.0000 Z-3.0000 F1140.00
G2 X41.0001 Y364.9781 Z-3.0000 I-0.0000 J3.0000 F1140.00
G0 X41.0001 Y364.9781 Z5.0032
G0 X60.6717 Y350.1308 Z5.0032
G0 X60.6717 Y350.1308 Z0.0032
G1 X60.6717 Y350.1308 Z-3.0000 F1140.00
G2 X64.2819 Y351.0662 Z-3.0000 I2.3945 J-1.8073 F1140.00
G3 X67.4396 Y349.8491 Z-3.0000 I10.6865 J23.0206 F1140.00
G2 X69.5000 Y347.0000 Z-3.0000 I-0.9396 J-2.8491 F1140.00
G1 X69.5000 Y65.0000 Z-3.0000 F1140.00
G2 X66.5000 Y62.0000 Z-3.0000 I-3.0000 J0.0000 F1140.00
G1 X63.0662 Y62.0000 Z-3.0000 F1140.00
G2 X60.0662 Y65.0000 Z-3.0000 I0.0000 J3.0000 F1140.00
G1 X60.0662 Y348.3235 Z-3.0000 F1140.00
G2 X60.6717 Y350.1308 Z-3.0000 I3.0000 J-0.0000 F1140.00
G1 X60.6717 Y350.1308 Z-4.0000 F1140.00
G2 X64.2819 Y351.0662 Z-4.0000 I2.3945 J-1.8073 F1140.00
G3 X67.4396 Y349.8491 Z-4.0000 I10.6865 J23.0206 F1140.00
G2 X69.5000 Y347.0000 Z-4.0000 I-0.9396 J-2.8491 F1140.00
G1 X69.5000 Y65.0000 Z-4.0000 F1140.00
G2 X66.5000 Y62.0000 Z-4.0000 I-3.0000 J0.0000 F1140.00
G1 X63.0662 Y62.0000 Z-4.0000 F1140.00
G2 X60.0662 Y65.0000 Z-4.0000 I0.0000 J3.0000 F1140.00
G1 X60.0662 Y348.3235 Z-4.0000 F1140.00
G2 X60.6717 Y350.1308 Z-4.0000 I3.0000 J-0.0000 F1140.00
G0 X60.6717 Y350.1308 Z5.0032
G0 X50.1532 Y362.6994 Z5.0032
G0 X50.1532 Y362.6994 Z-0.9968
G1 X50.1532 Y362.6994 Z-4.0000 F1140.00
G2 X48.2278 Y362.0000 Z-4.0000 I-1.9254 J2.3006 F1140.00
G1 X44.0000 Y362.0000 Z-4.0000 F1140.00
G2 X41.0000 Y365.0000 Z-4.0000 I-0.0000 J3.0000 F1140.00
G1 X41.0000 Y510.0000 Z-4.0000 F1140.00
G2 X44.0000 Y513.0000 Z-4.0000 I3.0000 J-0.0000 F1140.00
G1 X47.0628 Y513.0000 Z-4.0000 F1140.00
G2 X50.0530 Y510.2426 Z-4.0000 I0.0000 J-3.0000 F1140.00
G1 X50.2909 Y507.3105 Z-4.0000 F1140.00
G2 X50.5000 Y506.2321 Z-4.0000 I-2.0830 J-0.9633 F1140.00
G1 X50.5000 Y367.9984 Z-4.0000 F1140.00
G3 X51.0895 Y365.9005 Z-4.0000 I23.4474 J5.4568 F1140.00
G2 X50.1532 Y362.6994 Z-4.0000 I-2.8617 J-0.9005 F1140.00
G0 X50.1532 Y362.6994 Z5.0032
G0 X18.9338 Y362.6994 Z5.0032
G0 X18.9338 Y362.6994 Z-0.9968
G1 X18.9338 Y362.6994 Z-4.0000 F1140.00
G1 X18.9338 Y65.0000 Z-4.0000 F1140.00
G2 X15.9338 Y62.0000 Z-4.0000 I-3.0000 J0.0000 F1140.00
G1 X12.5000 Y62.0000 Z-4.0000 F1140.00
G2 X9.5000 Y65.0000 Z-4.0000 I0.0000 J3.0000 F1140.00
G1 X9.5000 Y506.2321 Z-4.0000 F1140.00
G2 X9.7104 Y507.3272 Z-4.0000 I2.9057 J0.0094 F1140.00
G1 X9.9470 Y510.2426 Z-4.0000 F1140.00
G2 X12.9372 Y513.0000 Z-4.0000 I2.9902 J-0.2426 F1140.00
G1 X16.0000 Y513.0000 Z-4.0000 F1140.00
G2 X19.0000 Y510.0000 Z-4.0000 I-0.0000 J-3.0000 F1140.00
G1 X19.0000 Y365.0000 Z-4.0000 F1140.00
G2 X18.9338 Y364.4211 Z-4.0000 I-2.0730 J-0.0561 F1140.00
G1 X18.9338 Y362.6994 Z-4.0000 F1140.00
G1 X18.9338 Y362.6994 Z-5.0000 F1140.00
G1 X18.9338 Y65.0000 Z-5.0000 F1140.00
G2 X15.9338 Y62.0000 Z-5.0000 I-3.0000 J0.0000 F1140.00
G1 X12.5000 Y62.0000 Z-5.0000 F1140.00
G2 X9.5000 Y65.0000 Z-5.0000 I0.0000 J3.0000 F1140.00
G1 X9.5000 Y506.2321 Z-5.0000 F1140.00
G2 X9.7104 Y507.3272 Z-5.0000 I2.9057 J0.0094 F1140.00
G1 X9.9470 Y510.2426 Z-5.0000 F1140.00
G2 X12.9372 Y513.0000 Z-5.0000 I2.9902 J-0.2426 F1140.00
G1 X16.0000 Y513.0000 Z-5.0000 F1140.00
G2 X19.0000 Y510.0000 Z-5.0000 I-0.0000 J-3.0000 F1140.00
G1 X19.0000 Y365.0000 Z-5.0000 F1140.00
G2 X18.9338 Y364.4211 Z-5.0000 I-2.0730 J-0.0561 F1140.00
G1 X18.9338 Y362.6994 Z-5.0000 F1140.00
G0 X18.9338 Y362.6994 Z5.0032
G0 X41.0126 Y364.7258 Z5.0032
G0 X41.0126 Y364.7258 Z-1.9968
G1 X41.0126 Y364.7258 Z-5.0000 F1140.00
G2 X41.0000 Y365.0000 Z-5.0000 I2.9874 J0.2742 F1140.00
G1 X41.0000 Y510.0000 Z-5.0000 F1140.00
G2 X44.0000 Y513.0000 Z-5.0000 I3.0000 J-0.0000 F1140.00
G1 X47.0628 Y513.0000 Z-5.0000 F1140.00
G2 X50.0530 Y510.2426 Z-5.0000 I0.0000 J-3.0000 F1140.00
G1 X50.2909 Y507.3105 Z-5.0000 F1140.00
G2 X50.5000 Y506.2321 Z-5.0000 I-2.0830 J-0.9633 F1140.00
G1 X50.5000 Y367.9984 Z-5.0000 F1140.00
G3 X51.0895 Y365.9005 Z-5.0000 I23.4474 J5.4568 F1140.00
G2 X48.2278 Y362.0000 Z-5.0000 I-2.8617 J-0.9005 F1140.00
G1 X44.0000 Y362.0000 Z-5.0000 F1140.00
G2 X41.0126 Y364.7258 Z-5.0000 I-0.0000 J3.0000 F1140.00
G0 X41.0126 Y364.7258 Z5.0032
G0 X60.6590 Y350.1139 Z5.0032
G0 X60.6590 Y350.1139 Z-1.9968
G1 X60.6590 Y350.1139 Z-5.0000 F1140.00
G2 X64.2819 Y351.0662 Z-5.0000 I2.4072 J-1.7903 F1140.00
G3 X67.4396 Y349.8491 Z-5.0000 I10.6865 J23.0206 F1140.00
G2 X69.5000 Y347.0000 Z-5.0000 I-0.9396 J-2.8491 F1140.00
G1 X69.5000 Y65.0000 Z-5.0000 F1140.00
G2 X66.5000 Y62.0000 Z-5.0000 I-3.0000 J0.0000 F1140.00
G1 X63.0662 Y62.0000 Z-5.0000 F1140.00
G2 X60.0662 Y65.0000 Z-5.0000 I0.0000 J3.0000 F1140.00
G1 X60.0662 Y348.3235 Z-5.0000 F1140.00
G2 X60.6590 Y350.1139 Z-5.0000 I3.0000 J-0.0000 F1140.00
G1 X60.6590 Y350.1139 Z-6.0000 F1140.00
G2 X64.2819 Y351.0662 Z-6.0000 I2.4072 J-1.7903 F1140.00
G3 X67.4396 Y349.8491 Z-6.0000 I10.6865 J23.0206 F1140.00
G2 X69.5000 Y347.0000 Z-6.0000 I-0.9396 J-2.8491 F1140.00
G1 X69.5000 Y65.0000 Z-6.0000 F1140.00
G2 X66.5000 Y62.0000 Z-6.0000 I-3.0000 J0.0000 F1140.00
G1 X63.0662 Y62.0000 Z-6.0000 F1140.00
G2 X60.0662 Y65.0000 Z-6.0000 I0.0000 J3.0000 F1140.00
G1 X60.0662 Y348.3235 Z-6.0000 F1140.00
G2 X60.6590 Y350.1139 Z-6.0000 I3.0000 J-0.0000 F1140.00
G0 X60.6590 Y350.1139 Z5.0032
G0 X50.1508 Y362.6973 Z5.0032
G0 X50.1508 Y362.6973 Z-2.9968
G1 X50.1508 Y362.6973 Z-6.0000 F1140.00
G2 X48.2278 Y362.0000 Z-6.0000 I-1.9229 J2.3027 F1140.00
G1 X44.0000 Y362.0000 Z-6.0000 F1140.00
G2 X41.0000 Y365.0000 Z-6.0000 I-0.0000 J3.0000 F1140.00
G1 X41.0000 Y510.0000 Z-6.0000 F1140.00
G2 X44.0000 Y513.0000 Z-6.0000 I3.0000 J-0.0000 F1140.00
G1 X47.0628 Y513.0000 Z-6.0000 F1140.00
G2 X50.0530 Y510.2426 Z-6.0000 I0.0000 J-3.0000 F1140.00
G1 X50.2909 Y507.3105 Z-6.0000 F1140.00
G2 X50.5000 Y506.2321 Z-6.0000 I-2.0830 J-0.9633 F1140.00
G1 X50.5000 Y367.9984 Z-6.0000 F1140.00
G3 X51.0895 Y365.9005 Z-6.0000 I23.4474 J5.4568 F1140.00
G2 X50.1508 Y362.6973 Z-6.0000 I-2.8617 J-0.9005 F1140.00
G0 X50.1508 Y362.6973 Z5.0032
G0 X18.9338 Y362.6973 Z5.0032
G0 X18.9338 Y362.6973 Z-2.9968
G1 X18.9338 Y362.6973 Z-6.0000 F1140.00
G1 X18.9338 Y65.0000 Z-6.0000 F1140.00
G2 X15.9338 Y62.0000 Z-6.0000 I-3.0000 J0.0000 F1140.00
G1 X12.5000 Y62.0000 Z-6.0000 F1140.00
G2 X9.5000 Y65.0000 Z-6.0000 I0.0000 J3.0000 F1140.00
G1 X9.5000 Y506.2321 Z-6.0000 F1140.00
G2 X9.7104 Y507.3272 Z-6.0000 I2.9057 J0.0094 F1140.00
G1 X9.9470 Y510.2426 Z-6.0000 F1140.00
G2 X12.9372 Y513.0000 Z-6.0000 I2.9902 J-0.2426 F1140.00
G1 X16.0000 Y513.0000 Z-6.0000 F1140.00
G2 X19.0000 Y510.0000 Z-6.0000 I-0.0000 J-3.0000 F1140.00
G1 X19.0000 Y365.0000 Z-6.0000 F1140.00
G2 X18.9338 Y364.4211 Z-6.0000 I-2.0730 J-0.0561 F1140.00
G1 X18.9338 Y362.6973 Z-6.0000 F1140.00
G1 X18.9338 Y362.6973 Z-7.0000 F1140.00
G1 X18.9338 Y65.0000 Z-7.0000 F1140.00
G2 X15.9338 Y62.0000 Z-7.0000 I-3.0000 J0.0000 F1140.00
G1 X12.5000 Y62.0000 Z-7.0000 F1140.00
G2 X9.5000 Y65.0000 Z-7.0000 I0.0000 J3.0000 F1140.00
G1 X9.5000 Y506.2321 Z-7.0000 F1140.00
G2 X9.7104 Y507.3272 Z-7.0000 I2.9057 J0.0094 F1140.00
G1 X9.9470 Y510.2426 Z-7.0000 F1140.00
G2 X12.9372 Y513.0000 Z-7.0000 I2.9902 J-0.2426 F1140.00
G1 X16.0000 Y513.0000 Z-7.0000 F1140.00
G2 X19.0000 Y510.0000 Z-7.0000 I-0.0000 J-3.0000 F1140.00
G1 X19.0000 Y365.0000 Z-7.0000 F1140.00
G2 X18.9338 Y364.4211 Z-7.0000 I-2.0730 J-0.0561 F1140.00
G1 X18.9338 Y362.6973 Z-7.0000 F1140.00
G0 X18.9338 Y362.6973 Z5.0032
G0 X41.0126 Y364.7256 Z5.0032
G0 X41.0126 Y364.7256 Z-3.9968
G1 X41.0126 Y364.7256 Z-7.0000 F1140.00
G2 X41.0000 Y365.0000 Z-7.0000 I2.9874 J0.2744 F1140.00
G1 X41.0000 Y510.0000 Z-7.0000 F1140.00
G2 X44.0000 Y513.0000 Z-7.0000 I3.0000 J-0.0000 F1140.00
G1 X47.0628 Y513.0000 Z-7.0000 F1140.00
G2 X50.0530 Y510.2426 Z-7.0000 I0.0000 J-3.0000 F1140.00
G1 X50.2909 Y507.3105 Z-7.0000 F1140.00
G2 X50.5000 Y506.2321 Z-7.0000 I-2.0830 J-0.9633 F1140.00
G1 X50.5000 Y367.9984 Z-7.0000 F1140.00
G3 X51.0895 Y365.9005 Z-7.0000 I23.4474 J5.4568 F1140.00
G2 X48.2278 Y362.0000 Z-7.0000 I-2.8617 J-0.9005 F1140.00
G1 X44.0000 Y362.0000 Z-7.0000 F1140.00
G2 X41.0126 Y364.7256 Z-7.0000 I-0.0000 J3.0000 F1140.00
G0 X41.0126 Y364.7256 Z5.0032
G0 X60.6590 Y350.1138 Z5.0032
G0 X60.6590 Y350.1138 Z-3.9968
G1 X60.6590 Y350.1138 Z-7.0000 F1140.00
G2 X64.2819 Y351.0662 Z-7.0000 I2.4072 J-1.7903 F1140.00
G3 X67.4396 Y349.8491 Z-7.0000 I10.6865 J23.0206 F1140.00
G2 X69.5000 Y347.0000 Z-7.0000 I-0.9396 J-2.8491 F1140.00
G1 X69.5000 Y65.0000 Z-7.0000 F1140.00
G2 X66.5000 Y62.0000 Z-7.0000 I-3.0000 J0.0000 F1140.00
G1 X63.0662 Y62.0000 Z-7.0000 F1140.00
G2 X60.0662 Y65.0000 Z-7.0000 I0.0000 J3.0000 F1140.00
G1 X60.0662 Y348.3235 Z-7.0000 F1140.00
G2 X60.6590 Y350.1138 Z-7.0000 I3.0000 J-0.0000 F1140.00
G1 X60.6590 Y350.1138 Z-8.0000 F1140.00
G2 X64.2819 Y351.0662 Z-8.0000 I2.4072 J-1.7903 F1140.00
G3 X67.4396 Y349.8491 Z-8.0000 I10.6865 J23.0206 F1140.00
G2 X69.5000 Y347.0000 Z-8.0000 I-0.9396 J-2.8491 F1140.00
G1 X69.5000 Y65.0000 Z-8.0000 F1140.00
G2 X66.5000 Y62.0000 Z-8.0000 I-3.0000 J0.0000 F1140.00
G1 X63.0662 Y62.0000 Z-8.0000 F1140.00
G2 X60.0662 Y65.0000 Z-8.0000 I0.0000 J3.0000 F1140.00
G1 X60.0662 Y348.3235 Z-8.0000 F1140.00
G2 X60.6590 Y350.1138 Z-8.0000 I3.0000 J-0.0000 F1140.00
G0 X60.6590 Y350.1138 Z5.0032
G0 X50.1508 Y362.6973 Z5.0032
G0 X50.1508 Y362.6973 Z-4.9968
G1 X50.1508 Y362.6973 Z-8.0000 F1140.00
G2 X48.2278 Y362.0000 Z-8.0000 I-1.9229 J2.3027 F1140.00
G1 X44.0000 Y362.0000 Z-8.0000 F1140.00
G2 X41.0000 Y365.0000 Z-8.0000 I-0.0000 J3.0000 F1140.00
G1 X41.0000 Y510.0000 Z-8.0000 F1140.00
G2 X44.0000 Y513.0000 Z-8.0000 I3.0000 J-0.0000 F1140.00
G1 X47.0628 Y513.0000 Z-8.0000 F1140.00
G2 X50.0530 Y510.2426 Z-8.0000 I0.0000 J-3.0000 F1140.00
G1 X50.2909 Y507.3105 Z-8.0000 F1140.00
G2 X50.5000 Y506.2321 Z-8.0000 I-2.0830 J-0.9633 F1140.00
G1 X50.5000 Y367.9984 Z-8.0000 F1140.00
G3 X51.0895 Y365.9005 Z-8.0000 I23.4474 J5.4568 F1140.00
G2 X50.1508 Y362.6973 Z-8.0000 I-2.8617 J-0.9005 F1140.00
G0 X50.1508 Y362.6973 Z5.0032
G0 X18.9338 Y362.6973 Z5.0032
G0 X18.9338 Y362.6973 Z-4.9968
G1 X18.9338 Y362.6973 Z-8.0000 F1140.00
G1 X18.9338 Y65.0000 Z-8.0000 F1140.00
G2 X15.9338 Y62.0000 Z-8.0000 I-3.0000 J0.0000 F1140.00
G1 X12.5000 Y62.0000 Z-8.0000 F1140.00
G2 X9.5000 Y65.0000 Z-8.0000 I0.0000 J3.0000 F1140.00
G1 X9.5000 Y506.2321 Z-8.0000 F1140.00
G2 X9.7104 Y507.3272 Z-8.0000 I2.9057 J0.0094 F1140.00
G1 X9.9470 Y510.2426 Z-8.0000 F1140.00
G2 X12.9372 Y513.0000 Z-8.0000 I2.9902 J-0.2426 F1140.00
G1 X16.0000 Y513.0000 Z-8.0000 F1140.00
G2 X19.0000 Y510.0000 Z-8.0000 I-0.0000 J-3.0000 F1140.00
G1 X19.0000 Y365.0000 Z-8.0000 F1140.00
G2 X18.9338 Y364.4211 Z-8.0000 I-2.0730 J-0.0561 F1140.00
G1 X18.9338 Y362.6973 Z-8.0000 F1140.00
G1 X18.9338 Y362.6973 Z-9.0000 F1140.00
G1 X18.9338 Y65.0000 Z-9.0000 F1140.00
G2 X15.9338 Y62.0000 Z-9.0000 I-3.0000 J0.0000 F1140.00
G1 X12.5000 Y62.0000 Z-9.0000 F1140.00
G2 X9.5000 Y65.0000 Z-9.0000 I0.0000 J3.0000 F1140.00
G1 X9.5000 Y506.2321 Z-9.0000 F1140.00
G2 X9.7104 Y507.3272 Z-9.0000 I2.9057 J0.0094 F1140.00
G1 X9.9470 Y510.2426 Z-9.0000 F1140.00
G2 X12.9372 Y513.0000 Z-9.0000 I2.9902 J-0.2426 F1140.00
G1 X16.0000 Y513.0000 Z-9.0000 F1140.00
G2 X19.0000 Y510.0000 Z-9.0000 I-0.0000 J-3.0000 F1140.00
G1 X19.0000 Y365.0000 Z-9.0000 F1140.00
G2 X18.9338 Y364.4211 Z-9.0000 I-2.0730 J-0.0561 F1140.00
G1 X18.9338 Y362.6973 Z-9.0000 F1140.00
G0 X18.9338 Y362.6973 Z5.0032
G0 X41.0126 Y364.7256 Z5.0032
G0 X41.0126 Y364.7256 Z-5.9968
G1 X41.0126 Y364.7256 Z-9.0000 F1140.00
G2 X41.0000 Y365.0000 Z-9.0000 I2.9874 J0.2744 F1140.00
G1 X41.0000 Y510.0000 Z-9.0000 F1140.00
G2 X44.0000 Y513.0000 Z-9.0000 I3.0000 J-0.0000 F1140.00
G1 X47.0628 Y513.0000 Z-9.0000 F1140.00
G2 X50.0530 Y510.2426 Z-9.0000 I0.0000 J-3.0000 F1140.00
G1 X50.2909 Y507.3105 Z-9.0000 F1140.00
G2 X50.5000 Y506.2321 Z-9.0000 I-2.0830 J-0.9633 F1140.00
G1 X50.5000 Y367.9984 Z-9.0000 F1140.00
G3 X51.0895 Y365.9005 Z-9.0000 I23.4474 J5.4568 F1140.00
G2 X48.2278 Y362.0000 Z-9.0000 I-2.8617 J-0.9005 F1140.00
G1 X44.0000 Y362.0000 Z-9.0000 F1140.00
G2 X41.0126 Y364.7256 Z-9.0000 I-0.0000 J3.0000 F1140.00
G0 X41.0126 Y364.7256 Z5.0032
G0 X60.6590 Y350.1138 Z5.0032
G0 X60.6590 Y350.1138 Z-5.9968
G1 X60.6590 Y350.1138 Z-9.0000 F1140.00
G2 X64.2819 Y351.0662 Z-9.0000 I2.4072 J-1.7903 F1140.00
G3 X67.4396 Y349.8491 Z-9.0000 I10.6865 J23.0206 F1140.00
G2 X69.5000 Y347.0000 Z-9.0000 I-0.9396 J-2.8491 F1140.00
G1 X69.5000 Y65.0000 Z-9.0000 F1140.00
G2 X66.5000 Y62.0000 Z-9.0000 I-3.0000 J0.0000 F1140.00
G1 X63.0662 Y62.0000 Z-9.0000 F1140.00
G2 X60.0662 Y65.0000 Z-9.0000 I0.0000 J3.0000 F1140.00
G1 X60.0662 Y348.3235 Z-9.0000 F1140.00
G2 X60.6590 Y350.1138 Z-9.0000 I3.0000 J-0.0000 F1140.00
G1 X60.6590 Y350.1138 Z-10.0000 F1140.00
G2 X64.2819 Y351.0662 Z-10.0000 I2.4072 J-1.7903 F1140.00
G3 X67.4396 Y349.8491 Z-10.0000 I10.6865 J23.0206 F1140.00
G2 X69.5000 Y347.0000 Z-10.0000 I-0.9396 J-2.8491 F1140.00
G1 X69.5000 Y65.0000 Z-10.0000 F1140.00
G2 X66.5000 Y62.0000 Z-10.0000 I-3.0000 J0.0000 F1140.00
G1 X63.0662 Y62.0000 Z-10.0000 F1140.00
G2 X60.0662 Y65.0000 Z-10.0000 I0.0000 J3.0000 F1140.00
G1 X60.0662 Y348.3235 Z-10.0000 F1140.00
G2 X60.6590 Y350.1138 Z-10.0000 I3.0000 J-0.0000 F1140.00
G0 X60.6590 Y350.1138 Z5.0032
G0 X50.1508 Y362.6973 Z5.0032
G0 X50.1508 Y362.6973 Z-6.9968
G1 X50.1508 Y362.6973 Z-10.0000 F1140.00
G2 X48.2278 Y362.0000 Z-10.0000 I-1.9229 J2.3027 F1140.00
G1 X44.0000 Y362.0000 Z-10.0000 F1140.00
G2 X41.0000 Y365.0000 Z-10.0000 I-0.0000 J3.0000 F1140.00
G1 X41.0000 Y510.0000 Z-10.0000 F1140.00
G2 X44.0000 Y513.0000 Z-10.0000 I3.0000 J-0.0000 F1140.00
G1 X47.0628 Y513.0000 Z-10.0000 F1140.00
G2 X50.0530 Y510.2426 Z-10.0000 I0.0000 J-3.0000 F1140.00
G1 X50.2909 Y507.3105 Z-10.0000 F1140.00
G2 X50.5000 Y506.2321 Z-10.0000 I-2.0830 J-0.9633 F1140.00
G1 X50.5000 Y367.9984 Z-10.0000 F1140.00
G3 X51.0895 Y365.9005 Z-10.0000 I23.4474 J5.4568 F1140.00
G2 X50.1508 Y362.6973 Z-10.0000 I-2.8617 J-0.9005 F1140.00
G0 X50.1508 Y362.6973 Z5.0032
G0 X18.9338 Y362.6973 Z5.0032
G0 X18.9338 Y362.6973 Z-6.9968
G1 X18.9338 Y362.6973 Z-10.0000 F1140.00
G1 X18.9338 Y65.0000 Z-10.0000 F1140.00
G2 X15.9338 Y62.0000 Z-10.0000 I-3.0000 J0.0000 F1140.00
G1 X12.5000 Y62.0000 Z-10.0000 F1140.00
G2 X9.5000 Y65.0000 Z-10.0000 I0.0000 J3.0000 F1140.00
G1 X9.5000 Y506.2321 Z-10.0000 F1140.00
G2 X9.7104 Y507.3272 Z-10.0000 I2.9057 J0.0094 F1140.00
G1 X9.9470 Y510.2426 Z-10.0000 F1140.00
G2 X12.9372 Y513.0000 Z-10.0000 I2.9902 J-0.2426 F1140.00
G1 X16.0000 Y513.0000 Z-10.0000 F1140.00
G2 X19.0000 Y510.0000 Z-10.0000 I-0.0000 J-3.0000 F1140.00
G1 X19.0000 Y365.0000 Z-10.0000 F1140.00
G2 X18.9338 Y364.4211 Z-10.0000 I-2.0730 J-0.0561 F1140.00
G1 X18.9338 Y362.6973 Z-10.0000 F1140.00
G1 X18.9338 Y362.6973 Z-11.0000 F1140.00
G1 X18.9338 Y65.0000 Z-11.0000 F1140.00
G2 X15.9338 Y62.0000 Z-11.0000 I-3.0000 J0.0000 F1140.00
G1 X12.5000 Y62.0000 Z-11.0000 F1140.00
G2 X9.5000 Y65.0000 Z-11.0000 I0.0000 J3.0000 F1140.00
G1 X9.5000 Y506.2321 Z-11.0000 F1140.00
G2 X9.7104 Y507.3272 Z-11.0000 I2.9057 J0.0094 F1140.00
G1 X9.9470 Y510.2426 Z-11.0000 F1140.00
G2 X12.9372 Y513.0000 Z-11.0000 I2.9902 J-0.2426 F1140.00
G1 X16.0000 Y513.0000 Z-11.0000 F1140.00
G2 X19.0000 Y510.0000 Z-11.0000 I-0.0000 J-3.0000 F1140.00
G1 X19.0000 Y365.0000 Z-11.0000 F1140.00
G2 X18.9338 Y364.4211 Z-11.0000 I-2.0730 J-0.0561 F1140.00
G1 X18.9338 Y362.6973 Z-11.0000 F1140.00
G0 X18.9338 Y362.6973 Z5.0032
G0 X41.0126 Y364.7256 Z5.0032
G0 X41.0126 Y364.7256 Z-7.9968
G1 X41.0126 Y364.7256 Z-11.0000 F1140.00
G2 X41.0000 Y365.0000 Z-11.0000 I2.9874 J0.2744 F1140.00
G1 X41.0000 Y510.0000 Z-11.0000 F1140.00
G2 X44.0000 Y513.0000 Z-11.0000 I3.0000 J-0.0000 F1140.00
G1 X47.0628 Y513.0000 Z-11.0000 F1140.00
G2 X50.0530 Y510.2426 Z-11.0000 I0.0000 J-3.0000 F1140.00
G1 X50.2909 Y507.3105 Z-11.0000 F1140.00
G2 X50.5000 Y506.2321 Z-11.0000 I-2.0830 J-0.9633 F1140.00
G1 X50.5000 Y367.9984 Z-11.0000 F1140.00
G3 X51.0895 Y365.9005 Z-11.0000 I23.4474 J5.4568 F1140.00
G2 X48.2278 Y362.0000 Z-11.0000 I-2.8617 J-0.9005 F1140.00
G1 X44.0000 Y362.0000 Z-11.0000 F1140.00
G2 X41.0126 Y364.7256 Z-11.0000 I-0.0000 J3.0000 F1140.00
G0 X41.0126 Y364.7256 Z5.0032
G0 X60.6590 Y350.1138 Z5.0032
G0 X60.6590 Y350.1138 Z-7.9968
G1 X60.6590 Y350.1138 Z-11.0000 F1140.00
G2 X64.2819 Y351.0662 Z-11.0000 I2.4072 J-1.7903 F1140.00
G3 X67.4396 Y349.8491 Z-11.0000 I10.6865 J23.0206 F1140.00
G2 X69.5000 Y347.0000 Z-11.0000 I-0.9396 J-2.8491 F1140.00
G1 X69.5000 Y65.0000 Z-11.0000 F1140.00
G2 X66.5000 Y62.0000 Z-11.0000 I-3.0000 J0.0000 F1140.00
G1 X63.0662 Y62.0000 Z-11.0000 F1140.00
G2 X60.0662 Y65.0000 Z-11.0000 I0.0000 J3.0000 F1140.00
G1 X60.0662 Y348.3235 Z-11.0000 F1140.00
G2 X60.6590 Y350.1138 Z-11.0000 I3.0000 J-0.0000 F1140.00
G1 X60.6590 Y350.1138 Z-12.0000 F1140.00
G2 X64.2819 Y351.0662 Z-12.0000 I2.4072 J-1.7903 F1140.00
G3 X67.4396 Y349.8491 Z-12.0000 I10.6865 J23.0206 F1140.00
G2 X69.5000 Y347.0000 Z-12.0000 I-0.9396 J-2.8491 F1140.00
G1 X69.5000 Y65.0000 Z-12.0000 F1140.00
G2 X66.5000 Y62.0000 Z-12.0000 I-3.0000 J0.0000 F1140.00
G1 X63.0662 Y62.0000 Z-12.0000 F1140.00
G2 X60.0662 Y65.0000 Z-12.0000 I0.0000 J3.0000 F1140.00
G1 X60.0662 Y348.3235 Z-12.0000 F1140.00
G2 X60.6590 Y350.1138 Z-12.0000 I3.0000 J-0.0000 F1140.00
G0 X60.6590 Y350.1138 Z5.0032
G0 X50.1508 Y362.6973 Z5.0032
G0 X50.1508 Y362.6973 Z-8.9968
G1 X50.1508 Y362.6973 Z-12.0000 F1140.00
G2 X48.2278 Y362.0000 Z-12.0000 I-1.9229 J2.3027 F1140.00
G1 X44.0000 Y362.0000 Z-12.0000 F1140.00
G2 X41.0000 Y365.0000 Z-12.0000 I-0.0000 J3.0000 F1140.00
G1 X41.0000 Y510.0000 Z-12.0000 F1140.00
G2 X44.0000 Y513.0000 Z-12.0000 I3.0000 J-0.0000 F1140.00
G1 X47.0628 Y513.0000 Z-12.0000 F1140.00
G2 X50.0530 Y510.2426 Z-12.0000 I0.0000 J-3.0000 F1140.00
G1 X50.2909 Y507.3105 Z-12.0000 F1140.00
G2 X50.5000 Y506.2321 Z-12.0000 I-2.0830 J-0.9633 F1140.00
G1 X50.5000 Y367.9984 Z-12.0000 F1140.00
G3 X51.0895 Y365.9005 Z-12.0000 I23.4474 J5.4568 F1140.00
G2 X50.1508 Y362.6973 Z-12.0000 I-2.8617 J-0.9005 F1140.00
G0 X50.1508 Y362.6973 Z5.0032
G0 X18.9338 Y362.6973 Z5.0032
G0 X18.9338 Y362.6973 Z-8.9968
G1 X18.9338 Y362.6973 Z-12.0000 F1140.00
G1 X18.9338 Y65.0000 Z-12.0000 F1140.00
G2 X15.9338 Y62.0000 Z-12.0000 I-3.0000 J0.0000 F1140.00
G1 X12.5000 Y62.0000 Z-12.0000 F1140.00
G2 X9.5000 Y65.0000 Z-12.0000 I0.0000 J3.0000 F1140.00
G1 X9.5000 Y506.2321 Z-12.0000 F1140.00
G2 X9.7104 Y507.3272 Z-12.0000 I2.9057 J0.0094 F1140.00
G1 X9.9470 Y510.2426 Z-12.0000 F1140.00
G2 X12.9372 Y513.0000 Z-12.0000 I2.9902 J-0.2426 F1140.00
G1 X16.0000 Y513.0000 Z-12.0000 F1140.00
G2 X19.0000 Y510.0000 Z-12.0000 I-0.0000 J-3.0000 F1140.00
G1 X19.0000 Y365.0000 Z-12.0000 F1140.00
G2 X18.9338 Y364.4211 Z-12.0000 I-2.0730 J-0.0561 F1140.00
G1 X18.9338 Y362.6973 Z-12.0000 F1140.00
G1 X18.9338 Y362.6973 Z-13.0000 F1140.00
G1 X18.9338 Y65.0000 Z-13.0000 F1140.00
G2 X15.9338 Y62.0000 Z-13.0000 I-3.0000 J0.0000 F1140.00
G1 X12.5000 Y62.0000 Z-13.0000 F1140.00
G2 X9.5000 Y65.0000 Z-13.0000 I0.0000 J3.0000 F1140.00
G1 X9.5000 Y506.2321 Z-13.0000 F1140.00
G2 X9.7104 Y507.3272 Z-13.0000 I2.9057 J0.0094 F1140.00
G1 X9.9470 Y510.2426 Z-13.0000 F1140.00
G2 X12.9372 Y513.0000 Z-13.0000 I2.9902 J-0.2426 F1140.00
G1 X16.0000 Y513.0000 Z-13.0000 F1140.00
G2 X19.0000 Y510.0000 Z-13.0000 I-0.0000 J-3.0000 F1140.00
G1 X19.0000 Y365.0000 Z-13.0000 F1140.00
G2 X18.9338 Y364.4211 Z-13.0000 I-2.0730 J-0.0561 F1140.00
G1 X18.9338 Y362.6973 Z-13.0000 F1140.00
G0 X18.9338 Y362.6973 Z5.0032
G0 X41.0126 Y364.7256 Z5.0032
G0 X41.0126 Y364.7256 Z-9.9968
G1 X41.0126 Y364.7256 Z-13.0000 F1140.00
G2 X41.0000 Y365.0000 Z-13.0000 I2.9874 J0.2744 F1140.00
G1 X41.0000 Y510.0000 Z-13.0000 F1140.00
G2 X44.0000 Y513.0000 Z-13.0000 I3.0000 J-0.0000 F1140.00
G1 X47.0628 Y513.0000 Z-13.0000 F1140.00
G2 X50.0530 Y510.2426 Z-13.0000 I0.0000 J-3.0000 F1140.00
G1 X50.2909 Y507.3105 Z-13.0000 F1140.00
G2 X50.5000 Y506.2321 Z-13.0000 I-2.0830 J-0.9633 F1140.00
G1 X50.5000 Y367.9984 Z-13.0000 F1140.00
G3 X51.0895 Y365.9005 Z-13.0000 I23.4474 J5.4568 F1140.00
G2 X48.2278 Y362.0000 Z-13.0000 I-2.8617 J-0.9005 F1140.00
G1 X44.0000 Y362.0000 Z-13.0000 F1140.00
G2 X41.0126 Y364.7256 Z-13.0000 I-0.0000 J3.0000 F1140.00
G0 X41.0126 Y364.7256 Z5.0032
G0 X60.6590 Y350.1138 Z5.0032
G0 X60.6590 Y350.1138 Z-9.9968
G1 X60.6590 Y350.1138 Z-13.0000 F1140.00
G2 X64.2819 Y351.0662 Z-13.0000 I2.4072 J-1.7903 F1140.00
G3 X67.4396 Y349.8491 Z-13.0000 I10.6865 J23.0206 F1140.00
G2 X69.5000 Y347.0000 Z-13.0000 I-0.9396 J-2.8491 F1140.00
G1 X69.5000 Y65.0000 Z-13.0000 F1140.00
G2 X66.5000 Y62.0000 Z-13.0000 I-3.0000 J0.0000 F1140.00
G1 X63.0662 Y62.0000 Z-13.0000 F1140.00
G2 X60.0662 Y65.0000 Z-13.0000 I0.0000 J3.0000 F1140.00
G1 X60.0662 Y348.3235 Z-13.0000 F1140.00
G2 X60.6590 Y350.1138 Z-13.0000 I3.0000 J-0.0000 F1140.00
G1 X60.6590 Y350.1138 Z-14.0000 F1140.00
G2 X64.2819 Y351.0662 Z-14.0000 I2.4072 J-1.7903 F1140.00
G3 X67.4396 Y349.8491 Z-14.0000 I10.6865 J23.0206 F1140.00
G2 X69.5000 Y347.0000 Z-14.0000 I-0.9396 J-2.8491 F1140.00
G1 X69.5000 Y65.0000 Z-14.0000 F1140.00
G2 X66.5000 Y62.0000 Z-14.0000 I-3.0000 J0.0000 F1140.00
G1 X63.0662 Y62.0000 Z-14.0000 F1140.00
G2 X60.0662 Y65.0000 Z-14.0000 I0.0000 J3.0000 F1140.00
G1 X60.0662 Y348.3235 Z-14.0000 F1140.00
G2 X60.6590 Y350.1138 Z-14.0000 I3.0000 J-0.0000 F1140.00
G0 X60.6590 Y350.1138 Z5.0032
G0 X50.1508 Y362.6973 Z5.0032
G0 X50.1508 Y362.6973 Z-10.9968
G1 X50.1508 Y362.6973 Z-14.0000 F1140.00
G2 X48.2278 Y362.0000 Z-14.0000 I-1.9229 J2.3027 F1140.00
G1 X44.0000 Y362.0000 Z-14.0000 F1140.00
G2 X41.0000 Y365.0000 Z-14.0000 I-0.0000 J3.0000 F1140.00
G1 X41.0000 Y510.0000 Z-14.0000 F1140.00
G2 X44.0000 Y513.0000 Z-14.0000 I3.0000 J-0.0000 F1140.00
G1 X47.0628 Y513.0000 Z-14.0000 F1140.00
G2 X50.0530 Y510.2426 Z-14.0000 I0.0000 J-3.0000 F1140.00
G1 X50.2909 Y507.3105 Z-14.0000 F1140.00
G2 X50.5000 Y506.2321 Z-14.0000 I-2.0830 J-0.9633 F1140.00
G1 X50.5000 Y367.9984 Z-14.0000 F1140.00
G3 X51.0895 Y365.9005 Z-14.0000 I23.4474 J5.4568 F1140.00
G2 X50.1508 Y362.6973 Z-14.0000 I-2.8617 J-0.9005 F1140.00
G0 X50.1508 Y362.6973 Z5.0032
G0 X18.9338 Y362.6973 Z5.0032
G0 X18.9338 Y362.6973 Z-10.9968
G1 X18.9338 Y362.6973 Z-14.0000 F1140.00
G1 X18.9338 Y65.0000 Z-14.0000 F1140.00
G2 X15.9338 Y62.0000 Z-14.0000 I-3.0000 J0.0000 F1140.00
G1 X12.5000 Y62.0000 Z-14.0000 F1140.00
G2 X9.5000 Y65.0000 Z-14.0000 I0.0000 J3.0000 F1140.00
G1 X9.5000 Y506.2321 Z-14.0000 F1140.00
G2 X9.7104 Y507.3272 Z-14.0000 I2.9057 J0.0094 F1140.00
G1 X9.9470 Y510.2426 Z-14.0000 F1140.00
G2 X12.9372 Y513.0000 Z-14.0000 I2.9902 J-0.2426 F1140.00
G1 X16.0000 Y513.0000 Z-14.0000 F1140.00
G2 X19.0000 Y510.0000 Z-14.0000 I-0.0000 J-3.0000 F1140.00
G1 X19.0000 Y365.0000 Z-14.0000 F1140.00
G2 X18.9338 Y364.4211 Z-14.0000 I-2.0730 J-0.0561 F1140.00
G1 X18.9338 Y362.6973 Z-14.0000 F1140.00
G0 Z5.0032
(finish operation: Profile_Faces)
(begin postamble)
M5
G17 G90
; M2
