(Exported by FreeCAD)
(Post Processor: grbl_post)
(Output Time:2022-01-17 06:53:52.724147)
(begin preamble)
G17 G90
G21
(begin operation: T2: 1/4inENDMILL002)
(Path: T2: 1/4inENDMILL002)
(T2: 1/4inENDMILL002)
(begin toolchange)
; M6 T2
M3 S0.0000
(finish operation: T2: 1/4inENDMILL002)
(begin operation: Helix001)
(Path: Helix001)
(Helix001)
(helix cut operation)
G0 Z5.0000
G0 X5.9745 Y7.5000
G0 Z3.0000
G1 Z0.0000 F1140.00
G2 X5.0255 Y7.5000 Z-0.5000 I-0.4745 J0.0000 F1140.00
G2 X5.9745 Y7.5000 Z-1.0000 I0.4745 J0.0000 F1140.00
G2 X5.0255 Y7.5000 Z-1.5000 I-0.4745 J0.0000 F1140.00
G2 X5.9745 Y7.5000 Z-2.0000 I0.4745 J0.0000 F1140.00
G2 X5.0255 Y7.5000 Z-2.5000 I-0.4745 J0.0000 F1140.00
G2 X5.9745 Y7.5000 Z-3.0000 I0.4745 J0.0000 F1140.00
G2 X5.0255 Y7.5000 Z-3.5000 I-0.4745 J0.0000 F1140.00
G2 X5.9745 Y7.5000 Z-4.0000 I0.4745 J0.0000 F1140.00
G2 X5.0255 Y7.5000 Z-4.5000 I-0.4745 J0.0000 F1140.00
G2 X5.9745 Y7.5000 Z-5.0000 I0.4745 J0.0000 F1140.00
G2 X5.0255 Y7.5000 Z-5.5000 I-0.4745 J0.0000 F1140.00
G2 X5.9745 Y7.5000 Z-6.0000 I0.4745 J0.0000 F1140.00
G2 X5.0255 Y7.5000 Z-6.5000 I-0.4745 J0.0000 F1140.00
G2 X5.9745 Y7.5000 Z-7.0000 I0.4745 J0.0000 F1140.00
G2 X5.0255 Y7.5000 Z-7.5000 I-0.4745 J0.0000 F1140.00
G2 X5.9745 Y7.5000 Z-8.0000 I0.4745 J0.0000 F1140.00
G2 X5.0255 Y7.5000 Z-8.5000 I-0.4745 J0.0000 F1140.00
G2 X5.9745 Y7.5000 Z-9.0000 I0.4745 J0.0000 F1140.00
G2 X5.0255 Y7.5000 Z-9.5000 I-0.4745 J0.0000 F1140.00
G2 X5.9745 Y7.5000 Z-10.0000 I0.4745 J0.0000 F1140.00
G2 X5.0255 Y7.5000 Z-10.0000 I-0.4745 J0.0000 F1140.00
G2 X5.9745 Y7.5000 Z-10.0000 I0.4745 J0.0000 F1140.00
G0 Z3.0000
G0 X61.9745 Y7.5000
G0 Z3.0000
G1 Z0.0000 F1140.00
G2 X61.0255 Y7.5000 Z-0.5000 I-0.4745 J0.0000 F1140.00
G2 X61.9745 Y7.5000 Z-1.0000 I0.4745 J0.0000 F1140.00
G2 X61.0255 Y7.5000 Z-1.5000 I-0.4745 J0.0000 F1140.00
G2 X61.9745 Y7.5000 Z-2.0000 I0.4745 J0.0000 F1140.00
G2 X61.0255 Y7.5000 Z-2.5000 I-0.4745 J0.0000 F1140.00
G2 X61.9745 Y7.5000 Z-3.0000 I0.4745 J0.0000 F1140.00
G2 X61.0255 Y7.5000 Z-3.5000 I-0.4745 J0.0000 F1140.00
G2 X61.9745 Y7.5000 Z-4.0000 I0.4745 J0.0000 F1140.00
G2 X61.0255 Y7.5000 Z-4.5000 I-0.4745 J0.0000 F1140.00
G2 X61.9745 Y7.5000 Z-5.0000 I0.4745 J0.0000 F1140.00
G2 X61.0255 Y7.5000 Z-5.5000 I-0.4745 J0.0000 F1140.00
G2 X61.9745 Y7.5000 Z-6.0000 I0.4745 J0.0000 F1140.00
G2 X61.0255 Y7.5000 Z-6.5000 I-0.4745 J0.0000 F1140.00
G2 X61.9745 Y7.5000 Z-7.0000 I0.4745 J0.0000 F1140.00
G2 X61.0255 Y7.5000 Z-7.5000 I-0.4745 J0.0000 F1140.00
G2 X61.9745 Y7.5000 Z-8.0000 I0.4745 J0.0000 F1140.00
G2 X61.0255 Y7.5000 Z-8.5000 I-0.4745 J0.0000 F1140.00
G2 X61.9745 Y7.5000 Z-9.0000 I0.4745 J0.0000 F1140.00
G2 X61.0255 Y7.5000 Z-9.5000 I-0.4745 J0.0000 F1140.00
G2 X61.9745 Y7.5000 Z-10.0000 I0.4745 J0.0000 F1140.00
G2 X61.0255 Y7.5000 Z-10.0000 I-0.4745 J0.0000 F1140.00
G2 X61.9745 Y7.5000 Z-10.0000 I0.4745 J0.0000 F1140.00
G0 Z3.0000
G0 X5.9745 Y677.5000
G0 Z3.0000
G1 Z0.0000 F1140.00
G2 X5.0255 Y677.5000 Z-0.5000 I-0.4745 J0.0000 F1140.00
G2 X5.9745 Y677.5000 Z-1.0000 I0.4745 J0.0000 F1140.00
G2 X5.0255 Y677.5000 Z-1.5000 I-0.4745 J0.0000 F1140.00
G2 X5.9745 Y677.5000 Z-2.0000 I0.4745 J0.0000 F1140.00
G2 X5.0255 Y677.5000 Z-2.5000 I-0.4745 J0.0000 F1140.00
G2 X5.9745 Y677.5000 Z-3.0000 I0.4745 J0.0000 F1140.00
G2 X5.0255 Y677.5000 Z-3.5000 I-0.4745 J0.0000 F1140.00
G2 X5.9745 Y677.5000 Z-4.0000 I0.4745 J0.0000 F1140.00
G2 X5.0255 Y677.5000 Z-4.5000 I-0.4745 J0.0000 F1140.00
G2 X5.9745 Y677.5000 Z-5.0000 I0.4745 J0.0000 F1140.00
G2 X5.0255 Y677.5000 Z-5.5000 I-0.4745 J0.0000 F1140.00
G2 X5.9745 Y677.5000 Z-6.0000 I0.4745 J0.0000 F1140.00
G2 X5.0255 Y677.5000 Z-6.5000 I-0.4745 J0.0000 F1140.00
G2 X5.9745 Y677.5000 Z-7.0000 I0.4745 J0.0000 F1140.00
G2 X5.0255 Y677.5000 Z-7.5000 I-0.4745 J0.0000 F1140.00
G2 X5.9745 Y677.5000 Z-8.0000 I0.4745 J0.0000 F1140.00
G2 X5.0255 Y677.5000 Z-8.5000 I-0.4745 J0.0000 F1140.00
G2 X5.9745 Y677.5000 Z-9.0000 I0.4745 J0.0000 F1140.00
G2 X5.0255 Y677.5000 Z-9.5000 I-0.4745 J0.0000 F1140.00
G2 X5.9745 Y677.5000 Z-10.0000 I0.4745 J0.0000 F1140.00
G2 X5.0255 Y677.5000 Z-10.0000 I-0.4745 J0.0000 F1140.00
G2 X5.9745 Y677.5000 Z-10.0000 I0.4745 J0.0000 F1140.00
G0 Z3.0000
G0 X61.9745 Y677.5000
G0 Z3.0000
G1 Z0.0000 F1140.00
G2 X61.0255 Y677.5000 Z-0.5000 I-0.4745 J0.0000 F1140.00
G2 X61.9745 Y677.5000 Z-1.0000 I0.4745 J0.0000 F1140.00
G2 X61.0255 Y677.5000 Z-1.5000 I-0.4745 J0.0000 F1140.00
G2 X61.9745 Y677.5000 Z-2.0000 I0.4745 J0.0000 F1140.00
G2 X61.0255 Y677.5000 Z-2.5000 I-0.4745 J0.0000 F1140.00
G2 X61.9745 Y677.5000 Z-3.0000 I0.4745 J0.0000 F1140.00
G2 X61.0255 Y677.5000 Z-3.5000 I-0.4745 J0.0000 F1140.00
G2 X61.9745 Y677.5000 Z-4.0000 I0.4745 J0.0000 F1140.00
G2 X61.0255 Y677.5000 Z-4.5000 I-0.4745 J0.0000 F1140.00
G2 X61.9745 Y677.5000 Z-5.0000 I0.4745 J0.0000 F1140.00
G2 X61.0255 Y677.5000 Z-5.5000 I-0.4745 J0.0000 F1140.00
G2 X61.9745 Y677.5000 Z-6.0000 I0.4745 J0.0000 F1140.00
G2 X61.0255 Y677.5000 Z-6.5000 I-0.4745 J0.0000 F1140.00
G2 X61.9745 Y677.5000 Z-7.0000 I0.4745 J0.0000 F1140.00
G2 X61.0255 Y677.5000 Z-7.5000 I-0.4745 J0.0000 F1140.00
G2 X61.9745 Y677.5000 Z-8.0000 I0.4745 J0.0000 F1140.00
G2 X61.0255 Y677.5000 Z-8.5000 I-0.4745 J0.0000 F1140.00
G2 X61.9745 Y677.5000 Z-9.0000 I0.4745 J0.0000 F1140.00
G2 X61.0255 Y677.5000 Z-9.5000 I-0.4745 J0.0000 F1140.00
G2 X61.9745 Y677.5000 Z-10.0000 I0.4745 J0.0000 F1140.00
G2 X61.0255 Y677.5000 Z-10.0000 I-0.4745 J0.0000 F1140.00
G2 X61.9745 Y677.5000 Z-10.0000 I0.4745 J0.0000 F1140.00
G0 Z3.0000
G0 Z5.0000
(finish operation: Helix001)
(begin postamble)
M5
G17 G90
; M2
