(Exported by FreeCAD)
(Post Processor: grbl_post)
(Output Time:2022-02-07 08:27:58.185562)
(begin preamble)
G17 G90
G21
(begin operation: T4: BALLMill)
(Path: T4: BALLMill)
(T4: BALLMill)
(begin toolchange)
; M6 T4
M3 S0.0000
(finish operation: T4: BALLMill)
(begin operation: FRET_SLOTS)
(Path: FRET_SLOTS)
(Pocket_Shape)
G0 Z5.0000
G0 X47.7750 Y463.1750
G0 Z3.0000
G1 X47.7750 Y463.1750 Z-0.5000 F1020.00
G1 X15.2250 Y463.1750 Z-0.5000 F1020.00
G1 X15.2250 Y463.1250 Z-0.5000 F1020.00
G1 X47.7750 Y463.1250 Z-0.5000 F1020.00
G1 X47.7750 Y463.1750 Z-0.5000 F1020.00
G1 X47.7750 Y463.1750 Z-1.0000 F1020.00
G1 X15.2250 Y463.1750 Z-1.0000 F1020.00
G1 X15.2250 Y463.1250 Z-1.0000 F1020.00
G1 X47.7750 Y463.1250 Z-1.0000 F1020.00
G1 X47.7750 Y463.1750 Z-1.0000 F1020.00
G1 X47.7750 Y463.1750 Z-1.5000 F1020.00
G1 X15.2250 Y463.1750 Z-1.5000 F1020.00
G1 X15.2250 Y463.1250 Z-1.5000 F1020.00
G1 X47.7750 Y463.1250 Z-1.5000 F1020.00
G1 X47.7750 Y463.1750 Z-1.5000 F1020.00
G1 X47.7750 Y463.1750 Z-2.0000 F1020.00
G1 X15.2250 Y463.1750 Z-2.0000 F1020.00
G1 X15.2250 Y463.1250 Z-2.0000 F1020.00
G1 X47.7750 Y463.1250 Z-2.0000 F1020.00
G1 X47.7750 Y463.1750 Z-2.0000 F1020.00
G0 Z5.0000
G0 X47.7750 Y427.6850
G0 Z3.0000
G1 X47.7750 Y427.6850 Z-0.5000 F1020.00
G1 X15.2250 Y427.6850 Z-0.5000 F1020.00
G1 X15.2250 Y427.6350 Z-0.5000 F1020.00
G1 X47.7750 Y427.6350 Z-0.5000 F1020.00
G1 X47.7750 Y427.6850 Z-0.5000 F1020.00
G1 X47.7750 Y427.6850 Z-1.0000 F1020.00
G1 X15.2250 Y427.6850 Z-1.0000 F1020.00
G1 X15.2250 Y427.6350 Z-1.0000 F1020.00
G1 X47.7750 Y427.6350 Z-1.0000 F1020.00
G1 X47.7750 Y427.6850 Z-1.0000 F1020.00
G1 X47.7750 Y427.6850 Z-1.5000 F1020.00
G1 X15.2250 Y427.6850 Z-1.5000 F1020.00
G1 X15.2250 Y427.6350 Z-1.5000 F1020.00
G1 X47.7750 Y427.6350 Z-1.5000 F1020.00
G1 X47.7750 Y427.6850 Z-1.5000 F1020.00
G1 X47.7750 Y427.6850 Z-2.0000 F1020.00
G1 X15.2250 Y427.6850 Z-2.0000 F1020.00
G1 X15.2250 Y427.6350 Z-2.0000 F1020.00
G1 X47.7750 Y427.6350 Z-2.0000 F1020.00
G1 X47.7750 Y427.6850 Z-2.0000 F1020.00
G0 Z5.0000
G0 X47.7750 Y394.1850
G0 Z3.0000
G1 X47.7750 Y394.1850 Z-0.5000 F1020.00
G1 X15.2250 Y394.1850 Z-0.5000 F1020.00
G1 X15.2250 Y394.1350 Z-0.5000 F1020.00
G1 X47.7750 Y394.1350 Z-0.5000 F1020.00
G1 X47.7750 Y394.1850 Z-0.5000 F1020.00
G1 X47.7750 Y394.1850 Z-1.0000 F1020.00
G1 X15.2250 Y394.1850 Z-1.0000 F1020.00
G1 X15.2250 Y394.1350 Z-1.0000 F1020.00
G1 X47.7750 Y394.1350 Z-1.0000 F1020.00
G1 X47.7750 Y394.1850 Z-1.0000 F1020.00
G1 X47.7750 Y394.1850 Z-1.5000 F1020.00
G1 X15.2250 Y394.1850 Z-1.5000 F1020.00
G1 X15.2250 Y394.1350 Z-1.5000 F1020.00
G1 X47.7750 Y394.1350 Z-1.5000 F1020.00
G1 X47.7750 Y394.1850 Z-1.5000 F1020.00
G1 X47.7750 Y394.1850 Z-2.0000 F1020.00
G1 X15.2250 Y394.1850 Z-2.0000 F1020.00
G1 X15.2250 Y394.1350 Z-2.0000 F1020.00
G1 X47.7750 Y394.1350 Z-2.0000 F1020.00
G1 X47.7750 Y394.1850 Z-2.0000 F1020.00
G0 Z5.0000
G0 X47.7750 Y362.5750
G0 Z3.0000
G1 X47.7750 Y362.5750 Z-0.5000 F1020.00
G1 X15.2250 Y362.5750 Z-0.5000 F1020.00
G1 X15.2250 Y362.5250 Z-0.5000 F1020.00
G1 X47.7750 Y362.5250 Z-0.5000 F1020.00
G1 X47.7750 Y362.5750 Z-0.5000 F1020.00
G1 X47.7750 Y362.5750 Z-1.0000 F1020.00
G1 X15.2250 Y362.5750 Z-1.0000 F1020.00
G1 X15.2250 Y362.5250 Z-1.0000 F1020.00
G1 X47.7750 Y362.5250 Z-1.0000 F1020.00
G1 X47.7750 Y362.5750 Z-1.0000 F1020.00
G1 X47.7750 Y362.5750 Z-1.5000 F1020.00
G1 X15.2250 Y362.5750 Z-1.5000 F1020.00
G1 X15.2250 Y362.5250 Z-1.5000 F1020.00
G1 X47.7750 Y362.5250 Z-1.5000 F1020.00
G1 X47.7750 Y362.5750 Z-1.5000 F1020.00
G1 X47.7750 Y362.5750 Z-2.0000 F1020.00
G1 X15.2250 Y362.5750 Z-2.0000 F1020.00
G1 X15.2250 Y362.5250 Z-2.0000 F1020.00
G1 X47.7750 Y362.5250 Z-2.0000 F1020.00
G1 X47.7750 Y362.5750 Z-2.0000 F1020.00
G0 Z5.0000
G0 X47.7750 Y332.7250
G0 Z3.0000
G1 X47.7750 Y332.7250 Z-0.5000 F1020.00
G1 X0.2250 Y332.7250 Z-0.5000 F1020.00
G1 X0.2250 Y332.6750 Z-0.5000 F1020.00
G1 X47.7750 Y332.6750 Z-0.5000 F1020.00
G1 X47.7750 Y332.7250 Z-0.5000 F1020.00
G1 X47.7750 Y332.7250 Z-1.0000 F1020.00
G1 X0.2250 Y332.7250 Z-1.0000 F1020.00
G1 X0.2250 Y332.6750 Z-1.0000 F1020.00
G1 X47.7750 Y332.6750 Z-1.0000 F1020.00
G1 X47.7750 Y332.7250 Z-1.0000 F1020.00
G1 X47.7750 Y332.7250 Z-1.5000 F1020.00
G1 X0.2250 Y332.7250 Z-1.5000 F1020.00
G1 X0.2250 Y332.6750 Z-1.5000 F1020.00
G1 X47.7750 Y332.6750 Z-1.5000 F1020.00
G1 X47.7750 Y332.7250 Z-1.5000 F1020.00
G1 X47.7750 Y332.7250 Z-2.0000 F1020.00
G1 X0.2250 Y332.7250 Z-2.0000 F1020.00
G1 X0.2250 Y332.6750 Z-2.0000 F1020.00
G1 X47.7750 Y332.6750 Z-2.0000 F1020.00
G1 X47.7750 Y332.7250 Z-2.0000 F1020.00
G0 Z5.0000
G0 X47.7750 Y304.5550
G0 Z3.0000
G1 X47.7750 Y304.5550 Z-0.5000 F1020.00
G1 X0.2250 Y304.5550 Z-0.5000 F1020.00
G1 X0.2250 Y304.5050 Z-0.5000 F1020.00
G1 X47.7750 Y304.5050 Z-0.5000 F1020.00
G1 X47.7750 Y304.5550 Z-0.5000 F1020.00
G1 X47.7750 Y304.5550 Z-1.0000 F1020.00
G1 X0.2250 Y304.5550 Z-1.0000 F1020.00
G1 X0.2250 Y304.5050 Z-1.0000 F1020.00
G1 X47.7750 Y304.5050 Z-1.0000 F1020.00
G1 X47.7750 Y304.5550 Z-1.0000 F1020.00
G1 X47.7750 Y304.5550 Z-1.5000 F1020.00
G1 X0.2250 Y304.5550 Z-1.5000 F1020.00
G1 X0.2250 Y304.5050 Z-1.5000 F1020.00
G1 X47.7750 Y304.5050 Z-1.5000 F1020.00
G1 X47.7750 Y304.5550 Z-1.5000 F1020.00
G1 X47.7750 Y304.5550 Z-2.0000 F1020.00
G1 X0.2250 Y304.5550 Z-2.0000 F1020.00
G1 X0.2250 Y304.5050 Z-2.0000 F1020.00
G1 X47.7750 Y304.5050 Z-2.0000 F1020.00
G1 X47.7750 Y304.5550 Z-2.0000 F1020.00
G0 Z5.0000
G0 X47.7750 Y277.9750
G0 Z3.0000
G1 X47.7750 Y277.9750 Z-0.5000 F1020.00
G1 X0.2250 Y277.9750 Z-0.5000 F1020.00
G1 X0.2250 Y277.9250 Z-0.5000 F1020.00
G1 X47.7750 Y277.9250 Z-0.5000 F1020.00
G1 X47.7750 Y277.9750 Z-0.5000 F1020.00
G1 X47.7750 Y277.9750 Z-1.0000 F1020.00
G1 X0.2250 Y277.9750 Z-1.0000 F1020.00
G1 X0.2250 Y277.9250 Z-1.0000 F1020.00
G1 X47.7750 Y277.9250 Z-1.0000 F1020.00
G1 X47.7750 Y277.9750 Z-1.0000 F1020.00
G1 X47.7750 Y277.9750 Z-1.5000 F1020.00
G1 X0.2250 Y277.9750 Z-1.5000 F1020.00
G1 X0.2250 Y277.9250 Z-1.5000 F1020.00
G1 X47.7750 Y277.9250 Z-1.5000 F1020.00
G1 X47.7750 Y277.9750 Z-1.5000 F1020.00
G1 X47.7750 Y277.9750 Z-2.0000 F1020.00
G1 X0.2250 Y277.9750 Z-2.0000 F1020.00
G1 X0.2250 Y277.9250 Z-2.0000 F1020.00
G1 X47.7750 Y277.9250 Z-2.0000 F1020.00
G1 X47.7750 Y277.9750 Z-2.0000 F1020.00
G0 Z5.0000
G0 X47.7750 Y252.8750
G0 Z3.0000
G1 X47.7750 Y252.8750 Z-0.5000 F1020.00
G1 X0.2250 Y252.8750 Z-0.5000 F1020.00
G1 X0.2250 Y252.8250 Z-0.5000 F1020.00
G1 X47.7750 Y252.8250 Z-0.5000 F1020.00
G1 X47.7750 Y252.8750 Z-0.5000 F1020.00
G1 X47.7750 Y252.8750 Z-1.0000 F1020.00
G1 X0.2250 Y252.8750 Z-1.0000 F1020.00
G1 X0.2250 Y252.8250 Z-1.0000 F1020.00
G1 X47.7750 Y252.8250 Z-1.0000 F1020.00
G1 X47.7750 Y252.8750 Z-1.0000 F1020.00
G1 X47.7750 Y252.8750 Z-1.5000 F1020.00
G1 X0.2250 Y252.8750 Z-1.5000 F1020.00
G1 X0.2250 Y252.8250 Z-1.5000 F1020.00
G1 X47.7750 Y252.8250 Z-1.5000 F1020.00
G1 X47.7750 Y252.8750 Z-1.5000 F1020.00
G1 X47.7750 Y252.8750 Z-2.0000 F1020.00
G1 X0.2250 Y252.8750 Z-2.0000 F1020.00
G1 X0.2250 Y252.8250 Z-2.0000 F1020.00
G1 X47.7750 Y252.8250 Z-2.0000 F1020.00
G1 X47.7750 Y252.8750 Z-2.0000 F1020.00
G0 Z5.0000
G0 X47.7750 Y228.1850
G0 Z3.0000
G1 X47.7750 Y228.1850 Z-0.5000 F1020.00
G1 X0.2250 Y228.1850 Z-0.5000 F1020.00
G1 X0.2250 Y228.1350 Z-0.5000 F1020.00
G1 X47.7750 Y228.1350 Z-0.5000 F1020.00
G1 X47.7750 Y228.1850 Z-0.5000 F1020.00
G1 X47.7750 Y228.1850 Z-1.0000 F1020.00
G1 X0.2250 Y228.1850 Z-1.0000 F1020.00
G1 X0.2250 Y228.1350 Z-1.0000 F1020.00
G1 X47.7750 Y228.1350 Z-1.0000 F1020.00
G1 X47.7750 Y228.1850 Z-1.0000 F1020.00
G1 X47.7750 Y228.1850 Z-1.5000 F1020.00
G1 X0.2250 Y228.1850 Z-1.5000 F1020.00
G1 X0.2250 Y228.1350 Z-1.5000 F1020.00
G1 X47.7750 Y228.1350 Z-1.5000 F1020.00
G1 X47.7750 Y228.1850 Z-1.5000 F1020.00
G1 X47.7750 Y228.1850 Z-2.0000 F1020.00
G1 X0.2250 Y228.1850 Z-2.0000 F1020.00
G1 X0.2250 Y228.1350 Z-2.0000 F1020.00
G1 X47.7750 Y228.1350 Z-2.0000 F1020.00
G1 X47.7750 Y228.1850 Z-2.0000 F1020.00
G0 Z5.0000
G0 X47.7750 Y205.8350
G0 Z3.0000
G1 X47.7750 Y205.8350 Z-0.5000 F1020.00
G1 X0.2250 Y205.8350 Z-0.5000 F1020.00
G1 X0.2250 Y205.7850 Z-0.5000 F1020.00
G1 X47.7750 Y205.7850 Z-0.5000 F1020.00
G1 X47.7750 Y205.8350 Z-0.5000 F1020.00
G1 X47.7750 Y205.8350 Z-1.0000 F1020.00
G1 X0.2250 Y205.8350 Z-1.0000 F1020.00
G1 X0.2250 Y205.7850 Z-1.0000 F1020.00
G1 X47.7750 Y205.7850 Z-1.0000 F1020.00
G1 X47.7750 Y205.8350 Z-1.0000 F1020.00
G1 X47.7750 Y205.8350 Z-1.5000 F1020.00
G1 X0.2250 Y205.8350 Z-1.5000 F1020.00
G1 X0.2250 Y205.7850 Z-1.5000 F1020.00
G1 X47.7750 Y205.7850 Z-1.5000 F1020.00
G1 X47.7750 Y205.8350 Z-1.5000 F1020.00
G1 X47.7750 Y205.8350 Z-2.0000 F1020.00
G1 X0.2250 Y205.8350 Z-2.0000 F1020.00
G1 X0.2250 Y205.7850 Z-2.0000 F1020.00
G1 X47.7750 Y205.7850 Z-2.0000 F1020.00
G1 X47.7750 Y205.8350 Z-2.0000 F1020.00
G0 Z5.0000
G0 X47.7750 Y185.7250
G0 Z3.0000
G1 X47.7750 Y185.7250 Z-0.5000 F1020.00
G1 X0.2250 Y185.7250 Z-0.5000 F1020.00
G1 X0.2250 Y185.6750 Z-0.5000 F1020.00
G1 X47.7750 Y185.6750 Z-0.5000 F1020.00
G1 X47.7750 Y185.7250 Z-0.5000 F1020.00
G1 X47.7750 Y185.7250 Z-1.0000 F1020.00
G1 X0.2250 Y185.7250 Z-1.0000 F1020.00
G1 X0.2250 Y185.6750 Z-1.0000 F1020.00
G1 X47.7750 Y185.6750 Z-1.0000 F1020.00
G1 X47.7750 Y185.7250 Z-1.0000 F1020.00
G1 X47.7750 Y185.7250 Z-1.5000 F1020.00
G1 X0.2250 Y185.7250 Z-1.5000 F1020.00
G1 X0.2250 Y185.6750 Z-1.5000 F1020.00
G1 X47.7750 Y185.6750 Z-1.5000 F1020.00
G1 X47.7750 Y185.7250 Z-1.5000 F1020.00
G1 X47.7750 Y185.7250 Z-2.0000 F1020.00
G1 X0.2250 Y185.7250 Z-2.0000 F1020.00
G1 X0.2250 Y185.6750 Z-2.0000 F1020.00
G1 X47.7750 Y185.6750 Z-2.0000 F1020.00
G1 X47.7750 Y185.7250 Z-2.0000 F1020.00
G0 Z5.0000
G0 X47.7750 Y165.8050
G0 Z3.0000
G1 X47.7750 Y165.8050 Z-0.5000 F1020.00
G1 X0.2250 Y165.8050 Z-0.5000 F1020.00
G1 X0.2250 Y165.7550 Z-0.5000 F1020.00
G1 X47.7750 Y165.7550 Z-0.5000 F1020.00
G1 X47.7750 Y165.8050 Z-0.5000 F1020.00
G1 X47.7750 Y165.8050 Z-1.0000 F1020.00
G1 X0.2250 Y165.8050 Z-1.0000 F1020.00
G1 X0.2250 Y165.7550 Z-1.0000 F1020.00
G1 X47.7750 Y165.7550 Z-1.0000 F1020.00
G1 X47.7750 Y165.8050 Z-1.0000 F1020.00
G1 X47.7750 Y165.8050 Z-1.5000 F1020.00
G1 X0.2250 Y165.8050 Z-1.5000 F1020.00
G1 X0.2250 Y165.7550 Z-1.5000 F1020.00
G1 X47.7750 Y165.7550 Z-1.5000 F1020.00
G1 X47.7750 Y165.8050 Z-1.5000 F1020.00
G1 X47.7750 Y165.8050 Z-2.0000 F1020.00
G1 X0.2250 Y165.8050 Z-2.0000 F1020.00
G1 X0.2250 Y165.7550 Z-2.0000 F1020.00
G1 X47.7750 Y165.7550 Z-2.0000 F1020.00
G1 X47.7750 Y165.8050 Z-2.0000 F1020.00
G0 Z5.0000
G0 X47.7750 Y146.0050
G0 Z3.0000
G1 X47.7750 Y146.0050 Z-0.5000 F1020.00
G1 X0.2250 Y146.0050 Z-0.5000 F1020.00
G1 X0.2250 Y145.9550 Z-0.5000 F1020.00
G1 X47.7750 Y145.9550 Z-0.5000 F1020.00
G1 X47.7750 Y146.0050 Z-0.5000 F1020.00
G1 X47.7750 Y146.0050 Z-1.0000 F1020.00
G1 X0.2250 Y146.0050 Z-1.0000 F1020.00
G1 X0.2250 Y145.9550 Z-1.0000 F1020.00
G1 X47.7750 Y145.9550 Z-1.0000 F1020.00
G1 X47.7750 Y146.0050 Z-1.0000 F1020.00
G1 X47.7750 Y146.0050 Z-1.5000 F1020.00
G1 X0.2250 Y146.0050 Z-1.5000 F1020.00
G1 X0.2250 Y145.9550 Z-1.5000 F1020.00
G1 X47.7750 Y145.9550 Z-1.5000 F1020.00
G1 X47.7750 Y146.0050 Z-1.5000 F1020.00
G1 X47.7750 Y146.0050 Z-2.0000 F1020.00
G1 X0.2250 Y146.0050 Z-2.0000 F1020.00
G1 X0.2250 Y145.9550 Z-2.0000 F1020.00
G1 X47.7750 Y145.9550 Z-2.0000 F1020.00
G1 X47.7750 Y146.0050 Z-2.0000 F1020.00
G0 Z5.0000
G0 X47.7750 Y129.2650
G0 Z3.0000
G1 X47.7750 Y129.2650 Z-0.5000 F1020.00
G1 X0.2250 Y129.2650 Z-0.5000 F1020.00
G1 X0.2250 Y129.2150 Z-0.5000 F1020.00
G1 X47.7750 Y129.2150 Z-0.5000 F1020.00
G1 X47.7750 Y129.2650 Z-0.5000 F1020.00
G1 X47.7750 Y129.2650 Z-1.0000 F1020.00
G1 X0.2250 Y129.2650 Z-1.0000 F1020.00
G1 X0.2250 Y129.2150 Z-1.0000 F1020.00
G1 X47.7750 Y129.2150 Z-1.0000 F1020.00
G1 X47.7750 Y129.2650 Z-1.0000 F1020.00
G1 X47.7750 Y129.2650 Z-1.5000 F1020.00
G1 X0.2250 Y129.2650 Z-1.5000 F1020.00
G1 X0.2250 Y129.2150 Z-1.5000 F1020.00
G1 X47.7750 Y129.2150 Z-1.5000 F1020.00
G1 X47.7750 Y129.2650 Z-1.5000 F1020.00
G1 X47.7750 Y129.2650 Z-2.0000 F1020.00
G1 X0.2250 Y129.2650 Z-2.0000 F1020.00
G1 X0.2250 Y129.2150 Z-2.0000 F1020.00
G1 X47.7750 Y129.2150 Z-2.0000 F1020.00
G1 X47.7750 Y129.2650 Z-2.0000 F1020.00
G0 Z5.0000
G0 X47.7750 Y112.5150
G0 Z3.0000
G1 X47.7750 Y112.5150 Z-0.5000 F1020.00
G1 X0.2250 Y112.5150 Z-0.5000 F1020.00
G1 X0.2250 Y112.4650 Z-0.5000 F1020.00
G1 X47.7750 Y112.4650 Z-0.5000 F1020.00
G1 X47.7750 Y112.5150 Z-0.5000 F1020.00
G1 X47.7750 Y112.5150 Z-1.0000 F1020.00
G1 X0.2250 Y112.5150 Z-1.0000 F1020.00
G1 X0.2250 Y112.4650 Z-1.0000 F1020.00
G1 X47.7750 Y112.4650 Z-1.0000 F1020.00
G1 X47.7750 Y112.5150 Z-1.0000 F1020.00
G1 X47.7750 Y112.5150 Z-1.5000 F1020.00
G1 X0.2250 Y112.5150 Z-1.5000 F1020.00
G1 X0.2250 Y112.4650 Z-1.5000 F1020.00
G1 X47.7750 Y112.4650 Z-1.5000 F1020.00
G1 X47.7750 Y112.5150 Z-1.5000 F1020.00
G1 X47.7750 Y112.5150 Z-2.0000 F1020.00
G1 X0.2250 Y112.5150 Z-2.0000 F1020.00
G1 X0.2250 Y112.4650 Z-2.0000 F1020.00
G1 X47.7750 Y112.4650 Z-2.0000 F1020.00
G1 X47.7750 Y112.5150 Z-2.0000 F1020.00
G0 Z5.0000
G0 X47.7750 Y96.0750
G0 Z3.0000
G1 X47.7750 Y96.0750 Z-0.5000 F1020.00
G1 X0.2250 Y96.0750 Z-0.5000 F1020.00
G1 X0.2250 Y96.0250 Z-0.5000 F1020.00
G1 X47.7750 Y96.0250 Z-0.5000 F1020.00
G1 X47.7750 Y96.0750 Z-0.5000 F1020.00
G1 X47.7750 Y96.0750 Z-1.0000 F1020.00
G1 X0.2250 Y96.0750 Z-1.0000 F1020.00
G1 X0.2250 Y96.0250 Z-1.0000 F1020.00
G1 X47.7750 Y96.0250 Z-1.0000 F1020.00
G1 X47.7750 Y96.0750 Z-1.0000 F1020.00
G1 X47.7750 Y96.0750 Z-1.5000 F1020.00
G1 X0.2250 Y96.0750 Z-1.5000 F1020.00
G1 X0.2250 Y96.0250 Z-1.5000 F1020.00
G1 X47.7750 Y96.0250 Z-1.5000 F1020.00
G1 X47.7750 Y96.0750 Z-1.5000 F1020.00
G1 X47.7750 Y96.0750 Z-2.0000 F1020.00
G1 X0.2250 Y96.0750 Z-2.0000 F1020.00
G1 X0.2250 Y96.0250 Z-2.0000 F1020.00
G1 X47.7750 Y96.0250 Z-2.0000 F1020.00
G1 X47.7750 Y96.0750 Z-2.0000 F1020.00
G0 Z5.0000
G0 X47.7750 Y81.7850
G0 Z3.0000
G1 X47.7750 Y81.7850 Z-0.5000 F1020.00
G1 X0.2250 Y81.7850 Z-0.5000 F1020.00
G1 X0.2250 Y81.7350 Z-0.5000 F1020.00
G1 X47.7750 Y81.7350 Z-0.5000 F1020.00
G1 X47.7750 Y81.7850 Z-0.5000 F1020.00
G1 X47.7750 Y81.7850 Z-1.0000 F1020.00
G1 X0.2250 Y81.7850 Z-1.0000 F1020.00
G1 X0.2250 Y81.7350 Z-1.0000 F1020.00
G1 X47.7750 Y81.7350 Z-1.0000 F1020.00
G1 X47.7750 Y81.7850 Z-1.0000 F1020.00
G1 X47.7750 Y81.7850 Z-1.5000 F1020.00
G1 X0.2250 Y81.7850 Z-1.5000 F1020.00
G1 X0.2250 Y81.7350 Z-1.5000 F1020.00
G1 X47.7750 Y81.7350 Z-1.5000 F1020.00
G1 X47.7750 Y81.7850 Z-1.5000 F1020.00
G1 X47.7750 Y81.7850 Z-2.0000 F1020.00
G1 X0.2250 Y81.7850 Z-2.0000 F1020.00
G1 X0.2250 Y81.7350 Z-2.0000 F1020.00
G1 X47.7750 Y81.7350 Z-2.0000 F1020.00
G1 X47.7750 Y81.7850 Z-2.0000 F1020.00
G0 Z5.0000
G0 X47.7750 Y66.6950
G0 Z3.0000
G1 X47.7750 Y66.6950 Z-0.5000 F1020.00
G1 X0.2250 Y66.6950 Z-0.5000 F1020.00
G1 X0.2250 Y66.6450 Z-0.5000 F1020.00
G1 X47.7750 Y66.6450 Z-0.5000 F1020.00
G1 X47.7750 Y66.6950 Z-0.5000 F1020.00
G1 X47.7750 Y66.6950 Z-1.0000 F1020.00
G1 X0.2250 Y66.6950 Z-1.0000 F1020.00
G1 X0.2250 Y66.6450 Z-1.0000 F1020.00
G1 X47.7750 Y66.6450 Z-1.0000 F1020.00
G1 X47.7750 Y66.6950 Z-1.0000 F1020.00
G1 X47.7750 Y66.6950 Z-1.5000 F1020.00
G1 X0.2250 Y66.6950 Z-1.5000 F1020.00
G1 X0.2250 Y66.6450 Z-1.5000 F1020.00
G1 X47.7750 Y66.6450 Z-1.5000 F1020.00
G1 X47.7750 Y66.6950 Z-1.5000 F1020.00
G1 X47.7750 Y66.6950 Z-2.0000 F1020.00
G1 X0.2250 Y66.6950 Z-2.0000 F1020.00
G1 X0.2250 Y66.6450 Z-2.0000 F1020.00
G1 X47.7750 Y66.6450 Z-2.0000 F1020.00
G1 X47.7750 Y66.6950 Z-2.0000 F1020.00
G0 Z5.0000
G0 X47.7750 Y53.4050
G0 Z3.0000
G1 X47.7750 Y53.4050 Z-0.5000 F1020.00
G1 X0.2250 Y53.4050 Z-0.5000 F1020.00
G1 X0.2250 Y53.3550 Z-0.5000 F1020.00
G1 X47.7750 Y53.3550 Z-0.5000 F1020.00
G1 X47.7750 Y53.4050 Z-0.5000 F1020.00
G1 X47.7750 Y53.4050 Z-1.0000 F1020.00
G1 X0.2250 Y53.4050 Z-1.0000 F1020.00
G1 X0.2250 Y53.3550 Z-1.0000 F1020.00
G1 X47.7750 Y53.3550 Z-1.0000 F1020.00
G1 X47.7750 Y53.4050 Z-1.0000 F1020.00
G1 X47.7750 Y53.4050 Z-1.5000 F1020.00
G1 X0.2250 Y53.4050 Z-1.5000 F1020.00
G1 X0.2250 Y53.3550 Z-1.5000 F1020.00
G1 X47.7750 Y53.3550 Z-1.5000 F1020.00
G1 X47.7750 Y53.4050 Z-1.5000 F1020.00
G1 X47.7750 Y53.4050 Z-2.0000 F1020.00
G1 X0.2250 Y53.4050 Z-2.0000 F1020.00
G1 X0.2250 Y53.3550 Z-2.0000 F1020.00
G1 X47.7750 Y53.3550 Z-2.0000 F1020.00
G1 X47.7750 Y53.4050 Z-2.0000 F1020.00
G0 Z5.0000
G0 X47.7750 Y40.8550
G0 Z3.0000
G1 X47.7750 Y40.8550 Z-0.5000 F1020.00
G1 X0.2250 Y40.8550 Z-0.5000 F1020.00
G1 X0.2250 Y40.8050 Z-0.5000 F1020.00
G1 X47.7750 Y40.8050 Z-0.5000 F1020.00
G1 X47.7750 Y40.8550 Z-0.5000 F1020.00
G1 X47.7750 Y40.8550 Z-1.0000 F1020.00
G1 X0.2250 Y40.8550 Z-1.0000 F1020.00
G1 X0.2250 Y40.8050 Z-1.0000 F1020.00
G1 X47.7750 Y40.8050 Z-1.0000 F1020.00
G1 X47.7750 Y40.8550 Z-1.0000 F1020.00
G1 X47.7750 Y40.8550 Z-1.5000 F1020.00
G1 X0.2250 Y40.8550 Z-1.5000 F1020.00
G1 X0.2250 Y40.8050 Z-1.5000 F1020.00
G1 X47.7750 Y40.8050 Z-1.5000 F1020.00
G1 X47.7750 Y40.8550 Z-1.5000 F1020.00
G1 X47.7750 Y40.8550 Z-2.0000 F1020.00
G1 X0.2250 Y40.8550 Z-2.0000 F1020.00
G1 X0.2250 Y40.8050 Z-2.0000 F1020.00
G1 X47.7750 Y40.8050 Z-2.0000 F1020.00
G1 X47.7750 Y40.8550 Z-2.0000 F1020.00
G0 Z5.0000
G0 X47.7750 Y30.0150
G0 Z3.0000
G1 X47.7750 Y30.0150 Z-0.5000 F1020.00
G1 X0.2250 Y30.0150 Z-0.5000 F1020.00
G1 X0.2250 Y29.9650 Z-0.5000 F1020.00
G1 X47.7750 Y29.9650 Z-0.5000 F1020.00
G1 X47.7750 Y30.0150 Z-0.5000 F1020.00
G1 X47.7750 Y30.0150 Z-1.0000 F1020.00
G1 X0.2250 Y30.0150 Z-1.0000 F1020.00
G1 X0.2250 Y29.9650 Z-1.0000 F1020.00
G1 X47.7750 Y29.9650 Z-1.0000 F1020.00
G1 X47.7750 Y30.0150 Z-1.0000 F1020.00
G1 X47.7750 Y30.0150 Z-1.5000 F1020.00
G1 X0.2250 Y30.0150 Z-1.5000 F1020.00
G1 X0.2250 Y29.9650 Z-1.5000 F1020.00
G1 X47.7750 Y29.9650 Z-1.5000 F1020.00
G1 X47.7750 Y30.0150 Z-1.5000 F1020.00
G1 X47.7750 Y30.0150 Z-2.0000 F1020.00
G1 X0.2250 Y30.0150 Z-2.0000 F1020.00
G1 X0.2250 Y29.9650 Z-2.0000 F1020.00
G1 X47.7750 Y29.9650 Z-2.0000 F1020.00
G1 X47.7750 Y30.0150 Z-2.0000 F1020.00
G0 Z5.0000
G0 X47.7750 Y17.8350
G0 Z3.0000
G1 X47.7750 Y17.8350 Z-0.5000 F1020.00
G1 X0.2250 Y17.8350 Z-0.5000 F1020.00
G1 X0.2250 Y17.7850 Z-0.5000 F1020.00
G1 X47.7750 Y17.7850 Z-0.5000 F1020.00
G1 X47.7750 Y17.8350 Z-0.5000 F1020.00
G1 X47.7750 Y17.8350 Z-1.0000 F1020.00
G1 X0.2250 Y17.8350 Z-1.0000 F1020.00
G1 X0.2250 Y17.7850 Z-1.0000 F1020.00
G1 X47.7750 Y17.7850 Z-1.0000 F1020.00
G1 X47.7750 Y17.8350 Z-1.0000 F1020.00
G1 X47.7750 Y17.8350 Z-1.5000 F1020.00
G1 X0.2250 Y17.8350 Z-1.5000 F1020.00
G1 X0.2250 Y17.7850 Z-1.5000 F1020.00
G1 X47.7750 Y17.7850 Z-1.5000 F1020.00
G1 X47.7750 Y17.8350 Z-1.5000 F1020.00
G1 X47.7750 Y17.8350 Z-2.0000 F1020.00
G1 X0.2250 Y17.8350 Z-2.0000 F1020.00
G1 X0.2250 Y17.7850 Z-2.0000 F1020.00
G1 X47.7750 Y17.7850 Z-2.0000 F1020.00
G1 X47.7750 Y17.8350 Z-2.0000 F1020.00
G0 Z5.0000
(finish operation: FRET_SLOTS)
(begin operation: Pocket_Shape001)
(Path: Pocket_Shape001)
(Pocket_Shape001)
G0 Z5.0000
G0 X42.0175 Y415.4805
G0 Z3.0000
G1 X42.0175 Y415.4805 Z-0.5000 F1020.00
G1 X43.2078 Y416.6708 Z-0.5000 F1020.00
G3 X43.0259 Y417.0616 Z-0.5000 I-2.6363 J-0.9894 F1020.00
G1 X41.8527 Y415.8885 Z-0.5000 F1020.00
G3 X41.6809 Y416.2894 Z-0.5000 I-2.6601 J-0.9030 F1020.00
G1 X42.8362 Y417.4447 Z-0.5000 F1020.00
G3 X42.6369 Y417.8182 Z-0.5000 I-2.5319 J-1.1111 F1020.00
G1 X41.4900 Y416.6712 Z-0.5000 F1020.00
G3 X41.2948 Y417.0488 Z-0.5000 I-2.5496 J-1.0789 F1020.00
G1 X42.4234 Y418.1774 Z-0.5000 F1020.00
G3 X42.2084 Y418.5352 Z-0.5000 I-2.4378 J-1.2209 F1020.00
G1 X41.0791 Y417.4059 Z-0.5000 F1020.00
G3 X40.8639 Y417.7608 Z-0.5000 I-3.0909 J-1.6316 F1020.00
G1 X41.9719 Y418.8715 Z-0.5000 F1020.00
G1 X41.7354 Y419.2077 Z-0.5000 F1020.00
G1 X40.6233 Y418.0955 Z-0.5000 F1020.00
G1 X40.3837 Y418.4288 Z-0.5000 F1020.00
G1 X41.4837 Y419.5288 Z-0.5000 F1020.00
G1 X41.2248 Y419.8427 Z-0.5000 F1020.00
G1 X40.1246 Y418.7424 Z-0.5000 F1020.00
G1 X39.8619 Y419.0525 Z-0.5000 F1020.00
G1 X40.9599 Y420.1505 Z-0.5000 F1020.00
G1 X40.6790 Y420.4424 Z-0.5000 F1020.00
G1 X39.5845 Y419.3478 Z-0.5000 F1020.00
G1 X39.2989 Y419.6349 Z-0.5000 F1020.00
G1 X40.3982 Y420.7342 Z-0.5000 F1020.00
G3 X40.0984 Y421.0072 Z-0.5000 I-1.9278 J-1.8157 F1020.00
G1 X39.0034 Y419.9122 Z-0.5000 F1020.00
G1 X38.6949 Y420.1764 Z-0.5000 F1020.00
G1 X39.7955 Y421.2771 Z-0.5000 F1020.00
G3 X39.4828 Y421.5371 Z-0.5000 I-1.8497 J-1.9068 F1020.00
G1 X38.3811 Y420.4355 Z-0.5000 F1020.00
G1 X38.0494 Y420.6765 Z-0.5000 F1020.00
G1 X39.1578 Y421.7849 Z-0.5000 F1020.00
G3 X38.8316 Y422.0315 Z-0.5000 I-1.7689 J-2.0010 F1020.00
G1 X37.7168 Y420.9166 Z-0.5000 F1020.00
G1 X37.3612 Y421.1339 Z-0.5000 F1020.00
G1 X38.4840 Y422.2566 Z-0.5000 F1020.00
G1 X38.1363 Y422.4817 Z-0.5000 F1020.00
G1 X37.0057 Y421.3511 Z-0.5000 F1020.00
G3 X36.6282 Y421.5464 Z-0.5000 I-1.4797 J-2.3979 F1020.00
G1 X37.7726 Y422.6907 Z-0.5000 F1020.00
G1 X37.4016 Y422.8925 Z-0.5000 F1020.00
G1 X36.2480 Y421.7389 Z-0.5000 F1020.00
G3 X35.8473 Y421.9109 Z-0.5000 I-1.3104 J-2.5000 F1020.00
G1 X37.0215 Y423.0851 Z-0.5000 F1020.00
G1 X36.6260 Y423.2624 Z-0.5000 F1020.00
G1 X35.4410 Y422.0774 Z-0.5000 F1020.00
G3 X35.0139 Y422.2230 Z-0.5000 I-1.1493 J-2.6707 F1020.00
G1 X36.2276 Y423.4368 Z-0.5000 F1020.00
G1 X35.8062 Y423.5881 Z-0.5000 F1020.00
G1 X34.5797 Y422.3617 Z-0.5000 F1020.00
G3 X34.1220 Y422.4766 Z-0.5000 I-0.9688 J-2.8885 F1020.00
G1 X35.3848 Y423.7395 Z-0.5000 F1020.00
G3 X34.9375 Y423.8649 Z-0.5000 I-1.0408 J-2.8502 F1020.00
G1 X33.6576 Y422.5850 Z-0.5000 F1020.00
G3 X33.1630 Y422.6632 Z-0.5000 I-0.7637 J-3.2277 F1020.00
G1 X34.4882 Y423.9884 Z-0.5000 F1020.00
G3 X34.0138 Y424.0867 Z-0.5000 I-0.8773 J-3.0409 F1020.00
G1 X32.6605 Y422.7335 Z-0.5000 F1020.00
G1 X32.1251 Y422.7708 Z-0.5000 F1020.00
G1 X33.5340 Y424.1797 Z-0.5000 F1020.00
G0 X33.5340 Y424.1797 Z5.0000
G0 X28.4177 Y415.0541 Z5.0000
G0 X28.4177 Y415.0541 Z2.5000
G1 X28.4177 Y415.0541 Z-0.5000 F1020.00
G1 X25.2036 Y411.8400 Z-0.5000 F1020.00
G1 X24.8719 Y412.0810 Z-0.5000 F1020.00
G1 X27.8449 Y415.0541 Z-0.5000 F1020.00
G1 X27.2722 Y415.0541 Z-0.5000 F1020.00
G1 X24.5401 Y412.3221 Z-0.5000 F1020.00
G1 X24.2084 Y412.5631 Z-0.5000 F1020.00
G1 X26.6994 Y415.0541 Z-0.5000 F1020.00
G1 X26.1267 Y415.0541 Z-0.5000 F1020.00
G1 X23.8767 Y412.8041 Z-0.5000 F1020.00
G1 X23.5449 Y413.0451 Z-0.5000 F1020.00
G1 X25.5539 Y415.0541 Z-0.5000 F1020.00
G1 X24.9812 Y415.0541 Z-0.5000 F1020.00
G1 X23.2132 Y413.2861 Z-0.5000 F1020.00
G1 X22.8815 Y413.5272 Z-0.5000 F1020.00
G1 X24.4084 Y415.0541 Z-0.5000 F1020.00
G1 X23.8357 Y415.0541 Z-0.5000 F1020.00
G1 X22.5497 Y413.7682 Z-0.5000 F1020.00
G1 X22.2180 Y414.0092 Z-0.5000 F1020.00
G1 X23.2629 Y415.0541 Z-0.5000 F1020.00
G1 X22.6901 Y415.0541 Z-0.5000 F1020.00
G1 X21.8863 Y414.2502 Z-0.5000 F1020.00
G1 X21.5545 Y414.4912 Z-0.5000 F1020.00
G1 X22.1174 Y415.0541 Z-0.5000 F1020.00
G1 X21.5446 Y415.0541 Z-0.5000 F1020.00
G1 X21.2228 Y414.7323 Z-0.5000 F1020.00
G3 X20.8652 Y414.8695 Z-0.5000 I-0.2706 J-0.1705 F1020.00
G3 X20.7238 Y414.7126 Z-0.5000 I0.0769 J-0.2114 F1020.00
G1 X20.5644 Y414.0739 Z-0.5000 F1020.00
G1 X18.7498 Y412.2593 Z-0.5000 F1020.00
G1 X18.7975 Y412.8797 Z-0.5000 F1020.00
G1 X21.0172 Y415.0994 Z-0.5000 F1020.00
G2 X20.9352 Y415.3633 Z-0.5000 I0.1171 J0.1810 F1020.00
G1 X21.0889 Y415.7439 Z-0.5000 F1020.00
G1 X18.8877 Y413.5427 Z-0.5000 F1020.00
G2 X19.0149 Y414.2426 Z-0.5000 I4.6219 J-0.4782 F1020.00
G1 X21.5765 Y416.8043 Z-0.5000 F1020.00
G2 X22.5856 Y418.3861 Z-0.5000 I8.9086 J-4.5701 F1020.00
G1 X19.1940 Y414.9945 Z-0.5000 F1020.00
G0 X19.1940 Y414.9945 Z5.0000
G0 X18.7498 Y412.2593 Z5.0000
G0 X18.7498 Y412.2593 Z2.5000
G1 X18.7498 Y412.2593 Z-0.5000 F1020.00
G1 X20.5644 Y414.0739 Z-0.5000 F1020.00
G3 X20.4280 Y413.3648 Z-0.5000 I4.4294 J-1.2194 F1020.00
G1 X18.7345 Y411.6713 Z-0.5000 F1020.00
G1 X18.7345 Y411.0985 Z-0.5000 F1020.00
G1 X20.3396 Y412.7036 Z-0.5000 F1020.00
G3 X20.2865 Y412.0777 Z-0.5000 I17.5549 J-1.8060 F1020.00
G1 X18.7742 Y410.5654 Z-0.5000 F1020.00
G3 X18.8199 Y410.0383 Z-0.5000 I3.4553 J0.0342 F1020.00
G1 X20.2833 Y411.5017 Z-0.5000 F1020.00
G3 X20.2992 Y410.9449 Z-0.5000 I3.5470 J-0.1768 F1020.00
G1 X18.8965 Y409.5422 Z-0.5000 F1020.00
G3 X18.9791 Y409.0520 Z-0.5000 I3.2335 J0.2929 F1020.00
G1 X20.3391 Y410.4121 Z-0.5000 F1020.00
G3 X20.4076 Y409.9077 Z-0.5000 I3.2637 J0.1862 F1020.00
G1 X19.0877 Y408.5879 Z-0.5000 F1020.00
G3 X19.2002 Y408.1276 Z-0.5000 I3.0537 J0.5025 F1020.00
G1 X20.4848 Y409.4122 Z-0.5000 F1020.00
G3 X20.5945 Y408.9491 Z-0.5000 I3.7910 J0.6536 F1020.00
G1 X19.3379 Y407.6926 Z-0.5000 F1020.00
G1 X19.4756 Y407.2575 Z-0.5000 F1020.00
G1 X20.7077 Y408.4896 Z-0.5000 F1020.00
G1 X20.8482 Y408.0573 Z-0.5000 F1020.00
G1 X19.6398 Y406.8490 Z-0.5000 F1020.00
G1 X19.8044 Y406.4408 Z-0.5000 F1020.00
G1 X20.9921 Y407.6285 Z-0.5000 F1020.00
G1 X21.1603 Y407.2239 Z-0.5000 F1020.00
G1 X19.9882 Y406.0518 Z-0.5000 F1020.00
G1 X20.1778 Y405.6687 Z-0.5000 F1020.00
G1 X21.3305 Y406.8214 Z-0.5000 F1020.00
G1 X21.5247 Y406.4428 Z-0.5000 F1020.00
G1 X20.3789 Y405.2970 Z-0.5000 F1020.00
G1 X20.5924 Y404.9378 Z-0.5000 F1020.00
G1 X21.7188 Y406.0642 Z-0.5000 F1020.00
G3 X21.9370 Y405.7096 Z-0.5000 I2.9450 J1.5676 F1020.00
G1 X20.8091 Y404.5817 Z-0.5000 F1020.00
G1 X21.0456 Y404.2454 Z-0.5000 F1020.00
G1 X22.1558 Y405.3556 Z-0.5000 F1020.00
G3 X22.3941 Y405.0212 Z-0.5000 I2.2906 J1.3800 F1020.00
G1 X21.2821 Y403.9092 Z-0.5000 F1020.00
G3 X21.5354 Y403.5898 Z-0.5000 I2.2068 J1.4904 F1020.00
G1 X22.6366 Y404.6909 Z-0.5000 F1020.00
G3 X22.8939 Y404.3755 Z-0.5000 I2.1490 J1.4897 F1020.00
G1 X21.7943 Y403.2759 Z-0.5000 F1020.00
G3 X22.0609 Y402.9697 Z-0.5000 I2.1275 J1.5828 F1020.00
G1 X23.1595 Y404.0684 Z-0.5000 F1020.00
G3 X23.4351 Y403.7712 Z-0.5000 I2.0388 J1.6137 F1020.00
G1 X22.3418 Y402.6778 Z-0.5000 F1020.00
G1 X22.6226 Y402.3860 Z-0.5000 F1020.00
G1 X23.7237 Y403.4870 Z-0.5000 F1020.00
G3 X24.0172 Y403.2078 Z-0.5000 I1.9504 J1.7572 F1020.00
G1 X22.9240 Y402.1146 Z-0.5000 F1020.00
G1 X23.2269 Y401.8447 Z-0.5000 F1020.00
G1 X24.3287 Y402.9465 Z-0.5000 F1020.00
G1 X24.6285 Y402.6951 Z-0.5000 F1020.00
G1 X24.6430 Y402.6881 Z-0.5000 F1020.00
G1 X23.5413 Y401.5863 Z-0.5000 F1020.00
G1 X23.8663 Y401.3386 Z-0.5000 F1020.00
G2 X25.2582 Y402.7305 Z-0.5000 I18.0659 J-16.6740 F1020.00
G1 X37.5818 Y415.0541 Z-0.5000 F1020.00
G1 X38.1546 Y415.0541 Z-0.5000 F1020.00
G1 X27.3527 Y404.2522 Z-0.5000 F1020.00
G1 X29.4472 Y405.7740 Z-0.5000 F1020.00
G1 X38.7273 Y415.0541 Z-0.5000 F1020.00
G1 X39.3001 Y415.0541 Z-0.5000 F1020.00
G1 X31.4504 Y407.2045 Z-0.5000 F1020.00
G2 X31.5695 Y407.2013 Z-0.5000 I0.0547 J-0.1849 F1020.00
G2 X31.8383 Y407.0196 Z-0.5000 I-0.4392 J-0.9394 F1020.00
G1 X39.8728 Y415.0541 Z-0.5000 F1020.00
G1 X40.4456 Y415.0541 Z-0.5000 F1020.00
G3 X35.6762 Y410.2847 Z-0.5000 I238.6399 J-243.4093 F1020.00
G1 X32.1701 Y406.7786 Z-0.5000 F1020.00
G1 X32.5018 Y406.5376 Z-0.5000 F1020.00
G1 X35.7443 Y409.7801 Z-0.5000 F1020.00
G1 X35.8848 Y409.3478 Z-0.5000 F1020.00
G1 X32.8335 Y406.2965 Z-0.5000 F1020.00
G1 X33.1653 Y406.0555 Z-0.5000 F1020.00
G1 X36.0253 Y408.9155 Z-0.5000 F1020.00
G1 X36.1657 Y408.4832 Z-0.5000 F1020.00
G1 X33.4970 Y405.8145 Z-0.5000 F1020.00
G1 X33.8288 Y405.5735 Z-0.5000 F1020.00
G1 X36.3062 Y408.0509 Z-0.5000 F1020.00
G1 X36.4466 Y407.6186 Z-0.5000 F1020.00
G1 X34.1605 Y405.3325 Z-0.5000 F1020.00
G1 X34.4922 Y405.0914 Z-0.5000 F1020.00
G1 X36.5871 Y407.1863 Z-0.5000 F1020.00
G1 X36.7276 Y406.7540 Z-0.5000 F1020.00
G1 X34.8240 Y404.8504 Z-0.5000 F1020.00
G1 X35.1557 Y404.6094 Z-0.5000 F1020.00
G1 X36.8680 Y406.3217 Z-0.5000 F1020.00
G1 X37.0085 Y405.8894 Z-0.5000 F1020.00
G1 X35.4874 Y404.3684 Z-0.5000 F1020.00
G1 X35.8192 Y404.1274 Z-0.5000 F1020.00
G1 X37.1489 Y405.4571 Z-0.5000 F1020.00
G1 X37.2894 Y405.0248 Z-0.5000 F1020.00
G1 X36.1509 Y403.8863 Z-0.5000 F1020.00
G1 X36.4826 Y403.6453 Z-0.5000 F1020.00
G1 X37.4299 Y404.5925 Z-0.5000 F1020.00
G1 X37.5703 Y404.1602 Z-0.5000 F1020.00
G1 X36.8144 Y403.4043 Z-0.5000 F1020.00
G1 X37.1461 Y403.1633 Z-0.5000 F1020.00
G1 X37.7108 Y403.7279 Z-0.5000 F1020.00
G1 X37.8512 Y403.2957 Z-0.5000 F1020.00
G1 X37.4779 Y402.9223 Z-0.5000 F1020.00
G1 X37.8096 Y402.6812 Z-0.5000 F1020.00
G1 X37.9917 Y402.8634 Z-0.5000 F1020.00
G3 X38.2737 Y402.6474 Z-0.5000 I0.2402 J0.0217 F1020.00
G3 X38.5249 Y402.8238 Z-0.5000 I-0.2281 J0.5920 F1020.00
G1 X34.9933 Y399.2922 Z-0.5000 F1020.00
G3 X35.8395 Y399.5656 Z-0.5000 I-1.3578 J5.6478 F1020.00
G1 X43.5204 Y407.2465 Z-0.5000 F1020.00
G2 X43.1231 Y406.2765 Z-0.5000 I-6.5161 J2.1023 F1020.00
G1 X36.8072 Y399.9606 Z-0.5000 F1020.00
G3 X37.9870 Y400.5677 Z-0.5000 I-3.3637 J7.9873 F1020.00
G1 X42.4815 Y405.0621 Z-0.5000 F1020.00
G2 X40.3585 Y402.3664 Z-0.5000 I-10.5536 J6.1275 F1020.00
G0 X40.3585 Y402.3664 Z5.0000
G0 X40.2841 Y404.5830 Z5.0000
G0 X40.2841 Y404.5830 Z2.5000
G1 X40.2841 Y404.5830 Z-0.5000 F1020.00
G1 X43.7864 Y408.0852 Z-0.5000 F1020.00
G3 X43.9722 Y408.8438 Z-0.5000 I-4.8472 J1.5893 F1020.00
G1 X41.3745 Y406.2461 Z-0.5000 F1020.00
G3 X41.8826 Y407.3270 Z-0.5000 I-6.5548 J3.7412 F1020.00
G1 X44.1045 Y409.5489 Z-0.5000 F1020.00
G3 X44.1990 Y410.2162 Z-0.5000 I-4.2983 J0.9490 F1020.00
G1 X42.2056 Y408.2227 Z-0.5000 F1020.00
G3 X42.4201 Y409.0100 Z-0.5000 I-4.8713 J1.7501 F1020.00
G1 X44.2466 Y410.8366 Z-0.5000 F1020.00
G3 X44.2655 Y411.4281 Z-0.5000 I-3.8432 J0.4183 F1020.00
G1 X42.5643 Y409.7269 Z-0.5000 F1020.00
G3 X42.6596 Y410.3950 Z-0.5000 I-4.2348 J0.9451 F1020.00
G1 X44.2655 Y412.0009 Z-0.5000 F1020.00
G3 X44.2289 Y412.5370 Z-0.5000 I-3.5100 J0.0297 F1020.00
G1 X42.7059 Y411.0141 Z-0.5000 F1020.00
G3 X42.7163 Y411.5972 Z-0.5000 I-3.7099 J0.3572 F1020.00
G1 X44.1858 Y413.0667 Z-0.5000 F1020.00
G1 X44.1092 Y413.5629 Z-0.5000 F1020.00
G1 X42.7066 Y412.1603 Z-0.5000 F1020.00
G1 X42.6617 Y412.6882 Z-0.5000 F1020.00
G1 X44.0289 Y414.0554 Z-0.5000 F1020.00
G1 X43.9203 Y414.5195 Z-0.5000 F1020.00
G1 X42.5996 Y413.1988 Z-0.5000 F1020.00
G1 X42.5179 Y413.6899 Z-0.5000 F1020.00
G1 X43.8100 Y414.9819 Z-0.5000 F1020.00
G1 X43.6723 Y415.4170 Z-0.5000 F1020.00
G1 X42.4143 Y414.1591 Z-0.5000 F1020.00
G1 X42.2999 Y414.6174 Z-0.5000 F1020.00
G1 X43.5346 Y415.8521 Z-0.5000 F1020.00
G3 X43.3723 Y416.2626 Z-0.5000 I-2.7545 J-0.8514 F1020.00
G1 X41.9663 Y414.8565 Z-0.5000 F1020.00
G1 X41.9257 Y414.8401 Z-0.5000 F1020.00
G1 X39.9197 Y413.3827 Z-0.5000 F1020.00
G1 X41.5911 Y415.0541 Z-0.5000 F1020.00
G1 X41.0183 Y415.0541 Z-0.5000 F1020.00
G1 X37.8252 Y411.8609 Z-0.5000 F1020.00
G1 X35.7307 Y410.3392 Z-0.5000 F1020.00
G1 X40.4456 Y415.0541 Z-0.5000 F1020.00
G0 X40.4456 Y415.0541 Z5.0000
G0 X36.8272 Y401.6989 Z5.0000
G0 X36.8272 Y401.6989 Z2.5000
G1 X36.8272 Y401.6989 Z-0.5000 F1020.00
G1 X34.2243 Y399.0959 Z-0.5000 F1020.00
G1 X33.5137 Y398.9581 Z-0.5000 F1020.00
G1 X35.7430 Y401.1874 Z-0.5000 F1020.00
G2 X34.8469 Y400.8641 Z-0.5000 I-2.4907 J5.4995 F1020.00
G1 X32.8606 Y398.8777 Z-0.5000 F1020.00
G2 X32.2343 Y398.8242 Z-0.5000 I-0.6616 J4.0519 F1020.00
G1 X34.0604 Y400.6503 Z-0.5000 F1020.00
G2 X33.3445 Y400.5072 Z-0.5000 I-1.2639 J4.4595 F1020.00
G1 X31.6387 Y398.8014 Z-0.5000 F1020.00
G2 X31.0768 Y398.8123 Z-0.5000 I-0.2099 J3.6645 F1020.00
G1 X32.6776 Y400.4130 Z-0.5000 F1020.00
G1 X32.0550 Y400.3632 Z-0.5000 F1020.00
G1 X30.5252 Y398.8334 Z-0.5000 F1020.00
G2 X30.0115 Y398.8925 Z-0.5000 I0.1278 J3.3754 F1020.00
G1 X31.4737 Y400.3547 Z-0.5000 F1020.00
G2 X30.9122 Y400.3659 Z-0.5000 I-0.2093 J3.5926 F1020.00
G1 X29.5015 Y398.9552 Z-0.5000 F1020.00
G1 X29.0218 Y399.0482 Z-0.5000 F1020.00
G1 X30.3818 Y400.4083 Z-0.5000 F1020.00
G2 X29.8730 Y400.4722 Z-0.5000 I0.1523 J3.2707 F1020.00
G1 X28.5450 Y399.1442 Z-0.5000 F1020.00
G1 X28.0957 Y399.2677 Z-0.5000 F1020.00
G1 X29.3796 Y400.5516 Z-0.5000 F1020.00
G2 X28.9123 Y400.6570 Z-0.5000 I0.4436 J3.0561 F1020.00
G1 X27.6464 Y399.3912 Z-0.5000 F1020.00
G2 X27.2250 Y399.5425 Z-0.5000 I0.7750 J2.8215 F1020.00
G1 X28.4519 Y400.7694 Z-0.5000 F1020.00
G2 X28.0184 Y400.9086 Z-0.5000 I0.7013 J2.9281 F1020.00
G1 X26.8036 Y399.6938 Z-0.5000 F1020.00
G2 X26.4032 Y399.8662 Z-0.5000 I0.9228 J2.6934 F1020.00
G1 X27.5879 Y401.0509 Z-0.5000 F1020.00
G2 X27.1829 Y401.2187 Z-0.5000 I0.9240 J2.8039 F1020.00
G1 X26.0078 Y400.0435 Z-0.5000 F1020.00
G2 X25.6259 Y400.2344 Z-0.5000 I1.0520 J2.5826 F1020.00
G1 X26.7800 Y401.3886 Z-0.5000 F1020.00
G2 X26.3998 Y401.5810 Z-0.5000 I1.0719 J2.5899 F1020.00
G1 X25.2549 Y400.4361 Z-0.5000 F1020.00
G2 X24.8894 Y400.6434 Z-0.5000 I1.1673 J2.4838 F1020.00
G1 X26.0228 Y401.7768 Z-0.5000 F1020.00
G2 X25.6645 Y401.9913 Z-0.5000 I1.2029 J2.4148 F1020.00
G1 X24.5418 Y400.8685 Z-0.5000 F1020.00
G1 X24.1941 Y401.0937 Z-0.5000 F1020.00
G1 X25.3121 Y402.2116 Z-0.5000 F1020.00
G2 X25.0962 Y402.5685 Z-0.5000 I0.0461 J0.2716 F1020.00
G1 X23.8663 Y401.3386 Z-0.5000 F1020.00
G0 X23.8663 Y401.3386 Z5.0000
G0 X25.0997 Y403.1448 Z5.0000
G0 X25.0997 Y403.1448 Z2.5000
G1 X25.0997 Y403.1448 Z-0.5000 F1020.00
G1 X37.0091 Y415.0541 Z-0.5000 F1020.00
G1 X36.4363 Y415.0541 Z-0.5000 F1020.00
G1 X25.3754 Y403.9932 Z-0.5000 F1020.00
G1 X25.6511 Y404.8416 Z-0.5000 F1020.00
G1 X35.8635 Y415.0541 Z-0.5000 F1020.00
G1 X35.2908 Y415.0541 Z-0.5000 F1020.00
G1 X25.9267 Y405.6901 Z-0.5000 F1020.00
G1 X26.2024 Y406.5385 Z-0.5000 F1020.00
G1 X34.7180 Y415.0541 Z-0.5000 F1020.00
G2 X34.1520 Y415.0608 Z-0.5000 I-0.2619 J1.7904 F1020.00
G1 X26.4781 Y407.3869 Z-0.5000 F1020.00
G1 X26.7538 Y408.2353 Z-0.5000 F1020.00
G1 X33.9183 Y415.3999 Z-0.5000 F1020.00
G1 X33.7779 Y415.8322 Z-0.5000 F1020.00
G1 X27.0294 Y409.0838 Z-0.5000 F1020.00
G1 X27.3051 Y409.9322 Z-0.5000 F1020.00
G1 X33.6374 Y416.2645 Z-0.5000 F1020.00
G1 X33.4969 Y416.6968 Z-0.5000 F1020.00
G1 X27.1940 Y410.3939 Z-0.5000 F1020.00
G1 X26.8623 Y410.6349 Z-0.5000 F1020.00
G1 X33.3565 Y417.1291 Z-0.5000 F1020.00
G1 X33.2160 Y417.5614 Z-0.5000 F1020.00
G1 X26.5306 Y410.8759 Z-0.5000 F1020.00
G1 X26.1988 Y411.1169 Z-0.5000 F1020.00
G1 X33.0756 Y417.9937 Z-0.5000 F1020.00
G1 X32.9351 Y418.4260 Z-0.5000 F1020.00
G1 X25.8671 Y411.3580 Z-0.5000 F1020.00
G1 X25.5354 Y411.5990 Z-0.5000 F1020.00
G1 X32.7946 Y418.8583 Z-0.5000 F1020.00
G1 X32.6542 Y419.2906 Z-0.5000 F1020.00
G1 X29.2348 Y415.8712 Z-0.5000 F1020.00
G1 X29.5105 Y416.7196 Z-0.5000 F1020.00
G1 X32.5137 Y419.7229 Z-0.5000 F1020.00
G1 X32.3733 Y420.1552 Z-0.5000 F1020.00
G1 X29.7861 Y417.5680 Z-0.5000 F1020.00
G1 X30.0618 Y418.4165 Z-0.5000 F1020.00
G1 X32.2328 Y420.5875 Z-0.5000 F1020.00
G1 X32.0923 Y421.0198 Z-0.5000 F1020.00
G1 X30.3375 Y419.2649 Z-0.5000 F1020.00
G1 X30.6131 Y420.1133 Z-0.5000 F1020.00
G1 X31.9519 Y421.4521 Z-0.5000 F1020.00
G1 X31.8114 Y421.8843 Z-0.5000 F1020.00
G1 X30.8888 Y420.9618 Z-0.5000 F1020.00
G1 X31.1645 Y421.8102 Z-0.5000 F1020.00
G1 X31.6710 Y422.3166 Z-0.5000 F1020.00
G2 X31.6492 Y422.7046 Z-0.5000 I0.2475 J0.2085 F1020.00
G2 X32.1251 Y422.7708 Z-0.5000 I0.3002 J-0.4145 F1020.00
G1 X33.5340 Y424.1797 Z-0.5000 F1020.00
G3 X33.0265 Y424.2449 Z-0.5000 I-0.6783 J-3.2730 F1020.00
G1 X31.3925 Y422.6109 Z-0.5000 F1020.00
G3 X30.9874 Y422.7786 Z-0.5000 I-0.2726 J-0.0854 F1020.00
G1 X32.5130 Y424.3042 Z-0.5000 F1020.00
G3 X31.9640 Y424.3279 Z-0.5000 I-0.4292 J-3.5636 F1020.00
G1 X30.3717 Y422.7357 Z-0.5000 F1020.00
G3 X29.7069 Y422.6436 Z-0.5000 I0.2593 J-4.3165 F1020.00
G1 X31.4054 Y424.3421 Z-0.5000 F1020.00
G1 X30.8098 Y424.3193 Z-0.5000 F1020.00
G1 X28.9943 Y422.5038 Z-0.5000 F1020.00
G3 X28.2134 Y422.2956 Z-0.5000 I0.9261 J-5.0433 F1020.00
G1 X30.1874 Y424.2696 Z-0.5000 F1020.00
G3 X29.5389 Y424.1939 Z-0.5000 I0.1690 J-4.2612 F1020.00
G1 X27.3275 Y421.9825 Z-0.5000 F1020.00
G3 X26.2641 Y421.4919 Z-0.5000 I2.5593 J-6.9446 F1020.00
G1 X28.8283 Y424.0561 Z-0.5000 F1020.00
G3 X28.0652 Y423.8657 Z-0.5000 I0.8583 J-5.0652 F1020.00
G1 X24.6779 Y420.4784 Z-0.5000 F1020.00
G3 X22.5856 Y418.3861 Z-0.5000 I6.4634 J-8.5557 F1020.00
G1 X19.1940 Y414.9945 Z-0.5000 F1020.00
G1 X19.4592 Y415.8324 Z-0.5000 F1020.00
G1 X27.2267 Y423.5999 Z-0.5000 F1020.00
G3 X26.2696 Y423.2157 Z-0.5000 I2.0241 J-6.4249 F1020.00
G1 X19.8377 Y416.7837 Z-0.5000 F1020.00
G2 X20.4564 Y417.9751 Z-0.5000 I7.9604 J-3.3772 F1020.00
G1 X25.1059 Y422.6247 Z-0.5000 F1020.00
G3 X23.0312 Y421.1227 Z-0.5000 I5.6803 J-10.0304 F1020.00
G3 X21.8882 Y419.9797 Z-0.5000 I6.1495 J-7.2926 F1020.00
G1 X23.0312 Y421.1227 Z-0.5000 F1020.00
G1 X23.0312 Y421.1227 Z-1.0000 F1020.00
G1 X21.8882 Y419.9797 Z-1.0000 F1020.00
G2 X23.0312 Y421.1227 Z-1.0000 I7.2926 J-6.1495 F1020.00
G2 X25.1059 Y422.6247 Z-1.0000 I7.7550 J-8.5285 F1020.00
G1 X20.4564 Y417.9751 Z-1.0000 F1020.00
G3 X19.8377 Y416.7837 Z-1.0000 I7.3417 J-4.5687 F1020.00
G1 X26.2696 Y423.2157 Z-1.0000 F1020.00
G2 X27.2267 Y423.5999 Z-1.0000 I2.9811 J-6.0406 F1020.00
G1 X19.4592 Y415.8324 Z-1.0000 F1020.00
G1 X19.1940 Y414.9945 Z-1.0000 F1020.00
G1 X22.5856 Y418.3861 Z-1.0000 F1020.00
G2 X24.6779 Y420.4784 Z-1.0000 I8.5557 J-6.4634 F1020.00
G1 X28.0652 Y423.8657 Z-1.0000 F1020.00
G2 X28.8283 Y424.0561 Z-1.0000 I1.6214 J-4.8748 F1020.00
G1 X26.2641 Y421.4919 Z-1.0000 F1020.00
G2 X27.3275 Y421.9825 Z-1.0000 I3.6228 J-6.4540 F1020.00
G1 X29.5389 Y424.1939 Z-1.0000 F1020.00
G2 X30.1874 Y424.2696 Z-1.0000 I0.8175 J-4.1855 F1020.00
G1 X28.2134 Y422.2956 Z-1.0000 F1020.00
G2 X28.9943 Y422.5038 Z-1.0000 I1.7070 J-4.8351 F1020.00
G1 X30.8098 Y424.3193 Z-1.0000 F1020.00
G1 X31.4054 Y424.3421 Z-1.0000 F1020.00
G1 X29.7069 Y422.6436 Z-1.0000 F1020.00
G2 X30.3717 Y422.7357 Z-1.0000 I0.9242 J-4.2244 F1020.00
G1 X31.9640 Y424.3279 Z-1.0000 F1020.00
G2 X32.5130 Y424.3042 Z-1.0000 I0.1198 J-3.5873 F1020.00
G1 X30.9874 Y422.7786 Z-1.0000 F1020.00
G2 X31.3925 Y422.6109 Z-1.0000 I0.1325 J-0.2531 F1020.00
G1 X33.0265 Y424.2449 Z-1.0000 F1020.00
G2 X33.5340 Y424.1797 Z-1.0000 I-0.1708 J-3.3382 F1020.00
G1 X32.1251 Y422.7708 Z-1.0000 F1020.00
G3 X31.6492 Y422.7046 Z-1.0000 I-0.1757 J-0.4807 F1020.00
G3 X31.6710 Y422.3166 Z-1.0000 I0.2693 J-0.1794 F1020.00
G1 X31.1645 Y421.8102 Z-1.0000 F1020.00
G1 X30.8888 Y420.9618 Z-1.0000 F1020.00
G1 X31.8114 Y421.8843 Z-1.0000 F1020.00
G1 X31.9519 Y421.4521 Z-1.0000 F1020.00
G1 X30.6131 Y420.1133 Z-1.0000 F1020.00
G1 X30.3375 Y419.2649 Z-1.0000 F1020.00
G1 X32.0923 Y421.0198 Z-1.0000 F1020.00
G1 X32.2328 Y420.5875 Z-1.0000 F1020.00
G1 X30.0618 Y418.4165 Z-1.0000 F1020.00
G1 X29.7861 Y417.5680 Z-1.0000 F1020.00
G1 X32.3733 Y420.1552 Z-1.0000 F1020.00
G1 X32.5137 Y419.7229 Z-1.0000 F1020.00
G1 X29.5105 Y416.7196 Z-1.0000 F1020.00
G1 X29.2348 Y415.8712 Z-1.0000 F1020.00
G1 X32.6542 Y419.2906 Z-1.0000 F1020.00
G1 X32.7946 Y418.8583 Z-1.0000 F1020.00
G1 X25.5354 Y411.5990 Z-1.0000 F1020.00
G1 X25.8671 Y411.3580 Z-1.0000 F1020.00
G1 X32.9351 Y418.4260 Z-1.0000 F1020.00
G1 X33.0756 Y417.9937 Z-1.0000 F1020.00
G1 X26.1988 Y411.1169 Z-1.0000 F1020.00
G1 X26.5306 Y410.8759 Z-1.0000 F1020.00
G1 X33.2160 Y417.5614 Z-1.0000 F1020.00
G1 X33.3565 Y417.1291 Z-1.0000 F1020.00
G1 X26.8623 Y410.6349 Z-1.0000 F1020.00
G1 X27.1940 Y410.3939 Z-1.0000 F1020.00
G1 X33.4969 Y416.6968 Z-1.0000 F1020.00
G1 X33.6374 Y416.2645 Z-1.0000 F1020.00
G1 X27.3051 Y409.9322 Z-1.0000 F1020.00
G1 X27.0294 Y409.0838 Z-1.0000 F1020.00
G1 X33.7779 Y415.8322 Z-1.0000 F1020.00
G1 X33.9183 Y415.3999 Z-1.0000 F1020.00
G1 X26.7538 Y408.2353 Z-1.0000 F1020.00
G1 X26.4781 Y407.3869 Z-1.0000 F1020.00
G1 X34.1520 Y415.0608 Z-1.0000 F1020.00
G3 X34.7180 Y415.0541 Z-1.0000 I0.3041 J1.7837 F1020.00
G1 X26.2024 Y406.5385 Z-1.0000 F1020.00
G1 X25.9267 Y405.6901 Z-1.0000 F1020.00
G1 X35.2908 Y415.0541 Z-1.0000 F1020.00
G1 X35.8635 Y415.0541 Z-1.0000 F1020.00
G1 X25.6511 Y404.8416 Z-1.0000 F1020.00
G1 X25.3754 Y403.9932 Z-1.0000 F1020.00
G1 X36.4363 Y415.0541 Z-1.0000 F1020.00
G1 X37.0091 Y415.0541 Z-1.0000 F1020.00
G1 X25.0997 Y403.1448 Z-1.0000 F1020.00
G0 X25.0997 Y403.1448 Z5.0000
G0 X23.8663 Y401.3386 Z5.0000
G0 X23.8663 Y401.3386 Z2.0000
G1 X23.8663 Y401.3386 Z-1.0000 F1020.00
G1 X25.0962 Y402.5685 Z-1.0000 F1020.00
G3 X25.3121 Y402.2116 Z-1.0000 I0.2620 J-0.0852 F1020.00
G1 X24.1941 Y401.0937 Z-1.0000 F1020.00
G1 X24.5418 Y400.8685 Z-1.0000 F1020.00
G1 X25.6645 Y401.9913 Z-1.0000 F1020.00
G3 X26.0228 Y401.7768 Z-1.0000 I1.5611 J2.2003 F1020.00
G1 X24.8894 Y400.6434 Z-1.0000 F1020.00
G3 X25.2549 Y400.4361 Z-1.0000 I1.5327 J2.2765 F1020.00
G1 X26.3998 Y401.5810 Z-1.0000 F1020.00
G3 X26.7800 Y401.3886 Z-1.0000 I1.4522 J2.3974 F1020.00
G1 X25.6259 Y400.2344 Z-1.0000 F1020.00
G3 X26.0078 Y400.0435 Z-1.0000 I1.4339 J2.3918 F1020.00
G1 X27.1829 Y401.2187 Z-1.0000 F1020.00
G3 X27.5879 Y401.0509 Z-1.0000 I1.3290 J2.6361 F1020.00
G1 X26.4032 Y399.8662 Z-1.0000 F1020.00
G3 X26.8036 Y399.6938 Z-1.0000 I1.3231 J2.5210 F1020.00
G1 X28.0184 Y400.9086 Z-1.0000 F1020.00
G3 X28.4519 Y400.7694 Z-1.0000 I1.1348 J2.7888 F1020.00
G1 X27.2250 Y399.5425 Z-1.0000 F1020.00
G3 X27.6464 Y399.3912 Z-1.0000 I1.1964 J2.6702 F1020.00
G1 X28.9123 Y400.6570 Z-1.0000 F1020.00
G3 X29.3796 Y400.5516 Z-1.0000 I0.9110 J2.9507 F1020.00
G1 X28.0957 Y399.2677 Z-1.0000 F1020.00
G1 X28.5450 Y399.1442 Z-1.0000 F1020.00
G1 X29.8730 Y400.4722 Z-1.0000 F1020.00
G3 X30.3818 Y400.4083 Z-1.0000 I0.6611 J3.2068 F1020.00
G1 X29.0218 Y399.0482 Z-1.0000 F1020.00
G1 X29.5015 Y398.9552 Z-1.0000 F1020.00
G1 X30.9122 Y400.3659 Z-1.0000 F1020.00
G3 X31.4737 Y400.3547 Z-1.0000 I0.3523 J3.5814 F1020.00
G1 X30.0115 Y398.8925 Z-1.0000 F1020.00
G3 X30.5252 Y398.8334 Z-1.0000 I0.6415 J3.3163 F1020.00
G1 X32.0550 Y400.3632 Z-1.0000 F1020.00
G1 X32.6776 Y400.4130 Z-1.0000 F1020.00
G1 X31.0768 Y398.8123 Z-1.0000 F1020.00
G3 X31.6387 Y398.8014 Z-1.0000 I0.3519 J3.6536 F1020.00
G1 X33.3445 Y400.5072 Z-1.0000 F1020.00
G3 X34.0604 Y400.6503 Z-1.0000 I-0.5480 J4.6027 F1020.00
G1 X32.2343 Y398.8242 Z-1.0000 F1020.00
G3 X32.8606 Y398.8777 Z-1.0000 I-0.0354 J4.1054 F1020.00
G1 X34.8469 Y400.8641 Z-1.0000 F1020.00
G3 X35.7430 Y401.1874 Z-1.0000 I-1.5946 J5.8228 F1020.00
G1 X33.5137 Y398.9581 Z-1.0000 F1020.00
G1 X34.2243 Y399.0959 Z-1.0000 F1020.00
G1 X36.8272 Y401.6989 Z-1.0000 F1020.00
G0 X36.8272 Y401.6989 Z5.0000
G0 X40.3585 Y402.3664 Z5.0000
G0 X40.3585 Y402.3664 Z2.0000
G1 X40.3585 Y402.3664 Z-1.0000 F1020.00
G3 X42.4815 Y405.0621 Z-1.0000 I-8.4306 J8.8232 F1020.00
G1 X37.9870 Y400.5677 Z-1.0000 F1020.00
G2 X36.8072 Y399.9606 Z-1.0000 I-4.5436 J7.3802 F1020.00
G1 X43.1231 Y406.2765 Z-1.0000 F1020.00
G3 X43.5204 Y407.2465 Z-1.0000 I-6.1188 J3.0723 F1020.00
G1 X35.8395 Y399.5656 Z-1.0000 F1020.00
G2 X34.9933 Y399.2922 Z-1.0000 I-2.2040 J5.3743 F1020.00
G1 X38.5249 Y402.8238 Z-1.0000 F1020.00
G2 X38.2737 Y402.6474 Z-1.0000 I-0.4793 J0.4157 F1020.00
G2 X37.9917 Y402.8634 Z-1.0000 I-0.0417 J0.2376 F1020.00
G1 X37.8096 Y402.6812 Z-1.0000 F1020.00
G1 X37.4779 Y402.9223 Z-1.0000 F1020.00
G1 X37.8512 Y403.2957 Z-1.0000 F1020.00
G1 X37.7108 Y403.7279 Z-1.0000 F1020.00
G1 X37.1461 Y403.1633 Z-1.0000 F1020.00
G1 X36.8144 Y403.4043 Z-1.0000 F1020.00
G1 X37.5703 Y404.1602 Z-1.0000 F1020.00
G1 X37.4299 Y404.5925 Z-1.0000 F1020.00
G1 X36.4826 Y403.6453 Z-1.0000 F1020.00
G1 X36.1509 Y403.8863 Z-1.0000 F1020.00
G1 X37.2894 Y405.0248 Z-1.0000 F1020.00
G1 X37.1489 Y405.4571 Z-1.0000 F1020.00
G1 X35.8192 Y404.1274 Z-1.0000 F1020.00
G1 X35.4874 Y404.3684 Z-1.0000 F1020.00
G1 X37.0085 Y405.8894 Z-1.0000 F1020.00
G1 X36.8680 Y406.3217 Z-1.0000 F1020.00
G1 X35.1557 Y404.6094 Z-1.0000 F1020.00
G1 X34.8240 Y404.8504 Z-1.0000 F1020.00
G1 X36.7276 Y406.7540 Z-1.0000 F1020.00
G1 X36.5871 Y407.1863 Z-1.0000 F1020.00
G1 X34.4922 Y405.0914 Z-1.0000 F1020.00
G1 X34.1605 Y405.3325 Z-1.0000 F1020.00
G1 X36.4466 Y407.6186 Z-1.0000 F1020.00
G1 X36.3062 Y408.0509 Z-1.0000 F1020.00
G1 X33.8288 Y405.5735 Z-1.0000 F1020.00
G1 X33.4970 Y405.8145 Z-1.0000 F1020.00
G1 X36.1657 Y408.4832 Z-1.0000 F1020.00
G1 X36.0253 Y408.9155 Z-1.0000 F1020.00
G1 X33.1653 Y406.0555 Z-1.0000 F1020.00
G1 X32.8335 Y406.2965 Z-1.0000 F1020.00
G1 X35.8848 Y409.3478 Z-1.0000 F1020.00
G1 X35.7443 Y409.7801 Z-1.0000 F1020.00
G1 X32.5018 Y406.5376 Z-1.0000 F1020.00
G1 X32.1701 Y406.7786 Z-1.0000 F1020.00
G1 X35.6762 Y410.2847 Z-1.0000 F1020.00
G2 X40.4456 Y415.0541 Z-1.0000 I243.4093 J-238.6399 F1020.00
G1 X39.8728 Y415.0541 Z-1.0000 F1020.00
G1 X31.8383 Y407.0196 Z-1.0000 F1020.00
G3 X31.5695 Y407.2013 Z-1.0000 I-0.7080 J-0.7577 F1020.00
G3 X31.4504 Y407.2045 Z-1.0000 I-0.0644 J-0.1817 F1020.00
G1 X39.3001 Y415.0541 Z-1.0000 F1020.00
G1 X38.7273 Y415.0541 Z-1.0000 F1020.00
G1 X29.4472 Y405.7740 Z-1.0000 F1020.00
G1 X27.3527 Y404.2522 Z-1.0000 F1020.00
G1 X38.1546 Y415.0541 Z-1.0000 F1020.00
G1 X37.5818 Y415.0541 Z-1.0000 F1020.00
G1 X25.2582 Y402.7305 Z-1.0000 F1020.00
G3 X23.8663 Y401.3386 Z-1.0000 I16.6740 J-18.0659 F1020.00
G1 X23.5413 Y401.5863 Z-1.0000 F1020.00
G1 X24.6430 Y402.6881 Z-1.0000 F1020.00
G1 X24.6285 Y402.6951 Z-1.0000 F1020.00
G1 X24.3287 Y402.9465 Z-1.0000 F1020.00
G1 X23.2269 Y401.8447 Z-1.0000 F1020.00
G1 X22.9240 Y402.1146 Z-1.0000 F1020.00
G1 X24.0172 Y403.2078 Z-1.0000 F1020.00
G2 X23.7237 Y403.4870 Z-1.0000 I1.6568 J2.0364 F1020.00
G1 X22.6226 Y402.3860 Z-1.0000 F1020.00
G1 X22.3418 Y402.6778 Z-1.0000 F1020.00
G1 X23.4351 Y403.7712 Z-1.0000 F1020.00
G2 X23.1595 Y404.0684 Z-1.0000 I1.7633 J1.9109 F1020.00
G1 X22.0609 Y402.9697 Z-1.0000 F1020.00
G2 X21.7943 Y403.2759 Z-1.0000 I1.8609 J1.8890 F1020.00
G1 X22.8939 Y404.3755 Z-1.0000 F1020.00
G2 X22.6366 Y404.6909 Z-1.0000 I1.8917 J1.8051 F1020.00
G1 X21.5354 Y403.5898 Z-1.0000 F1020.00
G2 X21.2821 Y403.9092 Z-1.0000 I1.9534 J1.8098 F1020.00
G1 X22.3941 Y405.0212 Z-1.0000 F1020.00
G2 X22.1558 Y405.3556 Z-1.0000 I2.0523 J1.7145 F1020.00
G1 X21.0456 Y404.2454 Z-1.0000 F1020.00
G1 X20.8091 Y404.5817 Z-1.0000 F1020.00
G1 X21.9370 Y405.7096 Z-1.0000 F1020.00
G2 X21.7188 Y406.0642 Z-1.0000 I2.7268 J1.9222 F1020.00
G1 X20.5924 Y404.9378 Z-1.0000 F1020.00
G1 X20.3789 Y405.2970 Z-1.0000 F1020.00
G1 X21.5247 Y406.4428 Z-1.0000 F1020.00
G1 X21.3305 Y406.8214 Z-1.0000 F1020.00
G1 X20.1778 Y405.6687 Z-1.0000 F1020.00
G1 X19.9882 Y406.0518 Z-1.0000 F1020.00
G1 X21.1603 Y407.2239 Z-1.0000 F1020.00
G1 X20.9921 Y407.6285 Z-1.0000 F1020.00
G1 X19.8044 Y406.4408 Z-1.0000 F1020.00
G1 X19.6398 Y406.8490 Z-1.0000 F1020.00
G1 X20.8482 Y408.0573 Z-1.0000 F1020.00
G1 X20.7077 Y408.4896 Z-1.0000 F1020.00
G1 X19.4756 Y407.2575 Z-1.0000 F1020.00
G1 X19.3379 Y407.6926 Z-1.0000 F1020.00
G1 X20.5945 Y408.9491 Z-1.0000 F1020.00
G2 X20.4848 Y409.4122 Z-1.0000 I3.6813 J1.1167 F1020.00
G1 X19.2002 Y408.1276 Z-1.0000 F1020.00
G2 X19.0877 Y408.5879 Z-1.0000 I2.9412 J0.9628 F1020.00
G1 X20.4076 Y409.9077 Z-1.0000 F1020.00
G2 X20.3391 Y410.4121 Z-1.0000 I3.1953 J0.6905 F1020.00
G1 X18.9791 Y409.0520 Z-1.0000 F1020.00
G2 X18.8965 Y409.5422 Z-1.0000 I3.1509 J0.7830 F1020.00
G1 X20.2992 Y410.9449 Z-1.0000 F1020.00
G2 X20.2833 Y411.5017 Z-1.0000 I3.5310 J0.3800 F1020.00
G1 X18.8199 Y410.0383 Z-1.0000 F1020.00
G2 X18.7742 Y410.5654 Z-1.0000 I3.4096 J0.5612 F1020.00
G1 X20.2865 Y412.0777 Z-1.0000 F1020.00
G2 X20.3396 Y412.7036 Z-1.0000 I17.6080 J-1.1801 F1020.00
G1 X18.7345 Y411.0985 Z-1.0000 F1020.00
G1 X18.7345 Y411.6713 Z-1.0000 F1020.00
G1 X20.4280 Y413.3648 Z-1.0000 F1020.00
G2 X20.5644 Y414.0739 Z-1.0000 I4.5657 J-0.5103 F1020.00
G1 X18.7498 Y412.2593 Z-1.0000 F1020.00
G0 X18.7498 Y412.2593 Z5.0000
G0 X19.1940 Y414.9945 Z5.0000
G0 X19.1940 Y414.9945 Z2.0000
G1 X19.1940 Y414.9945 Z-1.0000 F1020.00
G1 X22.5856 Y418.3861 Z-1.0000 F1020.00
G3 X21.5765 Y416.8043 Z-1.0000 I7.8996 J-6.1519 F1020.00
G1 X19.0149 Y414.2426 Z-1.0000 F1020.00
G3 X18.8877 Y413.5427 Z-1.0000 I4.4947 J-1.1781 F1020.00
G1 X21.0889 Y415.7439 Z-1.0000 F1020.00
G1 X20.9352 Y415.3633 Z-1.0000 F1020.00
G3 X21.0172 Y415.0994 Z-1.0000 I0.1990 J-0.0829 F1020.00
G1 X18.7975 Y412.8797 Z-1.0000 F1020.00
G1 X18.7498 Y412.2593 Z-1.0000 F1020.00
G1 X20.5644 Y414.0739 Z-1.0000 F1020.00
G1 X20.7238 Y414.7126 Z-1.0000 F1020.00
G2 X20.8652 Y414.8695 Z-1.0000 I0.2183 J-0.0545 F1020.00
G2 X21.2228 Y414.7323 Z-1.0000 I0.0870 J-0.3077 F1020.00
G1 X21.5446 Y415.0541 Z-1.0000 F1020.00
G1 X22.1174 Y415.0541 Z-1.0000 F1020.00
G1 X21.5545 Y414.4912 Z-1.0000 F1020.00
G1 X21.8863 Y414.2502 Z-1.0000 F1020.00
G1 X22.6901 Y415.0541 Z-1.0000 F1020.00
G1 X23.2629 Y415.0541 Z-1.0000 F1020.00
G1 X22.2180 Y414.0092 Z-1.0000 F1020.00
G1 X22.5497 Y413.7682 Z-1.0000 F1020.00
G1 X23.8357 Y415.0541 Z-1.0000 F1020.00
G1 X24.4084 Y415.0541 Z-1.0000 F1020.00
G1 X22.8815 Y413.5272 Z-1.0000 F1020.00
G1 X23.2132 Y413.2861 Z-1.0000 F1020.00
G1 X24.9812 Y415.0541 Z-1.0000 F1020.00
G1 X25.5539 Y415.0541 Z-1.0000 F1020.00
G1 X23.5449 Y413.0451 Z-1.0000 F1020.00
G1 X23.8767 Y412.8041 Z-1.0000 F1020.00
G1 X26.1267 Y415.0541 Z-1.0000 F1020.00
G1 X26.6994 Y415.0541 Z-1.0000 F1020.00
G1 X24.2084 Y412.5631 Z-1.0000 F1020.00
G1 X24.5401 Y412.3221 Z-1.0000 F1020.00
G1 X27.2722 Y415.0541 Z-1.0000 F1020.00
G1 X27.8449 Y415.0541 Z-1.0000 F1020.00
G1 X24.8719 Y412.0810 Z-1.0000 F1020.00
G1 X25.2036 Y411.8400 Z-1.0000 F1020.00
G1 X28.4177 Y415.0541 Z-1.0000 F1020.00
G0 X28.4177 Y415.0541 Z5.0000
G0 X33.5340 Y424.1797 Z5.0000
G0 X33.5340 Y424.1797 Z2.0000
G1 X33.5340 Y424.1797 Z-1.0000 F1020.00
G1 X32.1251 Y422.7708 Z-1.0000 F1020.00
G1 X32.6605 Y422.7335 Z-1.0000 F1020.00
G1 X34.0138 Y424.0867 Z-1.0000 F1020.00
G2 X34.4882 Y423.9884 Z-1.0000 I-0.4028 J-3.1392 F1020.00
G1 X33.1630 Y422.6632 Z-1.0000 F1020.00
G2 X33.6576 Y422.5850 Z-1.0000 I-0.2691 J-3.3059 F1020.00
G1 X34.9375 Y423.8649 Z-1.0000 F1020.00
G2 X35.3848 Y423.7395 Z-1.0000 I-0.5935 J-2.9757 F1020.00
G1 X34.1220 Y422.4766 Z-1.0000 F1020.00
G2 X34.5797 Y422.3617 Z-1.0000 I-0.5110 J-3.0035 F1020.00
G1 X35.8062 Y423.5881 Z-1.0000 F1020.00
G1 X36.2276 Y423.4368 Z-1.0000 F1020.00
G1 X35.0139 Y422.2230 Z-1.0000 F1020.00
G2 X35.4410 Y422.0774 Z-1.0000 I-0.7222 J-2.8163 F1020.00
G1 X36.6260 Y423.2624 Z-1.0000 F1020.00
G1 X37.0215 Y423.0851 Z-1.0000 F1020.00
G1 X35.8473 Y421.9109 Z-1.0000 F1020.00
G2 X36.2480 Y421.7389 Z-1.0000 I-0.9097 J-2.6720 F1020.00
G1 X37.4016 Y422.8925 Z-1.0000 F1020.00
G1 X37.7726 Y422.6907 Z-1.0000 F1020.00
G1 X36.6282 Y421.5464 Z-1.0000 F1020.00
G2 X37.0057 Y421.3511 Z-1.0000 I-1.1022 J-2.5932 F1020.00
G1 X38.1363 Y422.4817 Z-1.0000 F1020.00
G1 X38.4840 Y422.2566 Z-1.0000 F1020.00
G1 X37.3612 Y421.1339 Z-1.0000 F1020.00
G1 X37.7168 Y420.9166 Z-1.0000 F1020.00
G1 X38.8316 Y422.0315 Z-1.0000 F1020.00
G2 X39.1578 Y421.7849 Z-1.0000 I-1.4427 J-2.2476 F1020.00
G1 X38.0494 Y420.6765 Z-1.0000 F1020.00
G1 X38.3811 Y420.4355 Z-1.0000 F1020.00
G1 X39.4828 Y421.5371 Z-1.0000 F1020.00
G2 X39.7955 Y421.2771 Z-1.0000 I-1.5370 J-2.1668 F1020.00
G1 X38.6949 Y420.1764 Z-1.0000 F1020.00
G1 X39.0034 Y419.9122 Z-1.0000 F1020.00
G1 X40.0984 Y421.0072 Z-1.0000 F1020.00
G2 X40.3982 Y420.7342 Z-1.0000 I-1.6281 J-2.0887 F1020.00
G1 X39.2989 Y419.6349 Z-1.0000 F1020.00
G1 X39.5845 Y419.3478 Z-1.0000 F1020.00
G1 X40.6790 Y420.4424 Z-1.0000 F1020.00
G1 X40.9599 Y420.1505 Z-1.0000 F1020.00
G1 X39.8619 Y419.0525 Z-1.0000 F1020.00
G1 X40.1246 Y418.7424 Z-1.0000 F1020.00
G1 X41.2248 Y419.8427 Z-1.0000 F1020.00
G1 X41.4837 Y419.5288 Z-1.0000 F1020.00
G1 X40.3837 Y418.4288 Z-1.0000 F1020.00
G1 X40.6233 Y418.0955 Z-1.0000 F1020.00
G1 X41.7354 Y419.2077 Z-1.0000 F1020.00
G1 X41.9719 Y418.8715 Z-1.0000 F1020.00
G1 X40.8639 Y417.7608 Z-1.0000 F1020.00
G2 X41.0791 Y417.4059 Z-1.0000 I-2.8757 J-1.9865 F1020.00
G1 X42.2084 Y418.5352 Z-1.0000 F1020.00
G2 X42.4234 Y418.1774 Z-1.0000 I-2.2229 J-1.5787 F1020.00
G1 X41.2948 Y417.0488 Z-1.0000 F1020.00
G2 X41.4900 Y416.6712 Z-1.0000 I-2.3544 J-1.4565 F1020.00
G1 X42.6369 Y417.8182 Z-1.0000 F1020.00
G2 X42.8362 Y417.4447 Z-1.0000 I-2.3327 J-1.4846 F1020.00
G1 X41.6809 Y416.2894 Z-1.0000 F1020.00
G2 X41.8527 Y415.8885 Z-1.0000 I-2.4883 J-1.3039 F1020.00
G1 X43.0259 Y417.0616 Z-1.0000 F1020.00
G2 X43.2078 Y416.6708 Z-1.0000 I-2.4544 J-1.3802 F1020.00
G1 X42.0175 Y415.4805 Z-1.0000 F1020.00
G0 X42.0175 Y415.4805 Z5.0000
G0 X40.4456 Y415.0541 Z5.0000
G0 X40.4456 Y415.0541 Z2.0000
G1 X40.4456 Y415.0541 Z-1.0000 F1020.00
G1 X35.7307 Y410.3392 Z-1.0000 F1020.00
G1 X37.8252 Y411.8609 Z-1.0000 F1020.00
G1 X41.0183 Y415.0541 Z-1.0000 F1020.00
G1 X41.5911 Y415.0541 Z-1.0000 F1020.00
G1 X39.9197 Y413.3827 Z-1.0000 F1020.00
G1 X41.9257 Y414.8401 Z-1.0000 F1020.00
G1 X41.9663 Y414.8565 Z-1.0000 F1020.00
G1 X43.3723 Y416.2626 Z-1.0000 F1020.00
G2 X43.5346 Y415.8521 Z-1.0000 I-2.5923 J-1.2619 F1020.00
G1 X42.2999 Y414.6174 Z-1.0000 F1020.00
G1 X42.4143 Y414.1591 Z-1.0000 F1020.00
G1 X43.6723 Y415.4170 Z-1.0000 F1020.00
G1 X43.8100 Y414.9819 Z-1.0000 F1020.00
G1 X42.5179 Y413.6899 Z-1.0000 F1020.00
G1 X42.5996 Y413.1988 Z-1.0000 F1020.00
G1 X43.9203 Y414.5195 Z-1.0000 F1020.00
G1 X44.0289 Y414.0554 Z-1.0000 F1020.00
G1 X42.6617 Y412.6882 Z-1.0000 F1020.00
G1 X42.7066 Y412.1603 Z-1.0000 F1020.00
G1 X44.1092 Y413.5629 Z-1.0000 F1020.00
G1 X44.1858 Y413.0667 Z-1.0000 F1020.00
G1 X42.7163 Y411.5972 Z-1.0000 F1020.00
G2 X42.7059 Y411.0141 Z-1.0000 I-3.7202 J-0.2258 F1020.00
G1 X44.2289 Y412.5370 Z-1.0000 F1020.00
G2 X44.2655 Y412.0009 Z-1.0000 I-3.4734 J-0.5065 F1020.00
G1 X42.6596 Y410.3950 Z-1.0000 F1020.00
G2 X42.5643 Y409.7269 Z-1.0000 I-4.3301 J0.2770 F1020.00
G1 X44.2655 Y411.4281 Z-1.0000 F1020.00
G2 X44.2466 Y410.8366 Z-1.0000 I-3.8620 J-0.1733 F1020.00
G1 X42.4201 Y409.0100 Z-1.0000 F1020.00
G2 X42.2056 Y408.2227 Z-1.0000 I-5.0858 J0.9628 F1020.00
G1 X44.1990 Y410.2162 Z-1.0000 F1020.00
G2 X44.1045 Y409.5489 Z-1.0000 I-4.3928 J0.2818 F1020.00
G1 X41.8826 Y407.3270 Z-1.0000 F1020.00
G2 X41.3745 Y406.2461 Z-1.0000 I-7.0629 J2.6603 F1020.00
G1 X43.9722 Y408.8438 Z-1.0000 F1020.00
G2 X43.7864 Y408.0852 Z-1.0000 I-5.0330 J0.8308 F1020.00
G1 X40.2841 Y404.5830 Z-1.0000 F1020.00
G1 X40.2841 Y404.5830 Z-1.5000 F1020.00
G1 X43.7864 Y408.0852 Z-1.5000 F1020.00
G3 X43.9722 Y408.8438 Z-1.5000 I-4.8472 J1.5893 F1020.00
G1 X41.3745 Y406.2461 Z-1.5000 F1020.00
G3 X41.8826 Y407.3270 Z-1.5000 I-6.5548 J3.7412 F1020.00
G1 X44.1045 Y409.5489 Z-1.5000 F1020.00
G3 X44.1990 Y410.2162 Z-1.5000 I-4.2983 J0.9490 F1020.00
G1 X42.2056 Y408.2227 Z-1.5000 F1020.00
G3 X42.4201 Y409.0100 Z-1.5000 I-4.8713 J1.7501 F1020.00
G1 X44.2466 Y410.8366 Z-1.5000 F1020.00
G3 X44.2655 Y411.4281 Z-1.5000 I-3.8432 J0.4183 F1020.00
G1 X42.5643 Y409.7269 Z-1.5000 F1020.00
G3 X42.6596 Y410.3950 Z-1.5000 I-4.2348 J0.9451 F1020.00
G1 X44.2655 Y412.0009 Z-1.5000 F1020.00
G3 X44.2289 Y412.5370 Z-1.5000 I-3.5100 J0.0297 F1020.00
G1 X42.7059 Y411.0141 Z-1.5000 F1020.00
G3 X42.7163 Y411.5972 Z-1.5000 I-3.7099 J0.3572 F1020.00
G1 X44.1858 Y413.0667 Z-1.5000 F1020.00
G1 X44.1092 Y413.5629 Z-1.5000 F1020.00
G1 X42.7066 Y412.1603 Z-1.5000 F1020.00
G1 X42.6617 Y412.6882 Z-1.5000 F1020.00
G1 X44.0289 Y414.0554 Z-1.5000 F1020.00
G1 X43.9203 Y414.5195 Z-1.5000 F1020.00
G1 X42.5996 Y413.1988 Z-1.5000 F1020.00
G1 X42.5179 Y413.6899 Z-1.5000 F1020.00
G1 X43.8100 Y414.9819 Z-1.5000 F1020.00
G1 X43.6723 Y415.4170 Z-1.5000 F1020.00
G1 X42.4143 Y414.1591 Z-1.5000 F1020.00
G1 X42.2999 Y414.6174 Z-1.5000 F1020.00
G1 X43.5346 Y415.8521 Z-1.5000 F1020.00
G3 X43.3723 Y416.2626 Z-1.5000 I-2.7545 J-0.8514 F1020.00
G1 X41.9663 Y414.8565 Z-1.5000 F1020.00
G1 X41.9257 Y414.8401 Z-1.5000 F1020.00
G1 X39.9197 Y413.3827 Z-1.5000 F1020.00
G1 X41.5911 Y415.0541 Z-1.5000 F1020.00
G1 X41.0183 Y415.0541 Z-1.5000 F1020.00
G1 X37.8252 Y411.8609 Z-1.5000 F1020.00
G1 X35.7307 Y410.3392 Z-1.5000 F1020.00
G1 X40.4456 Y415.0541 Z-1.5000 F1020.00
G0 X40.4456 Y415.0541 Z5.0000
G0 X42.0175 Y415.4805 Z5.0000
G0 X42.0175 Y415.4805 Z1.5000
G1 X42.0175 Y415.4805 Z-1.5000 F1020.00
G1 X43.2078 Y416.6708 Z-1.5000 F1020.00
G3 X43.0259 Y417.0616 Z-1.5000 I-2.6363 J-0.9894 F1020.00
G1 X41.8527 Y415.8885 Z-1.5000 F1020.00
G3 X41.6809 Y416.2894 Z-1.5000 I-2.6601 J-0.9030 F1020.00
G1 X42.8362 Y417.4447 Z-1.5000 F1020.00
G3 X42.6369 Y417.8182 Z-1.5000 I-2.5319 J-1.1111 F1020.00
G1 X41.4900 Y416.6712 Z-1.5000 F1020.00
G3 X41.2948 Y417.0488 Z-1.5000 I-2.5496 J-1.0789 F1020.00
G1 X42.4234 Y418.1774 Z-1.5000 F1020.00
G3 X42.2084 Y418.5352 Z-1.5000 I-2.4378 J-1.2209 F1020.00
G1 X41.0791 Y417.4059 Z-1.5000 F1020.00
G3 X40.8639 Y417.7608 Z-1.5000 I-3.0909 J-1.6316 F1020.00
G1 X41.9719 Y418.8715 Z-1.5000 F1020.00
G1 X41.7354 Y419.2077 Z-1.5000 F1020.00
G1 X40.6233 Y418.0955 Z-1.5000 F1020.00
G1 X40.3837 Y418.4288 Z-1.5000 F1020.00
G1 X41.4837 Y419.5288 Z-1.5000 F1020.00
G1 X41.2248 Y419.8427 Z-1.5000 F1020.00
G1 X40.1246 Y418.7424 Z-1.5000 F1020.00
G1 X39.8619 Y419.0525 Z-1.5000 F1020.00
G1 X40.9599 Y420.1505 Z-1.5000 F1020.00
G1 X40.6790 Y420.4424 Z-1.5000 F1020.00
G1 X39.5845 Y419.3478 Z-1.5000 F1020.00
G1 X39.2989 Y419.6349 Z-1.5000 F1020.00
G1 X40.3982 Y420.7342 Z-1.5000 F1020.00
G3 X40.0984 Y421.0072 Z-1.5000 I-1.9278 J-1.8157 F1020.00
G1 X39.0034 Y419.9122 Z-1.5000 F1020.00
G1 X38.6949 Y420.1764 Z-1.5000 F1020.00
G1 X39.7955 Y421.2771 Z-1.5000 F1020.00
G3 X39.4828 Y421.5371 Z-1.5000 I-1.8497 J-1.9068 F1020.00
G1 X38.3811 Y420.4355 Z-1.5000 F1020.00
G1 X38.0494 Y420.6765 Z-1.5000 F1020.00
G1 X39.1578 Y421.7849 Z-1.5000 F1020.00
G3 X38.8316 Y422.0315 Z-1.5000 I-1.7689 J-2.0010 F1020.00
G1 X37.7168 Y420.9166 Z-1.5000 F1020.00
G1 X37.3612 Y421.1339 Z-1.5000 F1020.00
G1 X38.4840 Y422.2566 Z-1.5000 F1020.00
G1 X38.1363 Y422.4817 Z-1.5000 F1020.00
G1 X37.0057 Y421.3511 Z-1.5000 F1020.00
G3 X36.6282 Y421.5464 Z-1.5000 I-1.4797 J-2.3979 F1020.00
G1 X37.7726 Y422.6907 Z-1.5000 F1020.00
G1 X37.4016 Y422.8925 Z-1.5000 F1020.00
G1 X36.2480 Y421.7389 Z-1.5000 F1020.00
G3 X35.8473 Y421.9109 Z-1.5000 I-1.3104 J-2.5000 F1020.00
G1 X37.0215 Y423.0851 Z-1.5000 F1020.00
G1 X36.6260 Y423.2624 Z-1.5000 F1020.00
G1 X35.4410 Y422.0774 Z-1.5000 F1020.00
G3 X35.0139 Y422.2230 Z-1.5000 I-1.1493 J-2.6707 F1020.00
G1 X36.2276 Y423.4368 Z-1.5000 F1020.00
G1 X35.8062 Y423.5881 Z-1.5000 F1020.00
G1 X34.5797 Y422.3617 Z-1.5000 F1020.00
G3 X34.1220 Y422.4766 Z-1.5000 I-0.9688 J-2.8885 F1020.00
G1 X35.3848 Y423.7395 Z-1.5000 F1020.00
G3 X34.9375 Y423.8649 Z-1.5000 I-1.0408 J-2.8502 F1020.00
G1 X33.6576 Y422.5850 Z-1.5000 F1020.00
G3 X33.1630 Y422.6632 Z-1.5000 I-0.7637 J-3.2277 F1020.00
G1 X34.4882 Y423.9884 Z-1.5000 F1020.00
G3 X34.0138 Y424.0867 Z-1.5000 I-0.8773 J-3.0409 F1020.00
G1 X32.6605 Y422.7335 Z-1.5000 F1020.00
G1 X32.1251 Y422.7708 Z-1.5000 F1020.00
G1 X33.5340 Y424.1797 Z-1.5000 F1020.00
G0 X33.5340 Y424.1797 Z5.0000
G0 X28.4177 Y415.0541 Z5.0000
G0 X28.4177 Y415.0541 Z1.5000
G1 X28.4177 Y415.0541 Z-1.5000 F1020.00
G1 X25.2036 Y411.8400 Z-1.5000 F1020.00
G1 X24.8719 Y412.0810 Z-1.5000 F1020.00
G1 X27.8449 Y415.0541 Z-1.5000 F1020.00
G1 X27.2722 Y415.0541 Z-1.5000 F1020.00
G1 X24.5401 Y412.3221 Z-1.5000 F1020.00
G1 X24.2084 Y412.5631 Z-1.5000 F1020.00
G1 X26.6994 Y415.0541 Z-1.5000 F1020.00
G1 X26.1267 Y415.0541 Z-1.5000 F1020.00
G1 X23.8767 Y412.8041 Z-1.5000 F1020.00
G1 X23.5449 Y413.0451 Z-1.5000 F1020.00
G1 X25.5539 Y415.0541 Z-1.5000 F1020.00
G1 X24.9812 Y415.0541 Z-1.5000 F1020.00
G1 X23.2132 Y413.2861 Z-1.5000 F1020.00
G1 X22.8815 Y413.5272 Z-1.5000 F1020.00
G1 X24.4084 Y415.0541 Z-1.5000 F1020.00
G1 X23.8357 Y415.0541 Z-1.5000 F1020.00
G1 X22.5497 Y413.7682 Z-1.5000 F1020.00
G1 X22.2180 Y414.0092 Z-1.5000 F1020.00
G1 X23.2629 Y415.0541 Z-1.5000 F1020.00
G1 X22.6901 Y415.0541 Z-1.5000 F1020.00
G1 X21.8863 Y414.2502 Z-1.5000 F1020.00
G1 X21.5545 Y414.4912 Z-1.5000 F1020.00
G1 X22.1174 Y415.0541 Z-1.5000 F1020.00
G1 X21.5446 Y415.0541 Z-1.5000 F1020.00
G1 X21.2228 Y414.7323 Z-1.5000 F1020.00
G3 X20.8652 Y414.8695 Z-1.5000 I-0.2706 J-0.1705 F1020.00
G3 X20.7238 Y414.7126 Z-1.5000 I0.0769 J-0.2114 F1020.00
G1 X20.5644 Y414.0739 Z-1.5000 F1020.00
G1 X18.7498 Y412.2593 Z-1.5000 F1020.00
G1 X18.7975 Y412.8797 Z-1.5000 F1020.00
G1 X21.0172 Y415.0994 Z-1.5000 F1020.00
G2 X20.9352 Y415.3633 Z-1.5000 I0.1171 J0.1810 F1020.00
G1 X21.0889 Y415.7439 Z-1.5000 F1020.00
G1 X18.8877 Y413.5427 Z-1.5000 F1020.00
G2 X19.0149 Y414.2426 Z-1.5000 I4.6219 J-0.4782 F1020.00
G1 X21.5765 Y416.8043 Z-1.5000 F1020.00
G2 X22.5856 Y418.3861 Z-1.5000 I8.9086 J-4.5701 F1020.00
G1 X19.1940 Y414.9945 Z-1.5000 F1020.00
G0 X19.1940 Y414.9945 Z5.0000
G0 X18.7498 Y412.2593 Z5.0000
G0 X18.7498 Y412.2593 Z1.5000
G1 X18.7498 Y412.2593 Z-1.5000 F1020.00
G1 X20.5644 Y414.0739 Z-1.5000 F1020.00
G3 X20.4280 Y413.3648 Z-1.5000 I4.4294 J-1.2194 F1020.00
G1 X18.7345 Y411.6713 Z-1.5000 F1020.00
G1 X18.7345 Y411.0985 Z-1.5000 F1020.00
G1 X20.3396 Y412.7036 Z-1.5000 F1020.00
G3 X20.2865 Y412.0777 Z-1.5000 I17.5549 J-1.8060 F1020.00
G1 X18.7742 Y410.5654 Z-1.5000 F1020.00
G3 X18.8199 Y410.0383 Z-1.5000 I3.4553 J0.0342 F1020.00
G1 X20.2833 Y411.5017 Z-1.5000 F1020.00
G3 X20.2992 Y410.9449 Z-1.5000 I3.5470 J-0.1768 F1020.00
G1 X18.8965 Y409.5422 Z-1.5000 F1020.00
G3 X18.9791 Y409.0520 Z-1.5000 I3.2335 J0.2929 F1020.00
G1 X20.3391 Y410.4121 Z-1.5000 F1020.00
G3 X20.4076 Y409.9077 Z-1.5000 I3.2637 J0.1862 F1020.00
G1 X19.0877 Y408.5879 Z-1.5000 F1020.00
G3 X19.2002 Y408.1276 Z-1.5000 I3.0537 J0.5025 F1020.00
G1 X20.4848 Y409.4122 Z-1.5000 F1020.00
G3 X20.5945 Y408.9491 Z-1.5000 I3.7910 J0.6536 F1020.00
G1 X19.3379 Y407.6926 Z-1.5000 F1020.00
G1 X19.4756 Y407.2575 Z-1.5000 F1020.00
G1 X20.7077 Y408.4896 Z-1.5000 F1020.00
G1 X20.8482 Y408.0573 Z-1.5000 F1020.00
G1 X19.6398 Y406.8490 Z-1.5000 F1020.00
G1 X19.8044 Y406.4408 Z-1.5000 F1020.00
G1 X20.9921 Y407.6285 Z-1.5000 F1020.00
G1 X21.1603 Y407.2239 Z-1.5000 F1020.00
G1 X19.9882 Y406.0518 Z-1.5000 F1020.00
G1 X20.1778 Y405.6687 Z-1.5000 F1020.00
G1 X21.3305 Y406.8214 Z-1.5000 F1020.00
G1 X21.5247 Y406.4428 Z-1.5000 F1020.00
G1 X20.3789 Y405.2970 Z-1.5000 F1020.00
G1 X20.5924 Y404.9378 Z-1.5000 F1020.00
G1 X21.7188 Y406.0642 Z-1.5000 F1020.00
G3 X21.9370 Y405.7096 Z-1.5000 I2.9450 J1.5676 F1020.00
G1 X20.8091 Y404.5817 Z-1.5000 F1020.00
G1 X21.0456 Y404.2454 Z-1.5000 F1020.00
G1 X22.1558 Y405.3556 Z-1.5000 F1020.00
G3 X22.3941 Y405.0212 Z-1.5000 I2.2906 J1.3800 F1020.00
G1 X21.2821 Y403.9092 Z-1.5000 F1020.00
G3 X21.5354 Y403.5898 Z-1.5000 I2.2068 J1.4904 F1020.00
G1 X22.6366 Y404.6909 Z-1.5000 F1020.00
G3 X22.8939 Y404.3755 Z-1.5000 I2.1490 J1.4897 F1020.00
G1 X21.7943 Y403.2759 Z-1.5000 F1020.00
G3 X22.0609 Y402.9697 Z-1.5000 I2.1275 J1.5828 F1020.00
G1 X23.1595 Y404.0684 Z-1.5000 F1020.00
G3 X23.4351 Y403.7712 Z-1.5000 I2.0388 J1.6137 F1020.00
G1 X22.3418 Y402.6778 Z-1.5000 F1020.00
G1 X22.6226 Y402.3860 Z-1.5000 F1020.00
G1 X23.7237 Y403.4870 Z-1.5000 F1020.00
G3 X24.0172 Y403.2078 Z-1.5000 I1.9504 J1.7572 F1020.00
G1 X22.9240 Y402.1146 Z-1.5000 F1020.00
G1 X23.2269 Y401.8447 Z-1.5000 F1020.00
G1 X24.3287 Y402.9465 Z-1.5000 F1020.00
G1 X24.6285 Y402.6951 Z-1.5000 F1020.00
G1 X24.6430 Y402.6881 Z-1.5000 F1020.00
G1 X23.5413 Y401.5863 Z-1.5000 F1020.00
G1 X23.8663 Y401.3386 Z-1.5000 F1020.00
G2 X25.2582 Y402.7305 Z-1.5000 I18.0659 J-16.6740 F1020.00
G1 X37.5818 Y415.0541 Z-1.5000 F1020.00
G1 X38.1546 Y415.0541 Z-1.5000 F1020.00
G1 X27.3527 Y404.2522 Z-1.5000 F1020.00
G1 X29.4472 Y405.7740 Z-1.5000 F1020.00
G1 X38.7273 Y415.0541 Z-1.5000 F1020.00
G1 X39.3001 Y415.0541 Z-1.5000 F1020.00
G1 X31.4504 Y407.2045 Z-1.5000 F1020.00
G2 X31.5695 Y407.2013 Z-1.5000 I0.0547 J-0.1849 F1020.00
G2 X31.8383 Y407.0196 Z-1.5000 I-0.4392 J-0.9394 F1020.00
G1 X39.8728 Y415.0541 Z-1.5000 F1020.00
G1 X40.4456 Y415.0541 Z-1.5000 F1020.00
G3 X35.6762 Y410.2847 Z-1.5000 I238.6399 J-243.4093 F1020.00
G1 X32.1701 Y406.7786 Z-1.5000 F1020.00
G1 X32.5018 Y406.5376 Z-1.5000 F1020.00
G1 X35.7443 Y409.7801 Z-1.5000 F1020.00
G1 X35.8848 Y409.3478 Z-1.5000 F1020.00
G1 X32.8335 Y406.2965 Z-1.5000 F1020.00
G1 X33.1653 Y406.0555 Z-1.5000 F1020.00
G1 X36.0253 Y408.9155 Z-1.5000 F1020.00
G1 X36.1657 Y408.4832 Z-1.5000 F1020.00
G1 X33.4970 Y405.8145 Z-1.5000 F1020.00
G1 X33.8288 Y405.5735 Z-1.5000 F1020.00
G1 X36.3062 Y408.0509 Z-1.5000 F1020.00
G1 X36.4466 Y407.6186 Z-1.5000 F1020.00
G1 X34.1605 Y405.3325 Z-1.5000 F1020.00
G1 X34.4922 Y405.0914 Z-1.5000 F1020.00
G1 X36.5871 Y407.1863 Z-1.5000 F1020.00
G1 X36.7276 Y406.7540 Z-1.5000 F1020.00
G1 X34.8240 Y404.8504 Z-1.5000 F1020.00
G1 X35.1557 Y404.6094 Z-1.5000 F1020.00
G1 X36.8680 Y406.3217 Z-1.5000 F1020.00
G1 X37.0085 Y405.8894 Z-1.5000 F1020.00
G1 X35.4874 Y404.3684 Z-1.5000 F1020.00
G1 X35.8192 Y404.1274 Z-1.5000 F1020.00
G1 X37.1489 Y405.4571 Z-1.5000 F1020.00
G1 X37.2894 Y405.0248 Z-1.5000 F1020.00
G1 X36.1509 Y403.8863 Z-1.5000 F1020.00
G1 X36.4826 Y403.6453 Z-1.5000 F1020.00
G1 X37.4299 Y404.5925 Z-1.5000 F1020.00
G1 X37.5703 Y404.1602 Z-1.5000 F1020.00
G1 X36.8144 Y403.4043 Z-1.5000 F1020.00
G1 X37.1461 Y403.1633 Z-1.5000 F1020.00
G1 X37.7108 Y403.7279 Z-1.5000 F1020.00
G1 X37.8512 Y403.2957 Z-1.5000 F1020.00
G1 X37.4779 Y402.9223 Z-1.5000 F1020.00
G1 X37.8096 Y402.6812 Z-1.5000 F1020.00
G1 X37.9917 Y402.8634 Z-1.5000 F1020.00
G3 X38.2737 Y402.6474 Z-1.5000 I0.2402 J0.0217 F1020.00
G3 X38.5249 Y402.8238 Z-1.5000 I-0.2281 J0.5920 F1020.00
G1 X34.9933 Y399.2922 Z-1.5000 F1020.00
G3 X35.8395 Y399.5656 Z-1.5000 I-1.3578 J5.6478 F1020.00
G1 X43.5204 Y407.2465 Z-1.5000 F1020.00
G2 X43.1231 Y406.2765 Z-1.5000 I-6.5161 J2.1023 F1020.00
G1 X36.8072 Y399.9606 Z-1.5000 F1020.00
G3 X37.9870 Y400.5677 Z-1.5000 I-3.3637 J7.9873 F1020.00
G1 X42.4815 Y405.0621 Z-1.5000 F1020.00
G2 X40.3585 Y402.3664 Z-1.5000 I-10.5536 J6.1275 F1020.00
G0 X40.3585 Y402.3664 Z5.0000
G0 X36.8272 Y401.6989 Z5.0000
G0 X36.8272 Y401.6989 Z1.5000
G1 X36.8272 Y401.6989 Z-1.5000 F1020.00
G1 X34.2243 Y399.0959 Z-1.5000 F1020.00
G1 X33.5137 Y398.9581 Z-1.5000 F1020.00
G1 X35.7430 Y401.1874 Z-1.5000 F1020.00
G2 X34.8469 Y400.8641 Z-1.5000 I-2.4907 J5.4995 F1020.00
G1 X32.8606 Y398.8777 Z-1.5000 F1020.00
G2 X32.2343 Y398.8242 Z-1.5000 I-0.6616 J4.0519 F1020.00
G1 X34.0604 Y400.6503 Z-1.5000 F1020.00
G2 X33.3445 Y400.5072 Z-1.5000 I-1.2639 J4.4595 F1020.00
G1 X31.6387 Y398.8014 Z-1.5000 F1020.00
G2 X31.0768 Y398.8123 Z-1.5000 I-0.2099 J3.6645 F1020.00
G1 X32.6776 Y400.4130 Z-1.5000 F1020.00
G1 X32.0550 Y400.3632 Z-1.5000 F1020.00
G1 X30.5252 Y398.8334 Z-1.5000 F1020.00
G2 X30.0115 Y398.8925 Z-1.5000 I0.1278 J3.3754 F1020.00
G1 X31.4737 Y400.3547 Z-1.5000 F1020.00
G2 X30.9122 Y400.3659 Z-1.5000 I-0.2093 J3.5926 F1020.00
G1 X29.5015 Y398.9552 Z-1.5000 F1020.00
G1 X29.0218 Y399.0482 Z-1.5000 F1020.00
G1 X30.3818 Y400.4083 Z-1.5000 F1020.00
G2 X29.8730 Y400.4722 Z-1.5000 I0.1523 J3.2707 F1020.00
G1 X28.5450 Y399.1442 Z-1.5000 F1020.00
G1 X28.0957 Y399.2677 Z-1.5000 F1020.00
G1 X29.3796 Y400.5516 Z-1.5000 F1020.00
G2 X28.9123 Y400.6570 Z-1.5000 I0.4436 J3.0561 F1020.00
G1 X27.6464 Y399.3912 Z-1.5000 F1020.00
G2 X27.2250 Y399.5425 Z-1.5000 I0.7750 J2.8215 F1020.00
G1 X28.4519 Y400.7694 Z-1.5000 F1020.00
G2 X28.0184 Y400.9086 Z-1.5000 I0.7013 J2.9281 F1020.00
G1 X26.8036 Y399.6938 Z-1.5000 F1020.00
G2 X26.4032 Y399.8662 Z-1.5000 I0.9228 J2.6934 F1020.00
G1 X27.5879 Y401.0509 Z-1.5000 F1020.00
G2 X27.1829 Y401.2187 Z-1.5000 I0.9240 J2.8039 F1020.00
G1 X26.0078 Y400.0435 Z-1.5000 F1020.00
G2 X25.6259 Y400.2344 Z-1.5000 I1.0520 J2.5826 F1020.00
G1 X26.7800 Y401.3886 Z-1.5000 F1020.00
G2 X26.3998 Y401.5810 Z-1.5000 I1.0719 J2.5899 F1020.00
G1 X25.2549 Y400.4361 Z-1.5000 F1020.00
G2 X24.8894 Y400.6434 Z-1.5000 I1.1673 J2.4838 F1020.00
G1 X26.0228 Y401.7768 Z-1.5000 F1020.00
G2 X25.6645 Y401.9913 Z-1.5000 I1.2029 J2.4148 F1020.00
G1 X24.5418 Y400.8685 Z-1.5000 F1020.00
G1 X24.1941 Y401.0937 Z-1.5000 F1020.00
G1 X25.3121 Y402.2116 Z-1.5000 F1020.00
G2 X25.0962 Y402.5685 Z-1.5000 I0.0461 J0.2716 F1020.00
G1 X23.8663 Y401.3386 Z-1.5000 F1020.00
G0 X23.8663 Y401.3386 Z5.0000
G0 X25.0997 Y403.1448 Z5.0000
G0 X25.0997 Y403.1448 Z1.5000
G1 X25.0997 Y403.1448 Z-1.5000 F1020.00
G1 X37.0091 Y415.0541 Z-1.5000 F1020.00
G1 X36.4363 Y415.0541 Z-1.5000 F1020.00
G1 X25.3754 Y403.9932 Z-1.5000 F1020.00
G1 X25.6511 Y404.8416 Z-1.5000 F1020.00
G1 X35.8635 Y415.0541 Z-1.5000 F1020.00
G1 X35.2908 Y415.0541 Z-1.5000 F1020.00
G1 X25.9267 Y405.6901 Z-1.5000 F1020.00
G1 X26.2024 Y406.5385 Z-1.5000 F1020.00
G1 X34.7180 Y415.0541 Z-1.5000 F1020.00
G2 X34.1520 Y415.0608 Z-1.5000 I-0.2619 J1.7904 F1020.00
G1 X26.4781 Y407.3869 Z-1.5000 F1020.00
G1 X26.7538 Y408.2353 Z-1.5000 F1020.00
G1 X33.9183 Y415.3999 Z-1.5000 F1020.00
G1 X33.7779 Y415.8322 Z-1.5000 F1020.00
G1 X27.0294 Y409.0838 Z-1.5000 F1020.00
G1 X27.3051 Y409.9322 Z-1.5000 F1020.00
G1 X33.6374 Y416.2645 Z-1.5000 F1020.00
G1 X33.4969 Y416.6968 Z-1.5000 F1020.00
G1 X27.1940 Y410.3939 Z-1.5000 F1020.00
G1 X26.8623 Y410.6349 Z-1.5000 F1020.00
G1 X33.3565 Y417.1291 Z-1.5000 F1020.00
G1 X33.2160 Y417.5614 Z-1.5000 F1020.00
G1 X26.5306 Y410.8759 Z-1.5000 F1020.00
G1 X26.1988 Y411.1169 Z-1.5000 F1020.00
G1 X33.0756 Y417.9937 Z-1.5000 F1020.00
G1 X32.9351 Y418.4260 Z-1.5000 F1020.00
G1 X25.8671 Y411.3580 Z-1.5000 F1020.00
G1 X25.5354 Y411.5990 Z-1.5000 F1020.00
G1 X32.7946 Y418.8583 Z-1.5000 F1020.00
G1 X32.6542 Y419.2906 Z-1.5000 F1020.00
G1 X29.2348 Y415.8712 Z-1.5000 F1020.00
G1 X29.5105 Y416.7196 Z-1.5000 F1020.00
G1 X32.5137 Y419.7229 Z-1.5000 F1020.00
G1 X32.3733 Y420.1552 Z-1.5000 F1020.00
G1 X29.7861 Y417.5680 Z-1.5000 F1020.00
G1 X30.0618 Y418.4165 Z-1.5000 F1020.00
G1 X32.2328 Y420.5875 Z-1.5000 F1020.00
G1 X32.0923 Y421.0198 Z-1.5000 F1020.00
G1 X30.3375 Y419.2649 Z-1.5000 F1020.00
G1 X30.6131 Y420.1133 Z-1.5000 F1020.00
G1 X31.9519 Y421.4521 Z-1.5000 F1020.00
G1 X31.8114 Y421.8843 Z-1.5000 F1020.00
G1 X30.8888 Y420.9618 Z-1.5000 F1020.00
G1 X31.1645 Y421.8102 Z-1.5000 F1020.00
G1 X31.6710 Y422.3166 Z-1.5000 F1020.00
G2 X31.6492 Y422.7046 Z-1.5000 I0.2475 J0.2085 F1020.00
G2 X32.1251 Y422.7708 Z-1.5000 I0.3002 J-0.4145 F1020.00
G1 X33.5340 Y424.1797 Z-1.5000 F1020.00
G3 X33.0265 Y424.2449 Z-1.5000 I-0.6783 J-3.2730 F1020.00
G1 X31.3925 Y422.6109 Z-1.5000 F1020.00
G3 X30.9874 Y422.7786 Z-1.5000 I-0.2726 J-0.0854 F1020.00
G1 X32.5130 Y424.3042 Z-1.5000 F1020.00
G3 X31.9640 Y424.3279 Z-1.5000 I-0.4292 J-3.5636 F1020.00
G1 X30.3717 Y422.7357 Z-1.5000 F1020.00
G3 X29.7069 Y422.6436 Z-1.5000 I0.2593 J-4.3165 F1020.00
G1 X31.4054 Y424.3421 Z-1.5000 F1020.00
G1 X30.8098 Y424.3193 Z-1.5000 F1020.00
G1 X28.9943 Y422.5038 Z-1.5000 F1020.00
G3 X28.2134 Y422.2956 Z-1.5000 I0.9261 J-5.0433 F1020.00
G1 X30.1874 Y424.2696 Z-1.5000 F1020.00
G3 X29.5389 Y424.1939 Z-1.5000 I0.1690 J-4.2612 F1020.00
G1 X27.3275 Y421.9825 Z-1.5000 F1020.00
G3 X26.2641 Y421.4919 Z-1.5000 I2.5593 J-6.9446 F1020.00
G1 X28.8283 Y424.0561 Z-1.5000 F1020.00
G3 X28.0652 Y423.8657 Z-1.5000 I0.8583 J-5.0652 F1020.00
G1 X24.6779 Y420.4784 Z-1.5000 F1020.00
G3 X22.5856 Y418.3861 Z-1.5000 I6.4634 J-8.5557 F1020.00
G1 X19.1940 Y414.9945 Z-1.5000 F1020.00
G1 X19.4592 Y415.8324 Z-1.5000 F1020.00
G1 X27.2267 Y423.5999 Z-1.5000 F1020.00
G3 X26.2696 Y423.2157 Z-1.5000 I2.0241 J-6.4249 F1020.00
G1 X19.8377 Y416.7837 Z-1.5000 F1020.00
G2 X20.4564 Y417.9751 Z-1.5000 I7.9604 J-3.3772 F1020.00
G1 X25.1059 Y422.6247 Z-1.5000 F1020.00
G3 X23.0312 Y421.1227 Z-1.5000 I5.6803 J-10.0304 F1020.00
G3 X21.8882 Y419.9797 Z-1.5000 I6.1495 J-7.2926 F1020.00
G1 X23.0312 Y421.1227 Z-1.5000 F1020.00
G1 X23.0312 Y421.1227 Z-2.0000 F1020.00
G1 X21.8882 Y419.9797 Z-2.0000 F1020.00
G2 X23.0312 Y421.1227 Z-2.0000 I7.2926 J-6.1495 F1020.00
G2 X25.1059 Y422.6247 Z-2.0000 I7.7550 J-8.5285 F1020.00
G1 X20.4564 Y417.9751 Z-2.0000 F1020.00
G3 X19.8377 Y416.7837 Z-2.0000 I7.3417 J-4.5687 F1020.00
G1 X26.2696 Y423.2157 Z-2.0000 F1020.00
G2 X27.2267 Y423.5999 Z-2.0000 I2.9811 J-6.0406 F1020.00
G1 X19.4592 Y415.8324 Z-2.0000 F1020.00
G1 X19.1940 Y414.9945 Z-2.0000 F1020.00
G1 X22.5856 Y418.3861 Z-2.0000 F1020.00
G2 X24.6779 Y420.4784 Z-2.0000 I8.5557 J-6.4634 F1020.00
G1 X28.0652 Y423.8657 Z-2.0000 F1020.00
G2 X28.8283 Y424.0561 Z-2.0000 I1.6214 J-4.8748 F1020.00
G1 X26.2641 Y421.4919 Z-2.0000 F1020.00
G2 X27.3275 Y421.9825 Z-2.0000 I3.6228 J-6.4540 F1020.00
G1 X29.5389 Y424.1939 Z-2.0000 F1020.00
G2 X30.1874 Y424.2696 Z-2.0000 I0.8175 J-4.1855 F1020.00
G1 X28.2134 Y422.2956 Z-2.0000 F1020.00
G2 X28.9943 Y422.5038 Z-2.0000 I1.7070 J-4.8351 F1020.00
G1 X30.8098 Y424.3193 Z-2.0000 F1020.00
G1 X31.4054 Y424.3421 Z-2.0000 F1020.00
G1 X29.7069 Y422.6436 Z-2.0000 F1020.00
G2 X30.3717 Y422.7357 Z-2.0000 I0.9242 J-4.2244 F1020.00
G1 X31.9640 Y424.3279 Z-2.0000 F1020.00
G2 X32.5130 Y424.3042 Z-2.0000 I0.1198 J-3.5873 F1020.00
G1 X30.9874 Y422.7786 Z-2.0000 F1020.00
G2 X31.3925 Y422.6109 Z-2.0000 I0.1325 J-0.2531 F1020.00
G1 X33.0265 Y424.2449 Z-2.0000 F1020.00
G2 X33.5340 Y424.1797 Z-2.0000 I-0.1708 J-3.3382 F1020.00
G1 X32.1251 Y422.7708 Z-2.0000 F1020.00
G3 X31.6492 Y422.7046 Z-2.0000 I-0.1757 J-0.4807 F1020.00
G3 X31.6710 Y422.3166 Z-2.0000 I0.2693 J-0.1794 F1020.00
G1 X31.1645 Y421.8102 Z-2.0000 F1020.00
G1 X30.8888 Y420.9618 Z-2.0000 F1020.00
G1 X31.8114 Y421.8843 Z-2.0000 F1020.00
G1 X31.9519 Y421.4521 Z-2.0000 F1020.00
G1 X30.6131 Y420.1133 Z-2.0000 F1020.00
G1 X30.3375 Y419.2649 Z-2.0000 F1020.00
G1 X32.0923 Y421.0198 Z-2.0000 F1020.00
G1 X32.2328 Y420.5875 Z-2.0000 F1020.00
G1 X30.0618 Y418.4165 Z-2.0000 F1020.00
G1 X29.7861 Y417.5680 Z-2.0000 F1020.00
G1 X32.3733 Y420.1552 Z-2.0000 F1020.00
G1 X32.5137 Y419.7229 Z-2.0000 F1020.00
G1 X29.5105 Y416.7196 Z-2.0000 F1020.00
G1 X29.2348 Y415.8712 Z-2.0000 F1020.00
G1 X32.6542 Y419.2906 Z-2.0000 F1020.00
G1 X32.7946 Y418.8583 Z-2.0000 F1020.00
G1 X25.5354 Y411.5990 Z-2.0000 F1020.00
G1 X25.8671 Y411.3580 Z-2.0000 F1020.00
G1 X32.9351 Y418.4260 Z-2.0000 F1020.00
G1 X33.0756 Y417.9937 Z-2.0000 F1020.00
G1 X26.1988 Y411.1169 Z-2.0000 F1020.00
G1 X26.5306 Y410.8759 Z-2.0000 F1020.00
G1 X33.2160 Y417.5614 Z-2.0000 F1020.00
G1 X33.3565 Y417.1291 Z-2.0000 F1020.00
G1 X26.8623 Y410.6349 Z-2.0000 F1020.00
G1 X27.1940 Y410.3939 Z-2.0000 F1020.00
G1 X33.4969 Y416.6968 Z-2.0000 F1020.00
G1 X33.6374 Y416.2645 Z-2.0000 F1020.00
G1 X27.3051 Y409.9322 Z-2.0000 F1020.00
G1 X27.0294 Y409.0838 Z-2.0000 F1020.00
G1 X33.7779 Y415.8322 Z-2.0000 F1020.00
G1 X33.9183 Y415.3999 Z-2.0000 F1020.00
G1 X26.7538 Y408.2353 Z-2.0000 F1020.00
G1 X26.4781 Y407.3869 Z-2.0000 F1020.00
G1 X34.1520 Y415.0608 Z-2.0000 F1020.00
G3 X34.7180 Y415.0541 Z-2.0000 I0.3041 J1.7837 F1020.00
G1 X26.2024 Y406.5385 Z-2.0000 F1020.00
G1 X25.9267 Y405.6901 Z-2.0000 F1020.00
G1 X35.2908 Y415.0541 Z-2.0000 F1020.00
G1 X35.8635 Y415.0541 Z-2.0000 F1020.00
G1 X25.6511 Y404.8416 Z-2.0000 F1020.00
G1 X25.3754 Y403.9932 Z-2.0000 F1020.00
G1 X36.4363 Y415.0541 Z-2.0000 F1020.00
G1 X37.0091 Y415.0541 Z-2.0000 F1020.00
G1 X25.0997 Y403.1448 Z-2.0000 F1020.00
G0 X25.0997 Y403.1448 Z5.0000
G0 X23.8663 Y401.3386 Z5.0000
G0 X23.8663 Y401.3386 Z1.0000
G1 X23.8663 Y401.3386 Z-2.0000 F1020.00
G1 X25.0962 Y402.5685 Z-2.0000 F1020.00
G3 X25.3121 Y402.2116 Z-2.0000 I0.2620 J-0.0852 F1020.00
G1 X24.1941 Y401.0937 Z-2.0000 F1020.00
G1 X24.5418 Y400.8685 Z-2.0000 F1020.00
G1 X25.6645 Y401.9913 Z-2.0000 F1020.00
G3 X26.0228 Y401.7768 Z-2.0000 I1.5611 J2.2003 F1020.00
G1 X24.8894 Y400.6434 Z-2.0000 F1020.00
G3 X25.2549 Y400.4361 Z-2.0000 I1.5327 J2.2765 F1020.00
G1 X26.3998 Y401.5810 Z-2.0000 F1020.00
G3 X26.7800 Y401.3886 Z-2.0000 I1.4522 J2.3974 F1020.00
G1 X25.6259 Y400.2344 Z-2.0000 F1020.00
G3 X26.0078 Y400.0435 Z-2.0000 I1.4339 J2.3918 F1020.00
G1 X27.1829 Y401.2187 Z-2.0000 F1020.00
G3 X27.5879 Y401.0509 Z-2.0000 I1.3290 J2.6361 F1020.00
G1 X26.4032 Y399.8662 Z-2.0000 F1020.00
G3 X26.8036 Y399.6938 Z-2.0000 I1.3231 J2.5210 F1020.00
G1 X28.0184 Y400.9086 Z-2.0000 F1020.00
G3 X28.4519 Y400.7694 Z-2.0000 I1.1348 J2.7888 F1020.00
G1 X27.2250 Y399.5425 Z-2.0000 F1020.00
G3 X27.6464 Y399.3912 Z-2.0000 I1.1964 J2.6702 F1020.00
G1 X28.9123 Y400.6570 Z-2.0000 F1020.00
G3 X29.3796 Y400.5516 Z-2.0000 I0.9110 J2.9507 F1020.00
G1 X28.0957 Y399.2677 Z-2.0000 F1020.00
G1 X28.5450 Y399.1442 Z-2.0000 F1020.00
G1 X29.8730 Y400.4722 Z-2.0000 F1020.00
G3 X30.3818 Y400.4083 Z-2.0000 I0.6611 J3.2068 F1020.00
G1 X29.0218 Y399.0482 Z-2.0000 F1020.00
G1 X29.5015 Y398.9552 Z-2.0000 F1020.00
G1 X30.9122 Y400.3659 Z-2.0000 F1020.00
G3 X31.4737 Y400.3547 Z-2.0000 I0.3523 J3.5814 F1020.00
G1 X30.0115 Y398.8925 Z-2.0000 F1020.00
G3 X30.5252 Y398.8334 Z-2.0000 I0.6415 J3.3163 F1020.00
G1 X32.0550 Y400.3632 Z-2.0000 F1020.00
G1 X32.6776 Y400.4130 Z-2.0000 F1020.00
G1 X31.0768 Y398.8123 Z-2.0000 F1020.00
G3 X31.6387 Y398.8014 Z-2.0000 I0.3519 J3.6536 F1020.00
G1 X33.3445 Y400.5072 Z-2.0000 F1020.00
G3 X34.0604 Y400.6503 Z-2.0000 I-0.5480 J4.6027 F1020.00
G1 X32.2343 Y398.8242 Z-2.0000 F1020.00
G3 X32.8606 Y398.8777 Z-2.0000 I-0.0354 J4.1054 F1020.00
G1 X34.8469 Y400.8641 Z-2.0000 F1020.00
G3 X35.7430 Y401.1874 Z-2.0000 I-1.5946 J5.8228 F1020.00
G1 X33.5137 Y398.9581 Z-2.0000 F1020.00
G1 X34.2243 Y399.0959 Z-2.0000 F1020.00
G1 X36.8272 Y401.6989 Z-2.0000 F1020.00
G0 X36.8272 Y401.6989 Z5.0000
G0 X40.3585 Y402.3664 Z5.0000
G0 X40.3585 Y402.3664 Z1.0000
G1 X40.3585 Y402.3664 Z-2.0000 F1020.00
G3 X42.4815 Y405.0621 Z-2.0000 I-8.4306 J8.8232 F1020.00
G1 X37.9870 Y400.5677 Z-2.0000 F1020.00
G2 X36.8072 Y399.9606 Z-2.0000 I-4.5436 J7.3802 F1020.00
G1 X43.1231 Y406.2765 Z-2.0000 F1020.00
G3 X43.5204 Y407.2465 Z-2.0000 I-6.1188 J3.0723 F1020.00
G1 X35.8395 Y399.5656 Z-2.0000 F1020.00
G2 X34.9933 Y399.2922 Z-2.0000 I-2.2040 J5.3743 F1020.00
G1 X38.5249 Y402.8238 Z-2.0000 F1020.00
G2 X38.2737 Y402.6474 Z-2.0000 I-0.4793 J0.4157 F1020.00
G2 X37.9917 Y402.8634 Z-2.0000 I-0.0417 J0.2376 F1020.00
G1 X37.8096 Y402.6812 Z-2.0000 F1020.00
G1 X37.4779 Y402.9223 Z-2.0000 F1020.00
G1 X37.8512 Y403.2957 Z-2.0000 F1020.00
G1 X37.7108 Y403.7279 Z-2.0000 F1020.00
G1 X37.1461 Y403.1633 Z-2.0000 F1020.00
G1 X36.8144 Y403.4043 Z-2.0000 F1020.00
G1 X37.5703 Y404.1602 Z-2.0000 F1020.00
G1 X37.4299 Y404.5925 Z-2.0000 F1020.00
G1 X36.4826 Y403.6453 Z-2.0000 F1020.00
G1 X36.1509 Y403.8863 Z-2.0000 F1020.00
G1 X37.2894 Y405.0248 Z-2.0000 F1020.00
G1 X37.1489 Y405.4571 Z-2.0000 F1020.00
G1 X35.8192 Y404.1274 Z-2.0000 F1020.00
G1 X35.4874 Y404.3684 Z-2.0000 F1020.00
G1 X37.0085 Y405.8894 Z-2.0000 F1020.00
G1 X36.8680 Y406.3217 Z-2.0000 F1020.00
G1 X35.1557 Y404.6094 Z-2.0000 F1020.00
G1 X34.8240 Y404.8504 Z-2.0000 F1020.00
G1 X36.7276 Y406.7540 Z-2.0000 F1020.00
G1 X36.5871 Y407.1863 Z-2.0000 F1020.00
G1 X34.4922 Y405.0914 Z-2.0000 F1020.00
G1 X34.1605 Y405.3325 Z-2.0000 F1020.00
G1 X36.4466 Y407.6186 Z-2.0000 F1020.00
G1 X36.3062 Y408.0509 Z-2.0000 F1020.00
G1 X33.8288 Y405.5735 Z-2.0000 F1020.00
G1 X33.4970 Y405.8145 Z-2.0000 F1020.00
G1 X36.1657 Y408.4832 Z-2.0000 F1020.00
G1 X36.0253 Y408.9155 Z-2.0000 F1020.00
G1 X33.1653 Y406.0555 Z-2.0000 F1020.00
G1 X32.8335 Y406.2965 Z-2.0000 F1020.00
G1 X35.8848 Y409.3478 Z-2.0000 F1020.00
G1 X35.7443 Y409.7801 Z-2.0000 F1020.00
G1 X32.5018 Y406.5376 Z-2.0000 F1020.00
G1 X32.1701 Y406.7786 Z-2.0000 F1020.00
G1 X35.6762 Y410.2847 Z-2.0000 F1020.00
G2 X40.4456 Y415.0541 Z-2.0000 I243.4093 J-238.6399 F1020.00
G1 X39.8728 Y415.0541 Z-2.0000 F1020.00
G1 X31.8383 Y407.0196 Z-2.0000 F1020.00
G3 X31.5695 Y407.2013 Z-2.0000 I-0.7080 J-0.7577 F1020.00
G3 X31.4504 Y407.2045 Z-2.0000 I-0.0644 J-0.1817 F1020.00
G1 X39.3001 Y415.0541 Z-2.0000 F1020.00
G1 X38.7273 Y415.0541 Z-2.0000 F1020.00
G1 X29.4472 Y405.7740 Z-2.0000 F1020.00
G1 X27.3527 Y404.2522 Z-2.0000 F1020.00
G1 X38.1546 Y415.0541 Z-2.0000 F1020.00
G1 X37.5818 Y415.0541 Z-2.0000 F1020.00
G1 X25.2582 Y402.7305 Z-2.0000 F1020.00
G3 X23.8663 Y401.3386 Z-2.0000 I16.6740 J-18.0659 F1020.00
G1 X23.5413 Y401.5863 Z-2.0000 F1020.00
G1 X24.6430 Y402.6881 Z-2.0000 F1020.00
G1 X24.6285 Y402.6951 Z-2.0000 F1020.00
G1 X24.3287 Y402.9465 Z-2.0000 F1020.00
G1 X23.2269 Y401.8447 Z-2.0000 F1020.00
G1 X22.9240 Y402.1146 Z-2.0000 F1020.00
G1 X24.0172 Y403.2078 Z-2.0000 F1020.00
G2 X23.7237 Y403.4870 Z-2.0000 I1.6568 J2.0364 F1020.00
G1 X22.6226 Y402.3860 Z-2.0000 F1020.00
G1 X22.3418 Y402.6778 Z-2.0000 F1020.00
G1 X23.4351 Y403.7712 Z-2.0000 F1020.00
G2 X23.1595 Y404.0684 Z-2.0000 I1.7633 J1.9109 F1020.00
G1 X22.0609 Y402.9697 Z-2.0000 F1020.00
G2 X21.7943 Y403.2759 Z-2.0000 I1.8609 J1.8890 F1020.00
G1 X22.8939 Y404.3755 Z-2.0000 F1020.00
G2 X22.6366 Y404.6909 Z-2.0000 I1.8917 J1.8051 F1020.00
G1 X21.5354 Y403.5898 Z-2.0000 F1020.00
G2 X21.2821 Y403.9092 Z-2.0000 I1.9534 J1.8098 F1020.00
G1 X22.3941 Y405.0212 Z-2.0000 F1020.00
G2 X22.1558 Y405.3556 Z-2.0000 I2.0523 J1.7145 F1020.00
G1 X21.0456 Y404.2454 Z-2.0000 F1020.00
G1 X20.8091 Y404.5817 Z-2.0000 F1020.00
G1 X21.9370 Y405.7096 Z-2.0000 F1020.00
G2 X21.7188 Y406.0642 Z-2.0000 I2.7268 J1.9222 F1020.00
G1 X20.5924 Y404.9378 Z-2.0000 F1020.00
G1 X20.3789 Y405.2970 Z-2.0000 F1020.00
G1 X21.5247 Y406.4428 Z-2.0000 F1020.00
G1 X21.3305 Y406.8214 Z-2.0000 F1020.00
G1 X20.1778 Y405.6687 Z-2.0000 F1020.00
G1 X19.9882 Y406.0518 Z-2.0000 F1020.00
G1 X21.1603 Y407.2239 Z-2.0000 F1020.00
G1 X20.9921 Y407.6285 Z-2.0000 F1020.00
G1 X19.8044 Y406.4408 Z-2.0000 F1020.00
G1 X19.6398 Y406.8490 Z-2.0000 F1020.00
G1 X20.8482 Y408.0573 Z-2.0000 F1020.00
G1 X20.7077 Y408.4896 Z-2.0000 F1020.00
G1 X19.4756 Y407.2575 Z-2.0000 F1020.00
G1 X19.3379 Y407.6926 Z-2.0000 F1020.00
G1 X20.5945 Y408.9491 Z-2.0000 F1020.00
G2 X20.4848 Y409.4122 Z-2.0000 I3.6813 J1.1167 F1020.00
G1 X19.2002 Y408.1276 Z-2.0000 F1020.00
G2 X19.0877 Y408.5879 Z-2.0000 I2.9412 J0.9628 F1020.00
G1 X20.4076 Y409.9077 Z-2.0000 F1020.00
G2 X20.3391 Y410.4121 Z-2.0000 I3.1953 J0.6905 F1020.00
G1 X18.9791 Y409.0520 Z-2.0000 F1020.00
G2 X18.8965 Y409.5422 Z-2.0000 I3.1509 J0.7830 F1020.00
G1 X20.2992 Y410.9449 Z-2.0000 F1020.00
G2 X20.2833 Y411.5017 Z-2.0000 I3.5310 J0.3800 F1020.00
G1 X18.8199 Y410.0383 Z-2.0000 F1020.00
G2 X18.7742 Y410.5654 Z-2.0000 I3.4096 J0.5612 F1020.00
G1 X20.2865 Y412.0777 Z-2.0000 F1020.00
G2 X20.3396 Y412.7036 Z-2.0000 I17.6080 J-1.1801 F1020.00
G1 X18.7345 Y411.0985 Z-2.0000 F1020.00
G1 X18.7345 Y411.6713 Z-2.0000 F1020.00
G1 X20.4280 Y413.3648 Z-2.0000 F1020.00
G2 X20.5644 Y414.0739 Z-2.0000 I4.5657 J-0.5103 F1020.00
G1 X18.7498 Y412.2593 Z-2.0000 F1020.00
G0 X18.7498 Y412.2593 Z5.0000
G0 X19.1940 Y414.9945 Z5.0000
G0 X19.1940 Y414.9945 Z1.0000
G1 X19.1940 Y414.9945 Z-2.0000 F1020.00
G1 X22.5856 Y418.3861 Z-2.0000 F1020.00
G3 X21.5765 Y416.8043 Z-2.0000 I7.8996 J-6.1519 F1020.00
G1 X19.0149 Y414.2426 Z-2.0000 F1020.00
G3 X18.8877 Y413.5427 Z-2.0000 I4.4947 J-1.1781 F1020.00
G1 X21.0889 Y415.7439 Z-2.0000 F1020.00
G1 X20.9352 Y415.3633 Z-2.0000 F1020.00
G3 X21.0172 Y415.0994 Z-2.0000 I0.1990 J-0.0829 F1020.00
G1 X18.7975 Y412.8797 Z-2.0000 F1020.00
G1 X18.7498 Y412.2593 Z-2.0000 F1020.00
G1 X20.5644 Y414.0739 Z-2.0000 F1020.00
G1 X20.7238 Y414.7126 Z-2.0000 F1020.00
G2 X20.8652 Y414.8695 Z-2.0000 I0.2183 J-0.0545 F1020.00
G2 X21.2228 Y414.7323 Z-2.0000 I0.0870 J-0.3077 F1020.00
G1 X21.5446 Y415.0541 Z-2.0000 F1020.00
G1 X22.1174 Y415.0541 Z-2.0000 F1020.00
G1 X21.5545 Y414.4912 Z-2.0000 F1020.00
G1 X21.8863 Y414.2502 Z-2.0000 F1020.00
G1 X22.6901 Y415.0541 Z-2.0000 F1020.00
G1 X23.2629 Y415.0541 Z-2.0000 F1020.00
G1 X22.2180 Y414.0092 Z-2.0000 F1020.00
G1 X22.5497 Y413.7682 Z-2.0000 F1020.00
G1 X23.8357 Y415.0541 Z-2.0000 F1020.00
G1 X24.4084 Y415.0541 Z-2.0000 F1020.00
G1 X22.8815 Y413.5272 Z-2.0000 F1020.00
G1 X23.2132 Y413.2861 Z-2.0000 F1020.00
G1 X24.9812 Y415.0541 Z-2.0000 F1020.00
G1 X25.5539 Y415.0541 Z-2.0000 F1020.00
G1 X23.5449 Y413.0451 Z-2.0000 F1020.00
G1 X23.8767 Y412.8041 Z-2.0000 F1020.00
G1 X26.1267 Y415.0541 Z-2.0000 F1020.00
G1 X26.6994 Y415.0541 Z-2.0000 F1020.00
G1 X24.2084 Y412.5631 Z-2.0000 F1020.00
G1 X24.5401 Y412.3221 Z-2.0000 F1020.00
G1 X27.2722 Y415.0541 Z-2.0000 F1020.00
G1 X27.8449 Y415.0541 Z-2.0000 F1020.00
G1 X24.8719 Y412.0810 Z-2.0000 F1020.00
G1 X25.2036 Y411.8400 Z-2.0000 F1020.00
G1 X28.4177 Y415.0541 Z-2.0000 F1020.00
G0 X28.4177 Y415.0541 Z5.0000
G0 X33.5340 Y424.1797 Z5.0000
G0 X33.5340 Y424.1797 Z1.0000
G1 X33.5340 Y424.1797 Z-2.0000 F1020.00
G1 X32.1251 Y422.7708 Z-2.0000 F1020.00
G1 X32.6605 Y422.7335 Z-2.0000 F1020.00
G1 X34.0138 Y424.0867 Z-2.0000 F1020.00
G2 X34.4882 Y423.9884 Z-2.0000 I-0.4028 J-3.1392 F1020.00
G1 X33.1630 Y422.6632 Z-2.0000 F1020.00
G2 X33.6576 Y422.5850 Z-2.0000 I-0.2691 J-3.3059 F1020.00
G1 X34.9375 Y423.8649 Z-2.0000 F1020.00
G2 X35.3848 Y423.7395 Z-2.0000 I-0.5935 J-2.9757 F1020.00
G1 X34.1220 Y422.4766 Z-2.0000 F1020.00
G2 X34.5797 Y422.3617 Z-2.0000 I-0.5110 J-3.0035 F1020.00
G1 X35.8062 Y423.5881 Z-2.0000 F1020.00
G1 X36.2276 Y423.4368 Z-2.0000 F1020.00
G1 X35.0139 Y422.2230 Z-2.0000 F1020.00
G2 X35.4410 Y422.0774 Z-2.0000 I-0.7222 J-2.8163 F1020.00
G1 X36.6260 Y423.2624 Z-2.0000 F1020.00
G1 X37.0215 Y423.0851 Z-2.0000 F1020.00
G1 X35.8473 Y421.9109 Z-2.0000 F1020.00
G2 X36.2480 Y421.7389 Z-2.0000 I-0.9097 J-2.6720 F1020.00
G1 X37.4016 Y422.8925 Z-2.0000 F1020.00
G1 X37.7726 Y422.6907 Z-2.0000 F1020.00
G1 X36.6282 Y421.5464 Z-2.0000 F1020.00
G2 X37.0057 Y421.3511 Z-2.0000 I-1.1022 J-2.5932 F1020.00
G1 X38.1363 Y422.4817 Z-2.0000 F1020.00
G1 X38.4840 Y422.2566 Z-2.0000 F1020.00
G1 X37.3612 Y421.1339 Z-2.0000 F1020.00
G1 X37.7168 Y420.9166 Z-2.0000 F1020.00
G1 X38.8316 Y422.0315 Z-2.0000 F1020.00
G2 X39.1578 Y421.7849 Z-2.0000 I-1.4427 J-2.2476 F1020.00
G1 X38.0494 Y420.6765 Z-2.0000 F1020.00
G1 X38.3811 Y420.4355 Z-2.0000 F1020.00
G1 X39.4828 Y421.5371 Z-2.0000 F1020.00
G2 X39.7955 Y421.2771 Z-2.0000 I-1.5370 J-2.1668 F1020.00
G1 X38.6949 Y420.1764 Z-2.0000 F1020.00
G1 X39.0034 Y419.9122 Z-2.0000 F1020.00
G1 X40.0984 Y421.0072 Z-2.0000 F1020.00
G2 X40.3982 Y420.7342 Z-2.0000 I-1.6281 J-2.0887 F1020.00
G1 X39.2989 Y419.6349 Z-2.0000 F1020.00
G1 X39.5845 Y419.3478 Z-2.0000 F1020.00
G1 X40.6790 Y420.4424 Z-2.0000 F1020.00
G1 X40.9599 Y420.1505 Z-2.0000 F1020.00
G1 X39.8619 Y419.0525 Z-2.0000 F1020.00
G1 X40.1246 Y418.7424 Z-2.0000 F1020.00
G1 X41.2248 Y419.8427 Z-2.0000 F1020.00
G1 X41.4837 Y419.5288 Z-2.0000 F1020.00
G1 X40.3837 Y418.4288 Z-2.0000 F1020.00
G1 X40.6233 Y418.0955 Z-2.0000 F1020.00
G1 X41.7354 Y419.2077 Z-2.0000 F1020.00
G1 X41.9719 Y418.8715 Z-2.0000 F1020.00
G1 X40.8639 Y417.7608 Z-2.0000 F1020.00
G2 X41.0791 Y417.4059 Z-2.0000 I-2.8757 J-1.9865 F1020.00
G1 X42.2084 Y418.5352 Z-2.0000 F1020.00
G2 X42.4234 Y418.1774 Z-2.0000 I-2.2229 J-1.5787 F1020.00
G1 X41.2948 Y417.0488 Z-2.0000 F1020.00
G2 X41.4900 Y416.6712 Z-2.0000 I-2.3544 J-1.4565 F1020.00
G1 X42.6369 Y417.8182 Z-2.0000 F1020.00
G2 X42.8362 Y417.4447 Z-2.0000 I-2.3327 J-1.4846 F1020.00
G1 X41.6809 Y416.2894 Z-2.0000 F1020.00
G2 X41.8527 Y415.8885 Z-2.0000 I-2.4883 J-1.3039 F1020.00
G1 X43.0259 Y417.0616 Z-2.0000 F1020.00
G2 X43.2078 Y416.6708 Z-2.0000 I-2.4544 J-1.3802 F1020.00
G1 X42.0175 Y415.4805 Z-2.0000 F1020.00
G0 X42.0175 Y415.4805 Z5.0000
G0 X40.4456 Y415.0541 Z5.0000
G0 X40.4456 Y415.0541 Z1.0000
G1 X40.4456 Y415.0541 Z-2.0000 F1020.00
G1 X35.7307 Y410.3392 Z-2.0000 F1020.00
G1 X37.8252 Y411.8609 Z-2.0000 F1020.00
G1 X41.0183 Y415.0541 Z-2.0000 F1020.00
G1 X41.5911 Y415.0541 Z-2.0000 F1020.00
G1 X39.9197 Y413.3827 Z-2.0000 F1020.00
G1 X41.9257 Y414.8401 Z-2.0000 F1020.00
G1 X41.9663 Y414.8565 Z-2.0000 F1020.00
G1 X43.3723 Y416.2626 Z-2.0000 F1020.00
G2 X43.5346 Y415.8521 Z-2.0000 I-2.5923 J-1.2619 F1020.00
G1 X42.2999 Y414.6174 Z-2.0000 F1020.00
G1 X42.4143 Y414.1591 Z-2.0000 F1020.00
G1 X43.6723 Y415.4170 Z-2.0000 F1020.00
G1 X43.8100 Y414.9819 Z-2.0000 F1020.00
G1 X42.5179 Y413.6899 Z-2.0000 F1020.00
G1 X42.5996 Y413.1988 Z-2.0000 F1020.00
G1 X43.9203 Y414.5195 Z-2.0000 F1020.00
G1 X44.0289 Y414.0554 Z-2.0000 F1020.00
G1 X42.6617 Y412.6882 Z-2.0000 F1020.00
G1 X42.7066 Y412.1603 Z-2.0000 F1020.00
G1 X44.1092 Y413.5629 Z-2.0000 F1020.00
G1 X44.1858 Y413.0667 Z-2.0000 F1020.00
G1 X42.7163 Y411.5972 Z-2.0000 F1020.00
G2 X42.7059 Y411.0141 Z-2.0000 I-3.7202 J-0.2258 F1020.00
G1 X44.2289 Y412.5370 Z-2.0000 F1020.00
G2 X44.2655 Y412.0009 Z-2.0000 I-3.4734 J-0.5065 F1020.00
G1 X42.6596 Y410.3950 Z-2.0000 F1020.00
G2 X42.5643 Y409.7269 Z-2.0000 I-4.3301 J0.2770 F1020.00
G1 X44.2655 Y411.4281 Z-2.0000 F1020.00
G2 X44.2466 Y410.8366 Z-2.0000 I-3.8620 J-0.1733 F1020.00
G1 X42.4201 Y409.0100 Z-2.0000 F1020.00
G2 X42.2056 Y408.2227 Z-2.0000 I-5.0858 J0.9628 F1020.00
G1 X44.1990 Y410.2162 Z-2.0000 F1020.00
G2 X44.1045 Y409.5489 Z-2.0000 I-4.3928 J0.2818 F1020.00
G1 X41.8826 Y407.3270 Z-2.0000 F1020.00
G2 X41.3745 Y406.2461 Z-2.0000 I-7.0629 J2.6603 F1020.00
G1 X43.9722 Y408.8438 Z-2.0000 F1020.00
G2 X43.7864 Y408.0852 Z-2.0000 I-5.0330 J0.8308 F1020.00
G1 X40.2841 Y404.5830 Z-2.0000 F1020.00
G0 Z5.0000
G0 X27.6251 Y358.9822
G0 Z3.0000
G1 X27.6251 Y358.9822 Z-0.5000 F1020.00
G1 X25.6905 Y357.0476 Z-0.5000 F1020.00
G2 X27.6251 Y358.9822 Z-0.5000 I3.4003 J-1.4657 F1020.00
G2 X28.4610 Y359.2454 Z-0.5000 I1.2608 J-2.5457 F1020.00
G1 X25.4479 Y356.2323 Z-0.5000 F1020.00
G3 X25.3790 Y355.5906 Z-0.5000 I2.2997 J-0.5714 F1020.00
G1 X29.0931 Y359.3047 Z-0.5000 F1020.00
G2 X29.6346 Y359.2735 Z-0.5000 I0.1572 J-1.9856 F1020.00
G1 X22.5555 Y352.1943 Z-0.5000 F1020.00
G0 X22.5555 Y352.1943 Z5.0000
G0 X22.6358 Y351.7019 Z5.0000
G0 X22.6358 Y351.7019 Z2.5000
G1 X22.6358 Y351.7019 Z-0.5000 F1020.00
G1 X24.0371 Y353.1032 Z-0.5000 F1020.00
G1 X24.0371 Y352.5304 Z-0.5000 F1020.00
G1 X23.4879 Y351.9812 Z-0.5000 F1020.00
G2 X24.0371 Y352.0550 Z-0.5000 I0.5274 J-1.8455 F1020.00
G1 X24.0371 Y352.5304 Z-0.5000 F1020.00
G0 X24.0371 Y352.5304 Z5.0000
G0 X24.3511 Y353.4172 Z5.0000
G0 X24.3511 Y353.4172 Z2.5000
G1 X24.3511 Y353.4172 Z-0.5000 F1020.00
G1 X25.7611 Y354.8272 Z-0.5000 F1020.00
G3 X25.4725 Y353.9658 Z-0.5000 I2.3593 J-1.2696 F1020.00
G1 X24.9239 Y353.4172 Z-0.5000 F1020.00
G1 X25.3986 Y353.4172 Z-0.5000 F1020.00
G2 X25.4725 Y353.9658 Z-0.5000 I2.0033 J0.0094 F1020.00
G0 X25.4725 Y353.9658 Z5.0000
G0 X25.1024 Y355.3140 Z5.0000
G0 X25.1024 Y355.3140 Z2.5000
G1 X25.1024 Y355.3140 Z-0.5000 F1020.00
G1 X22.5885 Y352.8001 Z-0.5000 F1020.00
G1 X22.5885 Y353.3728 Z-0.5000 F1020.00
G1 X24.5297 Y355.3140 Z-0.5000 F1020.00
G1 X23.9569 Y355.3140 Z-0.5000 F1020.00
G1 X22.5885 Y353.9456 Z-0.5000 F1020.00
G1 X22.5885 Y354.5184 Z-0.5000 F1020.00
G1 X23.3841 Y355.3140 Z-0.5000 F1020.00
G1 X22.8114 Y355.3140 Z-0.5000 F1020.00
G1 X22.5885 Y355.0911 Z-0.5000 F1020.00
G1 X22.5885 Y355.3140 Z-0.5000 F1020.00
G1 X22.8114 Y355.3140 Z-0.5000 F1020.00
G0 X22.8114 Y355.3140 Z5.0000
G0 X18.8246 Y349.6090 Z5.0000
G0 X18.8246 Y349.6090 Z2.5000
G1 X18.8246 Y349.6090 Z-0.5000 F1020.00
G1 X21.0493 Y351.8336 Z-0.5000 F1020.00
G3 X18.8246 Y349.6090 Z-0.5000 I1.2683 J-3.4930 F1020.00
G3 X18.6373 Y348.8489 Z-0.5000 I2.0172 J-0.9004 F1020.00
G1 X21.8274 Y352.0390 Z-0.5000 F1020.00
G2 X22.3788 Y352.0798 Z-0.5000 I0.4241 J-1.9856 F1020.00
G3 X22.4681 Y352.1069 Z-0.5000 I0.0103 J0.1267 F1020.00
G1 X18.5978 Y348.2367 Z-0.5000 F1020.00
G3 X18.6441 Y347.7102 Z-0.5000 I1.9384 J-0.0950 F1020.00
G1 X20.8853 Y349.9514 Z-0.5000 F1020.00
G2 X22.6358 Y351.7019 Z-0.5000 I3.3319 J-1.5814 F1020.00
G1 X24.0371 Y353.1032 Z-0.5000 F1020.00
G2 X24.3511 Y353.4172 Z-0.5000 I0.2467 J0.0673 F1020.00
G1 X25.7611 Y354.8272 Z-0.5000 F1020.00
G2 X27.5150 Y356.5811 Z-0.5000 I3.3405 J-1.5867 F1020.00
G1 X30.1136 Y359.1797 Z-0.5000 F1020.00
G2 X30.5452 Y359.0385 Z-0.5000 I-0.2977 J-1.6406 F1020.00
G1 X28.3764 Y356.8697 Z-0.5000 F1020.00
G2 X29.0306 Y356.9512 Z-0.5000 I0.6181 J-2.2962 F1020.00
G1 X30.9383 Y358.8588 Z-0.5000 F1020.00
G1 X31.2944 Y358.6422 Z-0.5000 F1020.00
G1 X29.5811 Y356.9289 Z-0.5000 F1020.00
G2 X30.0641 Y356.8391 Z-0.5000 I-0.0866 J-1.8114 F1020.00
G1 X31.6139 Y358.3890 Z-0.5000 F1020.00
G2 X31.9044 Y358.1067 Z-0.5000 I-0.8813 J-1.1981 F1020.00
G1 X30.4979 Y356.7002 Z-0.5000 F1020.00
G2 X30.8927 Y356.5222 Z-0.5000 I-0.4458 J-1.5155 F1020.00
G1 X32.1663 Y357.7958 Z-0.5000 F1020.00
G2 X32.3983 Y357.4551 Z-0.5000 I-1.1234 J-1.0145 F1020.00
G1 X31.2543 Y356.3111 Z-0.5000 F1020.00
G1 X31.5819 Y356.0659 Z-0.5000 F1020.00
G1 X32.5938 Y357.0778 Z-0.5000 F1020.00
G2 X32.7482 Y356.6595 Z-0.5000 I-1.4447 J-0.7708 F1020.00
G1 X31.8727 Y355.7840 Z-0.5000 F1020.00
G2 X32.1358 Y355.4743 Z-0.5000 I-0.9909 J-1.1086 F1020.00
G1 X32.8592 Y356.1977 Z-0.5000 F1020.00
G2 X32.9148 Y355.6805 Z-0.5000 I-1.8537 J-0.4607 F1020.00
G1 X32.3702 Y355.1360 Z-0.5000 F1020.00
G2 X32.5724 Y354.7654 Z-0.5000 I-10.2736 J-5.8465 F1020.00
G1 X33.1256 Y355.3186 Z-0.5000 F1020.00
G1 X33.1500 Y355.3140 Z-0.5000 F1020.00
G1 X33.6938 Y355.3140 Z-0.5000 F1020.00
G1 X32.7292 Y354.3494 Z-0.5000 F1020.00
G2 X32.8437 Y353.8912 Z-0.5000 I-1.6213 J-0.6488 F1020.00
G1 X34.2665 Y355.3140 Z-0.5000 F1020.00
G1 X34.8393 Y355.3140 Z-0.5000 F1020.00
G1 X32.9425 Y353.4172 Z-0.5000 F1020.00
G1 X33.5152 Y353.4172 Z-0.5000 F1020.00
G1 X35.4120 Y355.3140 Z-0.5000 F1020.00
G1 X35.7115 Y355.3140 Z-0.5000 F1020.00
G1 X35.7115 Y355.0407 Z-0.5000 F1020.00
G1 X34.0797 Y353.4089 Z-0.5000 F1020.00
G1 X34.1240 Y353.4001 Z-0.5000 F1020.00
G2 X34.2629 Y353.0194 Z-0.5000 I-0.1479 J-0.2696 F1020.00
G1 X35.7115 Y354.4680 Z-0.5000 F1020.00
G1 X35.7115 Y353.8952 Z-0.5000 F1020.00
G1 X34.2629 Y352.4466 Z-0.5000 F1020.00
G1 X34.2629 Y352.0550 Z-0.5000 F1020.00
G1 X34.4314 Y352.0424 Z-0.5000 F1020.00
G1 X35.7115 Y353.3224 Z-0.5000 F1020.00
G1 X35.7115 Y352.7497 Z-0.5000 F1020.00
G1 X34.9187 Y351.9569 Z-0.5000 F1020.00
G2 X35.3571 Y351.8226 Z-0.5000 I-0.2436 J-1.5776 F1020.00
G1 X35.7384 Y352.2039 Z-0.5000 F1020.00
G3 X35.8403 Y352.1009 Z-0.5000 I0.1812 J0.0774 F1020.00
G3 X36.1708 Y352.0634 Z-0.5000 I0.2635 J0.8490 F1020.00
G1 X35.7572 Y351.6499 Z-0.5000 F1020.00
G1 X36.1203 Y351.4402 Z-0.5000 F1020.00
G1 X36.6772 Y351.9972 Z-0.5000 F1020.00
G2 X37.1296 Y351.8768 Z-0.5000 I-0.2310 J-1.7783 F1020.00
G1 X36.4439 Y351.1910 Z-0.5000 F1020.00
G2 X36.7406 Y350.9151 Z-0.5000 I-0.8072 J-1.1657 F1020.00
G1 X37.5391 Y351.7135 Z-0.5000 F1020.00
G2 X37.9123 Y351.5139 Z-0.5000 I-0.5712 J-1.5172 F1020.00
G1 X37.0111 Y350.6128 Z-0.5000 F1020.00
G1 X37.2433 Y350.2722 Z-0.5000 F1020.00
G1 X38.2533 Y351.2822 Z-0.5000 F1020.00
G1 X38.5584 Y351.0146 Z-0.5000 F1020.00
G1 X37.4409 Y349.8970 Z-0.5000 F1020.00
G2 X37.6045 Y349.4879 Z-0.5000 I-1.3303 J-0.7694 F1020.00
G1 X38.8318 Y350.7152 Z-0.5000 F1020.00
G2 X39.0754 Y350.3860 Z-0.5000 I-1.1284 J-1.0897 F1020.00
G1 X37.7269 Y349.0375 Z-0.5000 F1020.00
G2 X37.7949 Y348.5328 Z-0.5000 I-1.8052 J-0.5004 F1020.00
G1 X39.2873 Y350.0252 Z-0.5000 F1020.00
G2 X39.4642 Y349.6293 Z-0.5000 I-1.4151 J-0.8697 F1020.00
G1 X37.7838 Y347.9489 Z-0.5000 F1020.00
G2 X37.6385 Y347.2309 Z-0.5000 I-2.5185 J0.1359 F1020.00
G1 X39.6001 Y349.1924 Z-0.5000 F1020.00
G2 X39.6848 Y348.7044 Z-0.5000 I-1.8111 J-0.5658 F1020.00
G1 X37.0861 Y346.1057 Z-0.5000 F1020.00
G0 X37.0861 Y346.1057 Z5.0000
G0 X37.6469 Y344.9482 Z5.0000
G0 X37.6469 Y344.9482 Z2.5000
G1 X37.6469 Y344.9482 Z-0.5000 F1020.00
G3 X39.2925 Y346.5939 Z-0.5000 I-1.6027 J3.2484 F1020.00
G1 X37.6469 Y344.9482 Z-0.5000 F1020.00
G2 X36.7522 Y344.6263 Z-0.5000 I-1.3319 J2.2974 F1020.00
G1 X39.6145 Y347.4886 Z-0.5000 F1020.00
G3 X39.7007 Y348.1476 Z-0.5000 I-2.4598 J0.6572 F1020.00
G1 X36.0932 Y344.5400 Z-0.5000 F1020.00
G3 X35.7272 Y344.3870 Z-0.5000 I-0.0904 J-0.2978 F1020.00
G3 X35.7115 Y344.1583 Z-0.5000 I0.5925 J-0.1557 F1020.00
G1 X28.9415 Y337.3884 Z-0.5000 F1020.00
G2 X28.4330 Y337.4526 Z-0.5000 I-0.0308 J1.8005 F1020.00
G1 X31.3486 Y340.3683 Z-0.5000 F1020.00
G2 X30.2234 Y339.8158 Z-0.5000 I-1.9011 J2.4498 F1020.00
G1 X27.9791 Y337.5715 Z-0.5000 F1020.00
G2 X27.5679 Y337.7330 Z-0.5000 I0.3559 J1.5110 F1020.00
G1 X29.5054 Y339.6705 Z-0.5000 F1020.00
G2 X28.9215 Y339.6594 Z-0.5000 I-0.3314 J2.0671 F1020.00
G1 X27.1974 Y337.9353 Z-0.5000 F1020.00
G2 X26.8646 Y338.1752 Z-0.5000 I0.6679 J1.2774 F1020.00
G1 X28.4168 Y339.7274 Z-0.5000 F1020.00
G2 X27.9664 Y339.8498 Z-0.5000 I0.2029 J1.6371 F1020.00
G1 X26.5612 Y338.4446 Z-0.5000 F1020.00
G2 X26.2866 Y338.7428 Z-0.5000 I0.8995 J1.1041 F1020.00
G1 X27.5573 Y340.0134 Z-0.5000 F1020.00
G2 X27.1820 Y340.2110 Z-0.5000 I0.5059 J1.4160 F1020.00
G1 X26.0414 Y339.0703 Z-0.5000 F1020.00
G2 X25.8390 Y339.4406 Z-0.5000 I1.1870 J0.8893 F1020.00
G1 X26.8415 Y340.4431 Z-0.5000 F1020.00
G2 X26.5392 Y340.7136 Z-0.5000 I0.8446 J1.2479 F1020.00
G1 X25.6716 Y339.8460 Z-0.5000 F1020.00
G2 X25.5460 Y340.2932 Z-0.5000 I1.4922 J0.6604 F1020.00
G1 X26.2633 Y341.0104 Z-0.5000 F1020.00
G2 X26.0140 Y341.3340 Z-0.5000 I1.0735 J1.0847 F1020.00
G1 X25.4736 Y340.7936 Z-0.5000 F1020.00
G3 X25.4313 Y341.1667 Z-0.5000 I-1.0048 J0.0749 F1020.00
G3 X25.3571 Y341.2497 Z-0.5000 I-0.1427 J-0.0528 F1020.00
G1 X25.8044 Y341.6971 Z-0.5000 F1020.00
G2 X25.6317 Y342.0972 Z-0.5000 I1.3200 J0.8070 F1020.00
G1 X24.8291 Y341.2946 Z-0.5000 F1020.00
G1 X24.2564 Y341.2946 Z-0.5000 F1020.00
G1 X25.4974 Y342.5356 Z-0.5000 F1020.00
G2 X25.4119 Y343.0229 Z-0.5000 I1.6382 J0.5385 F1020.00
G1 X23.6836 Y341.2946 Z-0.5000 F1020.00
G1 X23.1108 Y341.2946 Z-0.5000 F1020.00
G1 X25.0077 Y343.1914 Z-0.5000 F1020.00
G1 X24.4349 Y343.1914 Z-0.5000 F1020.00
G1 X22.5885 Y341.3450 Z-0.5000 F1020.00
G1 X22.5885 Y341.9177 Z-0.5000 F1020.00
G1 X24.0454 Y343.3746 Z-0.5000 F1020.00
G1 X24.0371 Y343.4164 Z-0.5000 F1020.00
G1 X24.0371 Y343.9391 Z-0.5000 F1020.00
G1 X22.5885 Y342.4905 Z-0.5000 F1020.00
G1 X22.5885 Y343.0632 Z-0.5000 F1020.00
G1 X24.0371 Y344.5118 Z-0.5000 F1020.00
G1 X24.0371 Y344.5536 Z-0.5000 F1020.00
G2 X23.5628 Y344.6102 Z-0.5000 I-0.0408 J1.6722 F1020.00
G1 X22.5885 Y343.6360 Z-0.5000 F1020.00
G1 X22.5885 Y344.2087 Z-0.5000 F1020.00
G1 X23.1029 Y344.7232 Z-0.5000 F1020.00
G1 X22.6916 Y344.8846 Z-0.5000 F1020.00
G1 X22.3385 Y344.5315 Z-0.5000 F1020.00
G2 X21.8079 Y344.5736 Z-0.5000 I-0.1122 J1.9514 F1020.00
G1 X22.3210 Y345.0867 Z-0.5000 F1020.00
G2 X21.9801 Y345.3187 Z-0.5000 I0.6320 J1.2953 F1020.00
G1 X21.3349 Y344.6734 Z-0.5000 F1020.00
G1 X20.9123 Y344.8236 Z-0.5000 F1020.00
G1 X21.6666 Y345.5779 Z-0.5000 F1020.00
G1 X21.3909 Y345.8750 Z-0.5000 F1020.00
G1 X20.5294 Y345.0134 Z-0.5000 F1020.00
G2 X20.1797 Y345.2365 Z-0.5000 I0.6364 J1.3838 F1020.00
G1 X21.1470 Y346.2038 Z-0.5000 F1020.00
G2 X20.9316 Y346.5611 Z-0.5000 I1.1316 J0.9260 F1020.00
G1 X19.8601 Y345.4897 Z-0.5000 F1020.00
G2 X19.5694 Y345.7717 Z-0.5000 I0.8806 J1.1986 F1020.00
G1 X20.7480 Y346.9503 Z-0.5000 F1020.00
G1 X20.6130 Y347.3880 Z-0.5000 F1020.00
G1 X19.3125 Y346.0875 Z-0.5000 F1020.00
G2 X19.0908 Y346.4386 Z-0.5000 I1.1662 J0.9821 F1020.00
G1 X20.5273 Y347.8751 Z-0.5000 F1020.00
G2 X20.5050 Y348.4256 Z-0.5000 I1.8895 J0.3521 F1020.00
G1 X18.9017 Y346.8222 Z-0.5000 F1020.00
G2 X18.7500 Y347.2434 Z-0.5000 I1.4562 J0.7621 F1020.00
G1 X20.5783 Y349.0716 Z-0.5000 F1020.00
G2 X20.8853 Y349.9514 Z-0.5000 I2.8964 J-0.5173 F1020.00
G1 X18.6441 Y347.7102 Z-0.5000 F1020.00
G0 X18.6441 Y347.7102 Z5.0000
G0 X28.9415 Y337.3884 Z5.0000
G0 X28.9415 Y337.3884 Z2.5000
G1 X28.9415 Y337.3884 Z-0.5000 F1020.00
G1 X35.7115 Y344.1583 Z-0.5000 F1020.00
G1 X35.7115 Y343.5856 Z-0.5000 F1020.00
G1 X33.4205 Y341.2946 Z-0.5000 F1020.00
G1 X33.0716 Y341.2946 Z-0.5000 F1020.00
G3 X32.8687 Y341.1667 Z-0.5000 I-0.0000 J-0.2250 F1020.00
G3 X32.8191 Y340.6932 Z-0.5000 I1.2234 J-0.3673 F1020.00
G1 X29.5263 Y337.4004 Z-0.5000 F1020.00
G3 X30.2400 Y337.5414 Z-0.5000 I-0.0925 J2.3456 F1020.00
G1 X32.6782 Y339.9795 Z-0.5000 F1020.00
G2 X31.4800 Y338.2086 Z-0.5000 I-3.4360 J1.0339 F1020.00
G3 X32.0110 Y338.7396 Z-0.5000 I-1.3005 J1.8315 F1020.00
G0 X32.0110 Y338.7396 Z5.0000
G0 X32.2175 Y341.2371 Z5.0000
G0 X32.2175 Y341.2371 Z2.5000
G1 X32.2175 Y341.2371 Z-0.5000 F1020.00
G1 X36.2171 Y345.2367 Z-0.5000 F1020.00
G2 X35.1009 Y344.6933 Z-0.5000 I-2.0814 J2.8568 F1020.00
G1 X34.2629 Y343.8553 Z-0.5000 F1020.00
G1 X34.2629 Y344.4280 Z-0.5000 F1020.00
G1 X34.2629 Y344.5536 Z-0.5000 F1020.00
G1 X34.3986 Y344.5637 Z-0.5000 F1020.00
G1 X34.2629 Y344.4280 Z-0.5000 F1020.00
G0 X34.2629 Y344.4280 Z5.0000
G0 X33.5990 Y343.1914 Z5.0000
G0 X33.5990 Y343.1914 Z2.5000
G1 X33.5990 Y343.1914 Z-0.5000 F1020.00
G1 X32.7610 Y342.3534 Z-0.5000 F1020.00
G3 X32.8905 Y343.0556 Z-0.5000 I-2.3356 J0.7938 F1020.00
G1 X32.9007 Y343.1914 Z-0.5000 F1020.00
G1 X33.0263 Y343.1914 Z-0.5000 F1020.00
G1 X32.8905 Y343.0556 Z-0.5000 F1020.00
G0 X32.8905 Y343.0556 Z5.0000
G0 X35.7115 Y343.5856 Z5.0000
G0 X35.7115 Y343.5856 Z2.5000
G1 X35.7115 Y343.5856 Z-0.5000 F1020.00
G1 X33.4205 Y341.2946 Z-0.5000 F1020.00
G1 X33.9932 Y341.2946 Z-0.5000 F1020.00
G1 X35.7115 Y343.0128 Z-0.5000 F1020.00
G1 X35.7115 Y342.4401 Z-0.5000 F1020.00
G1 X34.5660 Y341.2946 Z-0.5000 F1020.00
G1 X35.1387 Y341.2946 Z-0.5000 F1020.00
G1 X35.7115 Y341.8673 Z-0.5000 F1020.00
G1 X35.7115 Y341.2946 Z-0.5000 F1020.00
G1 X35.7115 Y341.2946 Z-1.0000 F1020.00
G1 X35.7115 Y341.8673 Z-1.0000 F1020.00
G1 X35.1387 Y341.2946 Z-1.0000 F1020.00
G1 X34.5660 Y341.2946 Z-1.0000 F1020.00
G1 X35.7115 Y342.4401 Z-1.0000 F1020.00
G1 X35.7115 Y343.0128 Z-1.0000 F1020.00
G1 X33.9932 Y341.2946 Z-1.0000 F1020.00
G1 X33.4205 Y341.2946 Z-1.0000 F1020.00
G1 X35.7115 Y343.5856 Z-1.0000 F1020.00
G0 X35.7115 Y343.5856 Z5.0000
G0 X34.2629 Y344.4280 Z5.0000
G0 X34.2629 Y344.4280 Z2.0000
G1 X34.2629 Y344.4280 Z-1.0000 F1020.00
G1 X34.3986 Y344.5637 Z-1.0000 F1020.00
G1 X34.2629 Y344.5536 Z-1.0000 F1020.00
G1 X34.2629 Y344.4280 Z-1.0000 F1020.00
G1 X34.2629 Y343.8553 Z-1.0000 F1020.00
G1 X35.1009 Y344.6933 Z-1.0000 F1020.00
