(Exported by FreeCAD)
(Post Processor: grbl_post)
(Output Time:2022-02-07 08:31:03.148689)
(begin preamble)
G17 G90
G21
(begin operation: T3: 1/8inMILL)
(Path: T3: 1/8inMILL)
(T3: 1/8inMILL)
(begin toolchange)
; M6 T3
M3 S0.0000
(finish operation: T3: 1/8inMILL)
(begin operation: Contour)
(Path: Contour)
(Contour)
(Compensated Tool Path. Diameter: 2.0)
G0 Z5.0000
G0 X48.7071 Y500.7071
G0 Z3.0000
G1 X48.7071 Y500.7071 Z-1.0000 F1080.00
G2 X49.0000 Y500.0000 Z-1.0000 I-0.7071 J-0.7071 F1080.00
G1 X49.0000 Y0.0000 Z-1.0000 F1080.00
G2 X47.8454 Y-0.9880 Z-1.0000 I-1.0000 J0.0000 F1080.00
G3 X0.1546 Y-0.9880 Z-1.0000 I-23.8454 J-142.0210 F1080.00
G2 X-1.0000 Y0.0000 Z-1.0000 I-0.1546 J0.9880 F1080.00
G1 X-1.0000 Y343.2295 Z-1.0000 F1080.00
G2 X-0.4381 Y344.1284 Z-1.0000 I1.0000 J-0.0000 F1080.00
G3 X14.0000 Y360.1727 Z-1.0000 I-11.1644 J24.5652 F1080.00
G1 X14.0000 Y500.0000 Z-1.0000 F1080.00
G2 X15.0000 Y501.0000 Z-1.0000 I1.0000 J-0.0000 F1080.00
G1 X48.0000 Y501.0000 Z-1.0000 F1080.00
G2 X48.7071 Y500.7071 Z-1.0000 I-0.0000 J-1.0000 F1080.00
G1 X48.7071 Y500.7071 Z-2.0000 F1080.00
G2 X49.0000 Y500.0000 Z-2.0000 I-0.7071 J-0.7071 F1080.00
G1 X49.0000 Y0.0000 Z-2.0000 F1080.00
G2 X47.8454 Y-0.9880 Z-2.0000 I-1.0000 J0.0000 F1080.00
G3 X0.1546 Y-0.9880 Z-2.0000 I-23.8454 J-142.0210 F1080.00
G2 X-1.0000 Y0.0000 Z-2.0000 I-0.1546 J0.9880 F1080.00
G1 X-1.0000 Y343.2295 Z-2.0000 F1080.00
G2 X-0.4381 Y344.1284 Z-2.0000 I1.0000 J-0.0000 F1080.00
G3 X14.0000 Y360.1727 Z-2.0000 I-11.1644 J24.5652 F1080.00
G1 X14.0000 Y500.0000 Z-2.0000 F1080.00
G2 X15.0000 Y501.0000 Z-2.0000 I1.0000 J-0.0000 F1080.00
G1 X48.0000 Y501.0000 Z-2.0000 F1080.00
G2 X48.7071 Y500.7071 Z-2.0000 I-0.0000 J-1.0000 F1080.00
G1 X48.7071 Y500.7071 Z-3.0000 F1080.00
G2 X49.0000 Y500.0000 Z-3.0000 I-0.7071 J-0.7071 F1080.00
G1 X49.0000 Y0.0000 Z-3.0000 F1080.00
G2 X47.8454 Y-0.9880 Z-3.0000 I-1.0000 J0.0000 F1080.00
G3 X0.1546 Y-0.9880 Z-3.0000 I-23.8454 J-142.0210 F1080.00
G2 X-1.0000 Y0.0000 Z-3.0000 I-0.1546 J0.9880 F1080.00
G1 X-1.0000 Y343.2295 Z-3.0000 F1080.00
G2 X-0.4381 Y344.1284 Z-3.0000 I1.0000 J-0.0000 F1080.00
G3 X14.0000 Y360.1727 Z-3.0000 I-11.1644 J24.5652 F1080.00
G1 X14.0000 Y500.0000 Z-3.0000 F1080.00
G2 X15.0000 Y501.0000 Z-3.0000 I1.0000 J-0.0000 F1080.00
G1 X48.0000 Y501.0000 Z-3.0000 F1080.00
G2 X48.7071 Y500.7071 Z-3.0000 I-0.0000 J-1.0000 F1080.00
G1 X48.7071 Y500.7071 Z-4.0000 F1080.00
G2 X49.0000 Y500.0000 Z-4.0000 I-0.7071 J-0.7071 F1080.00
G1 X49.0000 Y0.0000 Z-4.0000 F1080.00
G2 X47.8454 Y-0.9880 Z-4.0000 I-1.0000 J0.0000 F1080.00
G3 X0.1546 Y-0.9880 Z-4.0000 I-23.8454 J-142.0210 F1080.00
G2 X-1.0000 Y0.0000 Z-4.0000 I-0.1546 J0.9880 F1080.00
G1 X-1.0000 Y343.2295 Z-4.0000 F1080.00
G2 X-0.4381 Y344.1284 Z-4.0000 I1.0000 J-0.0000 F1080.00
G3 X14.0000 Y360.1727 Z-4.0000 I-11.1644 J24.5652 F1080.00
G1 X14.0000 Y500.0000 Z-4.0000 F1080.00
G2 X15.0000 Y501.0000 Z-4.0000 I1.0000 J-0.0000 F1080.00
G1 X48.0000 Y501.0000 Z-4.0000 F1080.00
G2 X48.7071 Y500.7071 Z-4.0000 I-0.0000 J-1.0000 F1080.00
G1 X48.7071 Y500.7071 Z-5.0000 F1080.00
G2 X49.0000 Y500.0000 Z-5.0000 I-0.7071 J-0.7071 F1080.00
G1 X49.0000 Y0.0000 Z-5.0000 F1080.00
G2 X47.8454 Y-0.9880 Z-5.0000 I-1.0000 J0.0000 F1080.00
G3 X0.1546 Y-0.9880 Z-5.0000 I-23.8454 J-142.0210 F1080.00
G2 X-1.0000 Y0.0000 Z-5.0000 I-0.1546 J0.9880 F1080.00
G1 X-1.0000 Y343.2295 Z-5.0000 F1080.00
G2 X-0.4381 Y344.1284 Z-5.0000 I1.0000 J-0.0000 F1080.00
G3 X14.0000 Y360.1727 Z-5.0000 I-11.1644 J24.5652 F1080.00
G1 X14.0000 Y500.0000 Z-5.0000 F1080.00
G2 X15.0000 Y501.0000 Z-5.0000 I1.0000 J-0.0000 F1080.00
G1 X48.0000 Y501.0000 Z-5.0000 F1080.00
G2 X48.7071 Y500.7071 Z-5.0000 I-0.0000 J-1.0000 F1080.00
G1 X48.7071 Y500.7071 Z-6.0000 F1080.00
G2 X49.0000 Y500.0000 Z-6.0000 I-0.7071 J-0.7071 F1080.00
G1 X49.0000 Y0.0000 Z-6.0000 F1080.00
G2 X47.8454 Y-0.9880 Z-6.0000 I-1.0000 J0.0000 F1080.00
G3 X0.1546 Y-0.9880 Z-6.0000 I-23.8454 J-142.0210 F1080.00
G2 X-1.0000 Y0.0000 Z-6.0000 I-0.1546 J0.9880 F1080.00
G1 X-1.0000 Y343.2295 Z-6.0000 F1080.00
G2 X-0.4381 Y344.1284 Z-6.0000 I1.0000 J-0.0000 F1080.00
G3 X14.0000 Y360.1727 Z-6.0000 I-11.1644 J24.5652 F1080.00
G1 X14.0000 Y500.0000 Z-6.0000 F1080.00
G2 X15.0000 Y501.0000 Z-6.0000 I1.0000 J-0.0000 F1080.00
G1 X48.0000 Y501.0000 Z-6.0000 F1080.00
G2 X48.7071 Y500.7071 Z-6.0000 I-0.0000 J-1.0000 F1080.00
G0 Z5.0000
(finish operation: Contour)
(begin postamble)
M5
G17 G90
; M2
