(Exported by FreeCAD)
(Post Processor: grbl_post)
(Output Time:2022-02-07 08:29:28.355540)
(begin preamble)
G17 G90
G21
(begin operation: T4: BALLMill)
(Path: T4: BALLMill)
(T4: BALLMill)
(begin toolchange)
; M6 T4
M3 S0.0000
(finish operation: T4: BALLMill)
(begin operation: FRET_SLOTS)
(Path: FRET_SLOTS)
(Pocket_Shape)
G0 Z5.0000
G0 X47.7750 Y463.1750
G0 Z3.0000
G1 X47.7750 Y463.1750 Z-0.5000 F1020.00
G1 X15.2250 Y463.1750 Z-0.5000 F1020.00
G1 X15.2250 Y463.1250 Z-0.5000 F1020.00
G1 X47.7750 Y463.1250 Z-0.5000 F1020.00
G1 X47.7750 Y463.1750 Z-0.5000 F1020.00
G1 X47.7750 Y463.1750 Z-1.0000 F1020.00
G1 X15.2250 Y463.1750 Z-1.0000 F1020.00
G1 X15.2250 Y463.1250 Z-1.0000 F1020.00
G1 X47.7750 Y463.1250 Z-1.0000 F1020.00
G1 X47.7750 Y463.1750 Z-1.0000 F1020.00
G1 X47.7750 Y463.1750 Z-1.5000 F1020.00
G1 X15.2250 Y463.1750 Z-1.5000 F1020.00
G1 X15.2250 Y463.1250 Z-1.5000 F1020.00
G1 X47.7750 Y463.1250 Z-1.5000 F1020.00
G1 X47.7750 Y463.1750 Z-1.5000 F1020.00
G1 X47.7750 Y463.1750 Z-2.0000 F1020.00
G1 X15.2250 Y463.1750 Z-2.0000 F1020.00
G1 X15.2250 Y463.1250 Z-2.0000 F1020.00
G1 X47.7750 Y463.1250 Z-2.0000 F1020.00
G1 X47.7750 Y463.1750 Z-2.0000 F1020.00
G0 Z5.0000
G0 X47.7750 Y427.6850
G0 Z3.0000
G1 X47.7750 Y427.6850 Z-0.5000 F1020.00
G1 X15.2250 Y427.6850 Z-0.5000 F1020.00
G1 X15.2250 Y427.6350 Z-0.5000 F1020.00
G1 X47.7750 Y427.6350 Z-0.5000 F1020.00
G1 X47.7750 Y427.6850 Z-0.5000 F1020.00
G1 X47.7750 Y427.6850 Z-1.0000 F1020.00
G1 X15.2250 Y427.6850 Z-1.0000 F1020.00
G1 X15.2250 Y427.6350 Z-1.0000 F1020.00
G1 X47.7750 Y427.6350 Z-1.0000 F1020.00
G1 X47.7750 Y427.6850 Z-1.0000 F1020.00
G1 X47.7750 Y427.6850 Z-1.5000 F1020.00
G1 X15.2250 Y427.6850 Z-1.5000 F1020.00
G1 X15.2250 Y427.6350 Z-1.5000 F1020.00
G1 X47.7750 Y427.6350 Z-1.5000 F1020.00
G1 X47.7750 Y427.6850 Z-1.5000 F1020.00
G1 X47.7750 Y427.6850 Z-2.0000 F1020.00
G1 X15.2250 Y427.6850 Z-2.0000 F1020.00
G1 X15.2250 Y427.6350 Z-2.0000 F1020.00
G1 X47.7750 Y427.6350 Z-2.0000 F1020.00
G1 X47.7750 Y427.6850 Z-2.0000 F1020.00
G0 Z5.0000
G0 X47.7750 Y394.1850
G0 Z3.0000
G1 X47.7750 Y394.1850 Z-0.5000 F1020.00
G1 X15.2250 Y394.1850 Z-0.5000 F1020.00
G1 X15.2250 Y394.1350 Z-0.5000 F1020.00
G1 X47.7750 Y394.1350 Z-0.5000 F1020.00
G1 X47.7750 Y394.1850 Z-0.5000 F1020.00
G1 X47.7750 Y394.1850 Z-1.0000 F1020.00
G1 X15.2250 Y394.1850 Z-1.0000 F1020.00
G1 X15.2250 Y394.1350 Z-1.0000 F1020.00
G1 X47.7750 Y394.1350 Z-1.0000 F1020.00
G1 X47.7750 Y394.1850 Z-1.0000 F1020.00
G1 X47.7750 Y394.1850 Z-1.5000 F1020.00
G1 X15.2250 Y394.1850 Z-1.5000 F1020.00
G1 X15.2250 Y394.1350 Z-1.5000 F1020.00
G1 X47.7750 Y394.1350 Z-1.5000 F1020.00
G1 X47.7750 Y394.1850 Z-1.5000 F1020.00
G1 X47.7750 Y394.1850 Z-2.0000 F1020.00
G1 X15.2250 Y394.1850 Z-2.0000 F1020.00
G1 X15.2250 Y394.1350 Z-2.0000 F1020.00
G1 X47.7750 Y394.1350 Z-2.0000 F1020.00
G1 X47.7750 Y394.1850 Z-2.0000 F1020.00
G0 Z5.0000
G0 X47.7750 Y362.5750
G0 Z3.0000
G1 X47.7750 Y362.5750 Z-0.5000 F1020.00
G1 X15.2250 Y362.5750 Z-0.5000 F1020.00
G1 X15.2250 Y362.5250 Z-0.5000 F1020.00
G1 X47.7750 Y362.5250 Z-0.5000 F1020.00
G1 X47.7750 Y362.5750 Z-0.5000 F1020.00
G1 X47.7750 Y362.5750 Z-1.0000 F1020.00
G1 X15.2250 Y362.5750 Z-1.0000 F1020.00
G1 X15.2250 Y362.5250 Z-1.0000 F1020.00
G1 X47.7750 Y362.5250 Z-1.0000 F1020.00
G1 X47.7750 Y362.5750 Z-1.0000 F1020.00
G1 X47.7750 Y362.5750 Z-1.5000 F1020.00
G1 X15.2250 Y362.5750 Z-1.5000 F1020.00
G1 X15.2250 Y362.5250 Z-1.5000 F1020.00
G1 X47.7750 Y362.5250 Z-1.5000 F1020.00
G1 X47.7750 Y362.5750 Z-1.5000 F1020.00
G1 X47.7750 Y362.5750 Z-2.0000 F1020.00
G1 X15.2250 Y362.5750 Z-2.0000 F1020.00
G1 X15.2250 Y362.5250 Z-2.0000 F1020.00
G1 X47.7750 Y362.5250 Z-2.0000 F1020.00
G1 X47.7750 Y362.5750 Z-2.0000 F1020.00
G0 Z5.0000
G0 X47.7750 Y332.7250
G0 Z3.0000
G1 X47.7750 Y332.7250 Z-0.5000 F1020.00
G1 X0.2250 Y332.7250 Z-0.5000 F1020.00
G1 X0.2250 Y332.6750 Z-0.5000 F1020.00
G1 X47.7750 Y332.6750 Z-0.5000 F1020.00
G1 X47.7750 Y332.7250 Z-0.5000 F1020.00
G1 X47.7750 Y332.7250 Z-1.0000 F1020.00
G1 X0.2250 Y332.7250 Z-1.0000 F1020.00
G1 X0.2250 Y332.6750 Z-1.0000 F1020.00
G1 X47.7750 Y332.6750 Z-1.0000 F1020.00
G1 X47.7750 Y332.7250 Z-1.0000 F1020.00
G1 X47.7750 Y332.7250 Z-1.5000 F1020.00
G1 X0.2250 Y332.7250 Z-1.5000 F1020.00
G1 X0.2250 Y332.6750 Z-1.5000 F1020.00
G1 X47.7750 Y332.6750 Z-1.5000 F1020.00
G1 X47.7750 Y332.7250 Z-1.5000 F1020.00
G1 X47.7750 Y332.7250 Z-2.0000 F1020.00
G1 X0.2250 Y332.7250 Z-2.0000 F1020.00
G1 X0.2250 Y332.6750 Z-2.0000 F1020.00
G1 X47.7750 Y332.6750 Z-2.0000 F1020.00
G1 X47.7750 Y332.7250 Z-2.0000 F1020.00
G0 Z5.0000
G0 X47.7750 Y304.5550
G0 Z3.0000
G1 X47.7750 Y304.5550 Z-0.5000 F1020.00
G1 X0.2250 Y304.5550 Z-0.5000 F1020.00
G1 X0.2250 Y304.5050 Z-0.5000 F1020.00
G1 X47.7750 Y304.5050 Z-0.5000 F1020.00
G1 X47.7750 Y304.5550 Z-0.5000 F1020.00
G1 X47.7750 Y304.5550 Z-1.0000 F1020.00
G1 X0.2250 Y304.5550 Z-1.0000 F1020.00
G1 X0.2250 Y304.5050 Z-1.0000 F1020.00
G1 X47.7750 Y304.5050 Z-1.0000 F1020.00
G1 X47.7750 Y304.5550 Z-1.0000 F1020.00
G1 X47.7750 Y304.5550 Z-1.5000 F1020.00
G1 X0.2250 Y304.5550 Z-1.5000 F1020.00
G1 X0.2250 Y304.5050 Z-1.5000 F1020.00
G1 X47.7750 Y304.5050 Z-1.5000 F1020.00
G1 X47.7750 Y304.5550 Z-1.5000 F1020.00
G1 X47.7750 Y304.5550 Z-2.0000 F1020.00
G1 X0.2250 Y304.5550 Z-2.0000 F1020.00
G1 X0.2250 Y304.5050 Z-2.0000 F1020.00
G1 X47.7750 Y304.5050 Z-2.0000 F1020.00
G1 X47.7750 Y304.5550 Z-2.0000 F1020.00
G0 Z5.0000
G0 X47.7750 Y277.9750
G0 Z3.0000
G1 X47.7750 Y277.9750 Z-0.5000 F1020.00
G1 X0.2250 Y277.9750 Z-0.5000 F1020.00
G1 X0.2250 Y277.9250 Z-0.5000 F1020.00
G1 X47.7750 Y277.9250 Z-0.5000 F1020.00
G1 X47.7750 Y277.9750 Z-0.5000 F1020.00
G1 X47.7750 Y277.9750 Z-1.0000 F1020.00
G1 X0.2250 Y277.9750 Z-1.0000 F1020.00
G1 X0.2250 Y277.9250 Z-1.0000 F1020.00
G1 X47.7750 Y277.9250 Z-1.0000 F1020.00
G1 X47.7750 Y277.9750 Z-1.0000 F1020.00
G1 X47.7750 Y277.9750 Z-1.5000 F1020.00
G1 X0.2250 Y277.9750 Z-1.5000 F1020.00
G1 X0.2250 Y277.9250 Z-1.5000 F1020.00
G1 X47.7750 Y277.9250 Z-1.5000 F1020.00
G1 X47.7750 Y277.9750 Z-1.5000 F1020.00
G1 X47.7750 Y277.9750 Z-2.0000 F1020.00
G1 X0.2250 Y277.9750 Z-2.0000 F1020.00
G1 X0.2250 Y277.9250 Z-2.0000 F1020.00
G1 X47.7750 Y277.9250 Z-2.0000 F1020.00
G1 X47.7750 Y277.9750 Z-2.0000 F1020.00
G0 Z5.0000
G0 X47.7750 Y252.8750
G0 Z3.0000
G1 X47.7750 Y252.8750 Z-0.5000 F1020.00
G1 X0.2250 Y252.8750 Z-0.5000 F1020.00
G1 X0.2250 Y252.8250 Z-0.5000 F1020.00
G1 X47.7750 Y252.8250 Z-0.5000 F1020.00
G1 X47.7750 Y252.8750 Z-0.5000 F1020.00
G1 X47.7750 Y252.8750 Z-1.0000 F1020.00
G1 X0.2250 Y252.8750 Z-1.0000 F1020.00
G1 X0.2250 Y252.8250 Z-1.0000 F1020.00
G1 X47.7750 Y252.8250 Z-1.0000 F1020.00
G1 X47.7750 Y252.8750 Z-1.0000 F1020.00
G1 X47.7750 Y252.8750 Z-1.5000 F1020.00
G1 X0.2250 Y252.8750 Z-1.5000 F1020.00
G1 X0.2250 Y252.8250 Z-1.5000 F1020.00
G1 X47.7750 Y252.8250 Z-1.5000 F1020.00
G1 X47.7750 Y252.8750 Z-1.5000 F1020.00
G1 X47.7750 Y252.8750 Z-2.0000 F1020.00
G1 X0.2250 Y252.8750 Z-2.0000 F1020.00
G1 X0.2250 Y252.8250 Z-2.0000 F1020.00
G1 X47.7750 Y252.8250 Z-2.0000 F1020.00
G1 X47.7750 Y252.8750 Z-2.0000 F1020.00
G0 Z5.0000
G0 X47.7750 Y228.1850
G0 Z3.0000
G1 X47.7750 Y228.1850 Z-0.5000 F1020.00
G1 X0.2250 Y228.1850 Z-0.5000 F1020.00
G1 X0.2250 Y228.1350 Z-0.5000 F1020.00
G1 X47.7750 Y228.1350 Z-0.5000 F1020.00
G1 X47.7750 Y228.1850 Z-0.5000 F1020.00
G1 X47.7750 Y228.1850 Z-1.0000 F1020.00
G1 X0.2250 Y228.1850 Z-1.0000 F1020.00
G1 X0.2250 Y228.1350 Z-1.0000 F1020.00
G1 X47.7750 Y228.1350 Z-1.0000 F1020.00
G1 X47.7750 Y228.1850 Z-1.0000 F1020.00
G1 X47.7750 Y228.1850 Z-1.5000 F1020.00
G1 X0.2250 Y228.1850 Z-1.5000 F1020.00
G1 X0.2250 Y228.1350 Z-1.5000 F1020.00
G1 X47.7750 Y228.1350 Z-1.5000 F1020.00
G1 X47.7750 Y228.1850 Z-1.5000 F1020.00
G1 X47.7750 Y228.1850 Z-2.0000 F1020.00
G1 X0.2250 Y228.1850 Z-2.0000 F1020.00
G1 X0.2250 Y228.1350 Z-2.0000 F1020.00
G1 X47.7750 Y228.1350 Z-2.0000 F1020.00
G1 X47.7750 Y228.1850 Z-2.0000 F1020.00
G0 Z5.0000
G0 X47.7750 Y205.8350
G0 Z3.0000
G1 X47.7750 Y205.8350 Z-0.5000 F1020.00
G1 X0.2250 Y205.8350 Z-0.5000 F1020.00
G1 X0.2250 Y205.7850 Z-0.5000 F1020.00
G1 X47.7750 Y205.7850 Z-0.5000 F1020.00
G1 X47.7750 Y205.8350 Z-0.5000 F1020.00
G1 X47.7750 Y205.8350 Z-1.0000 F1020.00
G1 X0.2250 Y205.8350 Z-1.0000 F1020.00
G1 X0.2250 Y205.7850 Z-1.0000 F1020.00
G1 X47.7750 Y205.7850 Z-1.0000 F1020.00
G1 X47.7750 Y205.8350 Z-1.0000 F1020.00
G1 X47.7750 Y205.8350 Z-1.5000 F1020.00
G1 X0.2250 Y205.8350 Z-1.5000 F1020.00
G1 X0.2250 Y205.7850 Z-1.5000 F1020.00
G1 X47.7750 Y205.7850 Z-1.5000 F1020.00
G1 X47.7750 Y205.8350 Z-1.5000 F1020.00
G1 X47.7750 Y205.8350 Z-2.0000 F1020.00
G1 X0.2250 Y205.8350 Z-2.0000 F1020.00
G1 X0.2250 Y205.7850 Z-2.0000 F1020.00
G1 X47.7750 Y205.7850 Z-2.0000 F1020.00
G1 X47.7750 Y205.8350 Z-2.0000 F1020.00
G0 Z5.0000
G0 X47.7750 Y185.7250
G0 Z3.0000
G1 X47.7750 Y185.7250 Z-0.5000 F1020.00
G1 X0.2250 Y185.7250 Z-0.5000 F1020.00
G1 X0.2250 Y185.6750 Z-0.5000 F1020.00
G1 X47.7750 Y185.6750 Z-0.5000 F1020.00
G1 X47.7750 Y185.7250 Z-0.5000 F1020.00
G1 X47.7750 Y185.7250 Z-1.0000 F1020.00
G1 X0.2250 Y185.7250 Z-1.0000 F1020.00
G1 X0.2250 Y185.6750 Z-1.0000 F1020.00
G1 X47.7750 Y185.6750 Z-1.0000 F1020.00
G1 X47.7750 Y185.7250 Z-1.0000 F1020.00
G1 X47.7750 Y185.7250 Z-1.5000 F1020.00
G1 X0.2250 Y185.7250 Z-1.5000 F1020.00
G1 X0.2250 Y185.6750 Z-1.5000 F1020.00
G1 X47.7750 Y185.6750 Z-1.5000 F1020.00
G1 X47.7750 Y185.7250 Z-1.5000 F1020.00
G1 X47.7750 Y185.7250 Z-2.0000 F1020.00
G1 X0.2250 Y185.7250 Z-2.0000 F1020.00
G1 X0.2250 Y185.6750 Z-2.0000 F1020.00
G1 X47.7750 Y185.6750 Z-2.0000 F1020.00
G1 X47.7750 Y185.7250 Z-2.0000 F1020.00
G0 Z5.0000
G0 X47.7750 Y165.8050
G0 Z3.0000
G1 X47.7750 Y165.8050 Z-0.5000 F1020.00
G1 X0.2250 Y165.8050 Z-0.5000 F1020.00
G1 X0.2250 Y165.7550 Z-0.5000 F1020.00
G1 X47.7750 Y165.7550 Z-0.5000 F1020.00
G1 X47.7750 Y165.8050 Z-0.5000 F1020.00
G1 X47.7750 Y165.8050 Z-1.0000 F1020.00
G1 X0.2250 Y165.8050 Z-1.0000 F1020.00
G1 X0.2250 Y165.7550 Z-1.0000 F1020.00
G1 X47.7750 Y165.7550 Z-1.0000 F1020.00
G1 X47.7750 Y165.8050 Z-1.0000 F1020.00
G1 X47.7750 Y165.8050 Z-1.5000 F1020.00
G1 X0.2250 Y165.8050 Z-1.5000 F1020.00
G1 X0.2250 Y165.7550 Z-1.5000 F1020.00
G1 X47.7750 Y165.7550 Z-1.5000 F1020.00
G1 X47.7750 Y165.8050 Z-1.5000 F1020.00
G1 X47.7750 Y165.8050 Z-2.0000 F1020.00
G1 X0.2250 Y165.8050 Z-2.0000 F1020.00
G1 X0.2250 Y165.7550 Z-2.0000 F1020.00
G1 X47.7750 Y165.7550 Z-2.0000 F1020.00
G1 X47.7750 Y165.8050 Z-2.0000 F1020.00
G0 Z5.0000
G0 X47.7750 Y146.0050
G0 Z3.0000
G1 X47.7750 Y146.0050 Z-0.5000 F1020.00
G1 X0.2250 Y146.0050 Z-0.5000 F1020.00
G1 X0.2250 Y145.9550 Z-0.5000 F1020.00
G1 X47.7750 Y145.9550 Z-0.5000 F1020.00
G1 X47.7750 Y146.0050 Z-0.5000 F1020.00
G1 X47.7750 Y146.0050 Z-1.0000 F1020.00
G1 X0.2250 Y146.0050 Z-1.0000 F1020.00
G1 X0.2250 Y145.9550 Z-1.0000 F1020.00
G1 X47.7750 Y145.9550 Z-1.0000 F1020.00
G1 X47.7750 Y146.0050 Z-1.0000 F1020.00
G1 X47.7750 Y146.0050 Z-1.5000 F1020.00
G1 X0.2250 Y146.0050 Z-1.5000 F1020.00
G1 X0.2250 Y145.9550 Z-1.5000 F1020.00
G1 X47.7750 Y145.9550 Z-1.5000 F1020.00
G1 X47.7750 Y146.0050 Z-1.5000 F1020.00
G1 X47.7750 Y146.0050 Z-2.0000 F1020.00
G1 X0.2250 Y146.0050 Z-2.0000 F1020.00
G1 X0.2250 Y145.9550 Z-2.0000 F1020.00
G1 X47.7750 Y145.9550 Z-2.0000 F1020.00
G1 X47.7750 Y146.0050 Z-2.0000 F1020.00
G0 Z5.0000
G0 X47.7750 Y129.2650
G0 Z3.0000
G1 X47.7750 Y129.2650 Z-0.5000 F1020.00
G1 X0.2250 Y129.2650 Z-0.5000 F1020.00
G1 X0.2250 Y129.2150 Z-0.5000 F1020.00
G1 X47.7750 Y129.2150 Z-0.5000 F1020.00
G1 X47.7750 Y129.2650 Z-0.5000 F1020.00
G1 X47.7750 Y129.2650 Z-1.0000 F1020.00
G1 X0.2250 Y129.2650 Z-1.0000 F1020.00
G1 X0.2250 Y129.2150 Z-1.0000 F1020.00
G1 X47.7750 Y129.2150 Z-1.0000 F1020.00
G1 X47.7750 Y129.2650 Z-1.0000 F1020.00
G1 X47.7750 Y129.2650 Z-1.5000 F1020.00
G1 X0.2250 Y129.2650 Z-1.5000 F1020.00
G1 X0.2250 Y129.2150 Z-1.5000 F1020.00
G1 X47.7750 Y129.2150 Z-1.5000 F1020.00
G1 X47.7750 Y129.2650 Z-1.5000 F1020.00
G1 X47.7750 Y129.2650 Z-2.0000 F1020.00
G1 X0.2250 Y129.2650 Z-2.0000 F1020.00
G1 X0.2250 Y129.2150 Z-2.0000 F1020.00
G1 X47.7750 Y129.2150 Z-2.0000 F1020.00
G1 X47.7750 Y129.2650 Z-2.0000 F1020.00
G0 Z5.0000
G0 X47.7750 Y112.5150
G0 Z3.0000
G1 X47.7750 Y112.5150 Z-0.5000 F1020.00
G1 X0.2250 Y112.5150 Z-0.5000 F1020.00
G1 X0.2250 Y112.4650 Z-0.5000 F1020.00
G1 X47.7750 Y112.4650 Z-0.5000 F1020.00
G1 X47.7750 Y112.5150 Z-0.5000 F1020.00
G1 X47.7750 Y112.5150 Z-1.0000 F1020.00
G1 X0.2250 Y112.5150 Z-1.0000 F1020.00
G1 X0.2250 Y112.4650 Z-1.0000 F1020.00
G1 X47.7750 Y112.4650 Z-1.0000 F1020.00
G1 X47.7750 Y112.5150 Z-1.0000 F1020.00
G1 X47.7750 Y112.5150 Z-1.5000 F1020.00
G1 X0.2250 Y112.5150 Z-1.5000 F1020.00
G1 X0.2250 Y112.4650 Z-1.5000 F1020.00
G1 X47.7750 Y112.4650 Z-1.5000 F1020.00
G1 X47.7750 Y112.5150 Z-1.5000 F1020.00
G1 X47.7750 Y112.5150 Z-2.0000 F1020.00
G1 X0.2250 Y112.5150 Z-2.0000 F1020.00
G1 X0.2250 Y112.4650 Z-2.0000 F1020.00
G1 X47.7750 Y112.4650 Z-2.0000 F1020.00
G1 X47.7750 Y112.5150 Z-2.0000 F1020.00
G0 Z5.0000
G0 X47.7750 Y96.0750
G0 Z3.0000
G1 X47.7750 Y96.0750 Z-0.5000 F1020.00
G1 X0.2250 Y96.0750 Z-0.5000 F1020.00
G1 X0.2250 Y96.0250 Z-0.5000 F1020.00
G1 X47.7750 Y96.0250 Z-0.5000 F1020.00
G1 X47.7750 Y96.0750 Z-0.5000 F1020.00
G1 X47.7750 Y96.0750 Z-1.0000 F1020.00
G1 X0.2250 Y96.0750 Z-1.0000 F1020.00
G1 X0.2250 Y96.0250 Z-1.0000 F1020.00
G1 X47.7750 Y96.0250 Z-1.0000 F1020.00
G1 X47.7750 Y96.0750 Z-1.0000 F1020.00
G1 X47.7750 Y96.0750 Z-1.5000 F1020.00
G1 X0.2250 Y96.0750 Z-1.5000 F1020.00
G1 X0.2250 Y96.0250 Z-1.5000 F1020.00
G1 X47.7750 Y96.0250 Z-1.5000 F1020.00
G1 X47.7750 Y96.0750 Z-1.5000 F1020.00
G1 X47.7750 Y96.0750 Z-2.0000 F1020.00
G1 X0.2250 Y96.0750 Z-2.0000 F1020.00
G1 X0.2250 Y96.0250 Z-2.0000 F1020.00
G1 X47.7750 Y96.0250 Z-2.0000 F1020.00
G1 X47.7750 Y96.0750 Z-2.0000 F1020.00
G0 Z5.0000
G0 X47.7750 Y81.7850
G0 Z3.0000
G1 X47.7750 Y81.7850 Z-0.5000 F1020.00
G1 X0.2250 Y81.7850 Z-0.5000 F1020.00
G1 X0.2250 Y81.7350 Z-0.5000 F1020.00
G1 X47.7750 Y81.7350 Z-0.5000 F1020.00
G1 X47.7750 Y81.7850 Z-0.5000 F1020.00
G1 X47.7750 Y81.7850 Z-1.0000 F1020.00
G1 X0.2250 Y81.7850 Z-1.0000 F1020.00
G1 X0.2250 Y81.7350 Z-1.0000 F1020.00
G1 X47.7750 Y81.7350 Z-1.0000 F1020.00
G1 X47.7750 Y81.7850 Z-1.0000 F1020.00
G1 X47.7750 Y81.7850 Z-1.5000 F1020.00
G1 X0.2250 Y81.7850 Z-1.5000 F1020.00
G1 X0.2250 Y81.7350 Z-1.5000 F1020.00
G1 X47.7750 Y81.7350 Z-1.5000 F1020.00
G1 X47.7750 Y81.7850 Z-1.5000 F1020.00
G1 X47.7750 Y81.7850 Z-2.0000 F1020.00
G1 X0.2250 Y81.7850 Z-2.0000 F1020.00
G1 X0.2250 Y81.7350 Z-2.0000 F1020.00
G1 X47.7750 Y81.7350 Z-2.0000 F1020.00
G1 X47.7750 Y81.7850 Z-2.0000 F1020.00
G0 Z5.0000
G0 X47.7750 Y66.6950
G0 Z3.0000
G1 X47.7750 Y66.6950 Z-0.5000 F1020.00
G1 X0.2250 Y66.6950 Z-0.5000 F1020.00
G1 X0.2250 Y66.6450 Z-0.5000 F1020.00
G1 X47.7750 Y66.6450 Z-0.5000 F1020.00
G1 X47.7750 Y66.6950 Z-0.5000 F1020.00
G1 X47.7750 Y66.6950 Z-1.0000 F1020.00
G1 X0.2250 Y66.6950 Z-1.0000 F1020.00
G1 X0.2250 Y66.6450 Z-1.0000 F1020.00
G1 X47.7750 Y66.6450 Z-1.0000 F1020.00
G1 X47.7750 Y66.6950 Z-1.0000 F1020.00
G1 X47.7750 Y66.6950 Z-1.5000 F1020.00
G1 X0.2250 Y66.6950 Z-1.5000 F1020.00
G1 X0.2250 Y66.6450 Z-1.5000 F1020.00
G1 X47.7750 Y66.6450 Z-1.5000 F1020.00
G1 X47.7750 Y66.6950 Z-1.5000 F1020.00
G1 X47.7750 Y66.6950 Z-2.0000 F1020.00
G1 X0.2250 Y66.6950 Z-2.0000 F1020.00
G1 X0.2250 Y66.6450 Z-2.0000 F1020.00
G1 X47.7750 Y66.6450 Z-2.0000 F1020.00
G1 X47.7750 Y66.6950 Z-2.0000 F1020.00
G0 Z5.0000
G0 X47.7750 Y53.4050
G0 Z3.0000
G1 X47.7750 Y53.4050 Z-0.5000 F1020.00
G1 X0.2250 Y53.4050 Z-0.5000 F1020.00
G1 X0.2250 Y53.3550 Z-0.5000 F1020.00
G1 X47.7750 Y53.3550 Z-0.5000 F1020.00
G1 X47.7750 Y53.4050 Z-0.5000 F1020.00
G1 X47.7750 Y53.4050 Z-1.0000 F1020.00
G1 X0.2250 Y53.4050 Z-1.0000 F1020.00
G1 X0.2250 Y53.3550 Z-1.0000 F1020.00
G1 X47.7750 Y53.3550 Z-1.0000 F1020.00
G1 X47.7750 Y53.4050 Z-1.0000 F1020.00
G1 X47.7750 Y53.4050 Z-1.5000 F1020.00
G1 X0.2250 Y53.4050 Z-1.5000 F1020.00
G1 X0.2250 Y53.3550 Z-1.5000 F1020.00
G1 X47.7750 Y53.3550 Z-1.5000 F1020.00
G1 X47.7750 Y53.4050 Z-1.5000 F1020.00
G1 X47.7750 Y53.4050 Z-2.0000 F1020.00
G1 X0.2250 Y53.4050 Z-2.0000 F1020.00
G1 X0.2250 Y53.3550 Z-2.0000 F1020.00
G1 X47.7750 Y53.3550 Z-2.0000 F1020.00
G1 X47.7750 Y53.4050 Z-2.0000 F1020.00
G0 Z5.0000
G0 X47.7750 Y40.8550
G0 Z3.0000
G1 X47.7750 Y40.8550 Z-0.5000 F1020.00
G1 X0.2250 Y40.8550 Z-0.5000 F1020.00
G1 X0.2250 Y40.8050 Z-0.5000 F1020.00
G1 X47.7750 Y40.8050 Z-0.5000 F1020.00
G1 X47.7750 Y40.8550 Z-0.5000 F1020.00
G1 X47.7750 Y40.8550 Z-1.0000 F1020.00
G1 X0.2250 Y40.8550 Z-1.0000 F1020.00
G1 X0.2250 Y40.8050 Z-1.0000 F1020.00
G1 X47.7750 Y40.8050 Z-1.0000 F1020.00
G1 X47.7750 Y40.8550 Z-1.0000 F1020.00
G1 X47.7750 Y40.8550 Z-1.5000 F1020.00
G1 X0.2250 Y40.8550 Z-1.5000 F1020.00
G1 X0.2250 Y40.8050 Z-1.5000 F1020.00
G1 X47.7750 Y40.8050 Z-1.5000 F1020.00
G1 X47.7750 Y40.8550 Z-1.5000 F1020.00
G1 X47.7750 Y40.8550 Z-2.0000 F1020.00
G1 X0.2250 Y40.8550 Z-2.0000 F1020.00
G1 X0.2250 Y40.8050 Z-2.0000 F1020.00
G1 X47.7750 Y40.8050 Z-2.0000 F1020.00
G1 X47.7750 Y40.8550 Z-2.0000 F1020.00
G0 Z5.0000
G0 X47.7750 Y30.0150
G0 Z3.0000
G1 X47.7750 Y30.0150 Z-0.5000 F1020.00
G1 X0.2250 Y30.0150 Z-0.5000 F1020.00
G1 X0.2250 Y29.9650 Z-0.5000 F1020.00
G1 X47.7750 Y29.9650 Z-0.5000 F1020.00
G1 X47.7750 Y30.0150 Z-0.5000 F1020.00
G1 X47.7750 Y30.0150 Z-1.0000 F1020.00
G1 X0.2250 Y30.0150 Z-1.0000 F1020.00
G1 X0.2250 Y29.9650 Z-1.0000 F1020.00
G1 X47.7750 Y29.9650 Z-1.0000 F1020.00
G1 X47.7750 Y30.0150 Z-1.0000 F1020.00
G1 X47.7750 Y30.0150 Z-1.5000 F1020.00
G1 X0.2250 Y30.0150 Z-1.5000 F1020.00
G1 X0.2250 Y29.9650 Z-1.5000 F1020.00
G1 X47.7750 Y29.9650 Z-1.5000 F1020.00
G1 X47.7750 Y30.0150 Z-1.5000 F1020.00
G1 X47.7750 Y30.0150 Z-2.0000 F1020.00
G1 X0.2250 Y30.0150 Z-2.0000 F1020.00
G1 X0.2250 Y29.9650 Z-2.0000 F1020.00
G1 X47.7750 Y29.9650 Z-2.0000 F1020.00
G1 X47.7750 Y30.0150 Z-2.0000 F1020.00
G0 Z5.0000
G0 X47.7750 Y17.8350
G0 Z3.0000
G1 X47.7750 Y17.8350 Z-0.5000 F1020.00
G1 X0.2250 Y17.8350 Z-0.5000 F1020.00
G1 X0.2250 Y17.7850 Z-0.5000 F1020.00
G1 X47.7750 Y17.7850 Z-0.5000 F1020.00
G1 X47.7750 Y17.8350 Z-0.5000 F1020.00
G1 X47.7750 Y17.8350 Z-1.0000 F1020.00
G1 X0.2250 Y17.8350 Z-1.0000 F1020.00
G1 X0.2250 Y17.7850 Z-1.0000 F1020.00
G1 X47.7750 Y17.7850 Z-1.0000 F1020.00
G1 X47.7750 Y17.8350 Z-1.0000 F1020.00
G1 X47.7750 Y17.8350 Z-1.5000 F1020.00
G1 X0.2250 Y17.8350 Z-1.5000 F1020.00
G1 X0.2250 Y17.7850 Z-1.5000 F1020.00
G1 X47.7750 Y17.7850 Z-1.5000 F1020.00
G1 X47.7750 Y17.8350 Z-1.5000 F1020.00
G1 X47.7750 Y17.8350 Z-2.0000 F1020.00
G1 X0.2250 Y17.8350 Z-2.0000 F1020.00
G1 X0.2250 Y17.7850 Z-2.0000 F1020.00
G1 X47.7750 Y17.7850 Z-2.0000 F1020.00
G1 X47.7750 Y17.8350 Z-2.0000 F1020.00
G0 Z5.0000
(finish operation: FRET_SLOTS)
(begin postamble)
M5
G17 G90
; M2
