(Exported by FreeCAD)
(Post Processor: grbl_post)
(Output Time:2022-02-21 02:01:18.641303)
(begin preamble)
G17 G90
G21
(begin operation: T4: BALLMill001)
(Path: T4: BALLMill001)
(T4: BALLMill001)
(begin toolchange)
; M6 T4
M3 S0.0000
(finish operation: T4: BALLMill001)
(begin operation: Contour001)
(Path: Contour001)
(Contour001)
(Compensated Tool Path. Diameter: 0.5)
G0 Z5.0000
G0 X12.5303 Y76.5303
G0 Z3.0000
G1 X12.5303 Y76.5303 Z-0.5000 F1020.00
G2 X12.7500 Y76.0000 Z-0.5000 I-0.5303 J-0.5303 F1020.00
G1 X12.7500 Y63.0000 Z-0.5000 F1020.00
G2 X12.0000 Y62.2500 Z-0.5000 I-0.7500 J0.0000 F1020.00
G1 X7.7500 Y62.2500 Z-0.5000 F1020.00
G1 X7.7500 Y46.2500 Z-0.5000 F1020.00
G1 X12.0000 Y46.2500 Z-0.5000 F1020.00
G2 X12.7500 Y45.5000 Z-0.5000 I-0.0000 J-0.7500 F1020.00
G1 X12.7500 Y30.5000 Z-0.5000 F1020.00
G2 X12.0000 Y29.7500 Z-0.5000 I-0.7500 J0.0000 F1020.00
G1 X7.7500 Y29.7500 Z-0.5000 F1020.00
G1 X7.7500 Y13.7500 Z-0.5000 F1020.00
G1 X12.0000 Y13.7500 Z-0.5000 F1020.00
G2 X12.7500 Y13.0000 Z-0.5000 I-0.0000 J-0.7500 F1020.00
G1 X12.7500 Y0.0000 Z-0.5000 F1020.00
G2 X12.0000 Y-0.7500 Z-0.5000 I-0.7500 J0.0000 F1020.00
G1 X6.0000 Y-0.7500 Z-0.5000 F1020.00
G2 X5.4489 Y-0.5087 Z-0.5000 I-0.0000 J0.7500 F1020.00
G1 X-0.5511 Y5.9913 Z-0.5000 F1020.00
G2 X-0.7500 Y6.5000 Z-0.5000 I0.5511 J0.5087 F1020.00
G1 X-0.7500 Y13.0000 Z-0.5000 F1020.00
G2 X0.0000 Y13.7500 Z-0.5000 I0.7500 J-0.0000 F1020.00
G1 X1.2500 Y13.7500 Z-0.5000 F1020.00
G1 X1.2500 Y13.8500 Z-0.5000 F1020.00
G1 X0.0000 Y13.8500 Z-0.5000 F1020.00
G2 X-0.7500 Y14.6000 Z-0.5000 I0.0000 J0.7500 F1020.00
G1 X-0.7500 Y25.1000 Z-0.5000 F1020.00
G2 X0.0000 Y25.8500 Z-0.5000 I0.7500 J-0.0000 F1020.00
G1 X1.2500 Y25.8500 Z-0.5000 F1020.00
G1 X1.2500 Y25.9500 Z-0.5000 F1020.00
G1 X0.0000 Y25.9500 Z-0.5000 F1020.00
G2 X-0.7500 Y26.7000 Z-0.5000 I0.0000 J0.7500 F1020.00
G1 X-0.7500 Y37.2000 Z-0.5000 F1020.00
G2 X0.0000 Y37.9500 Z-0.5000 I0.7500 J-0.0000 F1020.00
G1 X1.2500 Y37.9500 Z-0.5000 F1020.00
G1 X1.2500 Y38.0500 Z-0.5000 F1020.00
G1 X0.0000 Y38.0500 Z-0.5000 F1020.00
G2 X-0.7500 Y38.8000 Z-0.5000 I0.0000 J0.7500 F1020.00
G1 X-0.7500 Y49.3000 Z-0.5000 F1020.00
G2 X0.0000 Y50.0500 Z-0.5000 I0.7500 J-0.0000 F1020.00
G1 X1.2500 Y50.0500 Z-0.5000 F1020.00
G1 X1.2500 Y50.1500 Z-0.5000 F1020.00
G1 X0.0000 Y50.1500 Z-0.5000 F1020.00
G2 X-0.7500 Y50.9000 Z-0.5000 I0.0000 J0.7500 F1020.00
G1 X-0.7500 Y61.4000 Z-0.5000 F1020.00
G2 X0.0000 Y62.1500 Z-0.5000 I0.7500 J-0.0000 F1020.00
G1 X1.2500 Y62.1500 Z-0.5000 F1020.00
G1 X1.2500 Y62.2500 Z-0.5000 F1020.00
G1 X0.0000 Y62.2500 Z-0.5000 F1020.00
G2 X-0.7500 Y63.0000 Z-0.5000 I0.0000 J0.7500 F1020.00
G1 X-0.7500 Y69.5000 Z-0.5000 F1020.00
G2 X-0.5511 Y70.0087 Z-0.5000 I0.7500 J0.0000 F1020.00
G1 X5.4489 Y76.5087 Z-0.5000 F1020.00
G2 X6.0000 Y76.7500 Z-0.5000 I0.5511 J-0.5087 F1020.00
G1 X12.0000 Y76.7500 Z-0.5000 F1020.00
G2 X12.5303 Y76.5303 Z-0.5000 I-0.0000 J-0.7500 F1020.00
G1 X12.5303 Y76.5303 Z-1.0000 F1020.00
G2 X12.7500 Y76.0000 Z-1.0000 I-0.5303 J-0.5303 F1020.00
G1 X12.7500 Y63.0000 Z-1.0000 F1020.00
G2 X12.0000 Y62.2500 Z-1.0000 I-0.7500 J0.0000 F1020.00
G1 X7.7500 Y62.2500 Z-1.0000 F1020.00
G1 X7.7500 Y46.2500 Z-1.0000 F1020.00
G1 X12.0000 Y46.2500 Z-1.0000 F1020.00
G2 X12.7500 Y45.5000 Z-1.0000 I-0.0000 J-0.7500 F1020.00
G1 X12.7500 Y30.5000 Z-1.0000 F1020.00
G2 X12.0000 Y29.7500 Z-1.0000 I-0.7500 J0.0000 F1020.00
G1 X7.7500 Y29.7500 Z-1.0000 F1020.00
G1 X7.7500 Y13.7500 Z-1.0000 F1020.00
G1 X12.0000 Y13.7500 Z-1.0000 F1020.00
G2 X12.7500 Y13.0000 Z-1.0000 I-0.0000 J-0.7500 F1020.00
G1 X12.7500 Y0.0000 Z-1.0000 F1020.00
G2 X12.0000 Y-0.7500 Z-1.0000 I-0.7500 J0.0000 F1020.00
G1 X6.0000 Y-0.7500 Z-1.0000 F1020.00
G2 X5.4489 Y-0.5087 Z-1.0000 I-0.0000 J0.7500 F1020.00
G1 X-0.5511 Y5.9913 Z-1.0000 F1020.00
G2 X-0.7500 Y6.5000 Z-1.0000 I0.5511 J0.5087 F1020.00
G1 X-0.7500 Y13.0000 Z-1.0000 F1020.00
G2 X0.0000 Y13.7500 Z-1.0000 I0.7500 J-0.0000 F1020.00
G1 X1.2500 Y13.7500 Z-1.0000 F1020.00
G1 X1.2500 Y13.8500 Z-1.0000 F1020.00
G1 X0.0000 Y13.8500 Z-1.0000 F1020.00
G2 X-0.7500 Y14.6000 Z-1.0000 I0.0000 J0.7500 F1020.00
G1 X-0.7500 Y25.1000 Z-1.0000 F1020.00
G2 X0.0000 Y25.8500 Z-1.0000 I0.7500 J-0.0000 F1020.00
G1 X1.2500 Y25.8500 Z-1.0000 F1020.00
G1 X1.2500 Y25.9500 Z-1.0000 F1020.00
G1 X0.0000 Y25.9500 Z-1.0000 F1020.00
G2 X-0.7500 Y26.7000 Z-1.0000 I0.0000 J0.7500 F1020.00
G1 X-0.7500 Y37.2000 Z-1.0000 F1020.00
G2 X0.0000 Y37.9500 Z-1.0000 I0.7500 J-0.0000 F1020.00
G1 X1.2500 Y37.9500 Z-1.0000 F1020.00
G1 X1.2500 Y38.0500 Z-1.0000 F1020.00
G1 X0.0000 Y38.0500 Z-1.0000 F1020.00
G2 X-0.7500 Y38.8000 Z-1.0000 I0.0000 J0.7500 F1020.00
G1 X-0.7500 Y49.3000 Z-1.0000 F1020.00
G2 X0.0000 Y50.0500 Z-1.0000 I0.7500 J-0.0000 F1020.00
G1 X1.2500 Y50.0500 Z-1.0000 F1020.00
G1 X1.2500 Y50.1500 Z-1.0000 F1020.00
G1 X0.0000 Y50.1500 Z-1.0000 F1020.00
G2 X-0.7500 Y50.9000 Z-1.0000 I0.0000 J0.7500 F1020.00
G1 X-0.7500 Y61.4000 Z-1.0000 F1020.00
G2 X0.0000 Y62.1500 Z-1.0000 I0.7500 J-0.0000 F1020.00
G1 X1.2500 Y62.1500 Z-1.0000 F1020.00
G1 X1.2500 Y62.2500 Z-1.0000 F1020.00
G1 X0.0000 Y62.2500 Z-1.0000 F1020.00
G2 X-0.7500 Y63.0000 Z-1.0000 I0.0000 J0.7500 F1020.00
G1 X-0.7500 Y69.5000 Z-1.0000 F1020.00
G2 X-0.5511 Y70.0087 Z-1.0000 I0.7500 J0.0000 F1020.00
G1 X5.4489 Y76.5087 Z-1.0000 F1020.00
G2 X6.0000 Y76.7500 Z-1.0000 I0.5511 J-0.5087 F1020.00
G1 X12.0000 Y76.7500 Z-1.0000 F1020.00
G2 X12.5303 Y76.5303 Z-1.0000 I-0.0000 J-0.7500 F1020.00
G1 X12.5303 Y76.5303 Z-1.5000 F1020.00
G2 X12.7500 Y76.0000 Z-1.5000 I-0.5303 J-0.5303 F1020.00
G1 X12.7500 Y63.0000 Z-1.5000 F1020.00
G2 X12.0000 Y62.2500 Z-1.5000 I-0.7500 J0.0000 F1020.00
G1 X7.7500 Y62.2500 Z-1.5000 F1020.00
G1 X7.7500 Y46.2500 Z-1.5000 F1020.00
G1 X12.0000 Y46.2500 Z-1.5000 F1020.00
G2 X12.7500 Y45.5000 Z-1.5000 I-0.0000 J-0.7500 F1020.00
G1 X12.7500 Y30.5000 Z-1.5000 F1020.00
G2 X12.0000 Y29.7500 Z-1.5000 I-0.7500 J0.0000 F1020.00
G1 X7.7500 Y29.7500 Z-1.5000 F1020.00
G1 X7.7500 Y13.7500 Z-1.5000 F1020.00
G1 X12.0000 Y13.7500 Z-1.5000 F1020.00
G2 X12.7500 Y13.0000 Z-1.5000 I-0.0000 J-0.7500 F1020.00
G1 X12.7500 Y0.0000 Z-1.5000 F1020.00
G2 X12.0000 Y-0.7500 Z-1.5000 I-0.7500 J0.0000 F1020.00
G1 X6.0000 Y-0.7500 Z-1.5000 F1020.00
G2 X5.4489 Y-0.5087 Z-1.5000 I-0.0000 J0.7500 F1020.00
G1 X-0.5511 Y5.9913 Z-1.5000 F1020.00
G2 X-0.7500 Y6.5000 Z-1.5000 I0.5511 J0.5087 F1020.00
G1 X-0.7500 Y13.0000 Z-1.5000 F1020.00
G2 X0.0000 Y13.7500 Z-1.5000 I0.7500 J-0.0000 F1020.00
G1 X1.2500 Y13.7500 Z-1.5000 F1020.00
G1 X1.2500 Y13.8500 Z-1.5000 F1020.00
G1 X0.0000 Y13.8500 Z-1.5000 F1020.00
G2 X-0.7500 Y14.6000 Z-1.5000 I0.0000 J0.7500 F1020.00
G1 X-0.7500 Y25.1000 Z-1.5000 F1020.00
G2 X0.0000 Y25.8500 Z-1.5000 I0.7500 J-0.0000 F1020.00
G1 X1.2500 Y25.8500 Z-1.5000 F1020.00
G1 X1.2500 Y25.9500 Z-1.5000 F1020.00
G1 X0.0000 Y25.9500 Z-1.5000 F1020.00
G2 X-0.7500 Y26.7000 Z-1.5000 I0.0000 J0.7500 F1020.00
G1 X-0.7500 Y37.2000 Z-1.5000 F1020.00
G2 X0.0000 Y37.9500 Z-1.5000 I0.7500 J-0.0000 F1020.00
G1 X1.2500 Y37.9500 Z-1.5000 F1020.00
G1 X1.2500 Y38.0500 Z-1.5000 F1020.00
G1 X0.0000 Y38.0500 Z-1.5000 F1020.00
G2 X-0.7500 Y38.8000 Z-1.5000 I0.0000 J0.7500 F1020.00
G1 X-0.7500 Y49.3000 Z-1.5000 F1020.00
G2 X0.0000 Y50.0500 Z-1.5000 I0.7500 J-0.0000 F1020.00
G1 X1.2500 Y50.0500 Z-1.5000 F1020.00
G1 X1.2500 Y50.1500 Z-1.5000 F1020.00
G1 X0.0000 Y50.1500 Z-1.5000 F1020.00
G2 X-0.7500 Y50.9000 Z-1.5000 I0.0000 J0.7500 F1020.00
G1 X-0.7500 Y61.4000 Z-1.5000 F1020.00
G2 X0.0000 Y62.1500 Z-1.5000 I0.7500 J-0.0000 F1020.00
G1 X1.2500 Y62.1500 Z-1.5000 F1020.00
G1 X1.2500 Y62.2500 Z-1.5000 F1020.00
G1 X0.0000 Y62.2500 Z-1.5000 F1020.00
G2 X-0.7500 Y63.0000 Z-1.5000 I0.0000 J0.7500 F1020.00
G1 X-0.7500 Y69.5000 Z-1.5000 F1020.00
G2 X-0.5511 Y70.0087 Z-1.5000 I0.7500 J0.0000 F1020.00
G1 X5.4489 Y76.5087 Z-1.5000 F1020.00
G2 X6.0000 Y76.7500 Z-1.5000 I0.5511 J-0.5087 F1020.00
G1 X12.0000 Y76.7500 Z-1.5000 F1020.00
G2 X12.5303 Y76.5303 Z-1.5000 I-0.0000 J-0.7500 F1020.00
G1 X12.5303 Y76.5303 Z-2.0000 F1020.00
G2 X12.7500 Y76.0000 Z-2.0000 I-0.5303 J-0.5303 F1020.00
G1 X12.7500 Y63.0000 Z-2.0000 F1020.00
G2 X12.0000 Y62.2500 Z-2.0000 I-0.7500 J0.0000 F1020.00
G1 X7.7500 Y62.2500 Z-2.0000 F1020.00
G1 X7.7500 Y46.2500 Z-2.0000 F1020.00
G1 X12.0000 Y46.2500 Z-2.0000 F1020.00
G2 X12.7500 Y45.5000 Z-2.0000 I-0.0000 J-0.7500 F1020.00
G1 X12.7500 Y30.5000 Z-2.0000 F1020.00
G2 X12.0000 Y29.7500 Z-2.0000 I-0.7500 J0.0000 F1020.00
G1 X7.7500 Y29.7500 Z-2.0000 F1020.00
G1 X7.7500 Y13.7500 Z-2.0000 F1020.00
G1 X12.0000 Y13.7500 Z-2.0000 F1020.00
G2 X12.7500 Y13.0000 Z-2.0000 I-0.0000 J-0.7500 F1020.00
G1 X12.7500 Y0.0000 Z-2.0000 F1020.00
G2 X12.0000 Y-0.7500 Z-2.0000 I-0.7500 J0.0000 F1020.00
G1 X6.0000 Y-0.7500 Z-2.0000 F1020.00
G2 X5.4489 Y-0.5087 Z-2.0000 I-0.0000 J0.7500 F1020.00
G1 X-0.5511 Y5.9913 Z-2.0000 F1020.00
G2 X-0.7500 Y6.5000 Z-2.0000 I0.5511 J0.5087 F1020.00
G1 X-0.7500 Y13.0000 Z-2.0000 F1020.00
G2 X0.0000 Y13.7500 Z-2.0000 I0.7500 J-0.0000 F1020.00
G1 X1.2500 Y13.7500 Z-2.0000 F1020.00
G1 X1.2500 Y13.8500 Z-2.0000 F1020.00
G1 X0.0000 Y13.8500 Z-2.0000 F1020.00
G2 X-0.7500 Y14.6000 Z-2.0000 I0.0000 J0.7500 F1020.00
G1 X-0.7500 Y25.1000 Z-2.0000 F1020.00
G2 X0.0000 Y25.8500 Z-2.0000 I0.7500 J-0.0000 F1020.00
G1 X1.2500 Y25.8500 Z-2.0000 F1020.00
G1 X1.2500 Y25.9500 Z-2.0000 F1020.00
G1 X0.0000 Y25.9500 Z-2.0000 F1020.00
G2 X-0.7500 Y26.7000 Z-2.0000 I0.0000 J0.7500 F1020.00
G1 X-0.7500 Y37.2000 Z-2.0000 F1020.00
G2 X0.0000 Y37.9500 Z-2.0000 I0.7500 J-0.0000 F1020.00
G1 X1.2500 Y37.9500 Z-2.0000 F1020.00
G1 X1.2500 Y38.0500 Z-2.0000 F1020.00
G1 X0.0000 Y38.0500 Z-2.0000 F1020.00
G2 X-0.7500 Y38.8000 Z-2.0000 I0.0000 J0.7500 F1020.00
G1 X-0.7500 Y49.3000 Z-2.0000 F1020.00
G2 X0.0000 Y50.0500 Z-2.0000 I0.7500 J-0.0000 F1020.00
G1 X1.2500 Y50.0500 Z-2.0000 F1020.00
G1 X1.2500 Y50.1500 Z-2.0000 F1020.00
G1 X0.0000 Y50.1500 Z-2.0000 F1020.00
G2 X-0.7500 Y50.9000 Z-2.0000 I0.0000 J0.7500 F1020.00
G1 X-0.7500 Y61.4000 Z-2.0000 F1020.00
G2 X0.0000 Y62.1500 Z-2.0000 I0.7500 J-0.0000 F1020.00
G1 X1.2500 Y62.1500 Z-2.0000 F1020.00
G1 X1.2500 Y62.2500 Z-2.0000 F1020.00
G1 X0.0000 Y62.2500 Z-2.0000 F1020.00
G2 X-0.7500 Y63.0000 Z-2.0000 I0.0000 J0.7500 F1020.00
G1 X-0.7500 Y69.5000 Z-2.0000 F1020.00
G2 X-0.5511 Y70.0087 Z-2.0000 I0.7500 J0.0000 F1020.00
G1 X5.4489 Y76.5087 Z-2.0000 F1020.00
G2 X6.0000 Y76.7500 Z-2.0000 I0.5511 J-0.5087 F1020.00
G1 X12.0000 Y76.7500 Z-2.0000 F1020.00
G2 X12.5303 Y76.5303 Z-2.0000 I-0.0000 J-0.7500 F1020.00
G1 X12.5303 Y76.5303 Z-2.5000 F1020.00
G2 X12.7500 Y76.0000 Z-2.5000 I-0.5303 J-0.5303 F1020.00
G1 X12.7500 Y63.0000 Z-2.5000 F1020.00
G2 X12.0000 Y62.2500 Z-2.5000 I-0.7500 J0.0000 F1020.00
G1 X7.7500 Y62.2500 Z-2.5000 F1020.00
G1 X7.7500 Y46.2500 Z-2.5000 F1020.00
G1 X12.0000 Y46.2500 Z-2.5000 F1020.00
G2 X12.7500 Y45.5000 Z-2.5000 I-0.0000 J-0.7500 F1020.00
G1 X12.7500 Y30.5000 Z-2.5000 F1020.00
G2 X12.0000 Y29.7500 Z-2.5000 I-0.7500 J0.0000 F1020.00
G1 X7.7500 Y29.7500 Z-2.5000 F1020.00
G1 X7.7500 Y13.7500 Z-2.5000 F1020.00
G1 X12.0000 Y13.7500 Z-2.5000 F1020.00
G2 X12.7500 Y13.0000 Z-2.5000 I-0.0000 J-0.7500 F1020.00
G1 X12.7500 Y0.0000 Z-2.5000 F1020.00
G2 X12.0000 Y-0.7500 Z-2.5000 I-0.7500 J0.0000 F1020.00
G1 X6.0000 Y-0.7500 Z-2.5000 F1020.00
G2 X5.4489 Y-0.5087 Z-2.5000 I-0.0000 J0.7500 F1020.00
G1 X-0.5511 Y5.9913 Z-2.5000 F1020.00
G2 X-0.7500 Y6.5000 Z-2.5000 I0.5511 J0.5087 F1020.00
G1 X-0.7500 Y13.0000 Z-2.5000 F1020.00
G2 X0.0000 Y13.7500 Z-2.5000 I0.7500 J-0.0000 F1020.00
G1 X1.2500 Y13.7500 Z-2.5000 F1020.00
G1 X1.2500 Y13.8500 Z-2.5000 F1020.00
G1 X0.0000 Y13.8500 Z-2.5000 F1020.00
G2 X-0.7500 Y14.6000 Z-2.5000 I0.0000 J0.7500 F1020.00
G1 X-0.7500 Y25.1000 Z-2.5000 F1020.00
G2 X0.0000 Y25.8500 Z-2.5000 I0.7500 J-0.0000 F1020.00
G1 X1.2500 Y25.8500 Z-2.5000 F1020.00
G1 X1.2500 Y25.9500 Z-2.5000 F1020.00
G1 X0.0000 Y25.9500 Z-2.5000 F1020.00
G2 X-0.7500 Y26.7000 Z-2.5000 I0.0000 J0.7500 F1020.00
G1 X-0.7500 Y37.2000 Z-2.5000 F1020.00
G2 X0.0000 Y37.9500 Z-2.5000 I0.7500 J-0.0000 F1020.00
G1 X1.2500 Y37.9500 Z-2.5000 F1020.00
G1 X1.2500 Y38.0500 Z-2.5000 F1020.00
G1 X0.0000 Y38.0500 Z-2.5000 F1020.00
G2 X-0.7500 Y38.8000 Z-2.5000 I0.0000 J0.7500 F1020.00
G1 X-0.7500 Y49.3000 Z-2.5000 F1020.00
G2 X0.0000 Y50.0500 Z-2.5000 I0.7500 J-0.0000 F1020.00
G1 X1.2500 Y50.0500 Z-2.5000 F1020.00
G1 X1.2500 Y50.1500 Z-2.5000 F1020.00
G1 X0.0000 Y50.1500 Z-2.5000 F1020.00
G2 X-0.7500 Y50.9000 Z-2.5000 I0.0000 J0.7500 F1020.00
G1 X-0.7500 Y61.4000 Z-2.5000 F1020.00
G2 X0.0000 Y62.1500 Z-2.5000 I0.7500 J-0.0000 F1020.00
G1 X1.2500 Y62.1500 Z-2.5000 F1020.00
G1 X1.2500 Y62.2500 Z-2.5000 F1020.00
G1 X0.0000 Y62.2500 Z-2.5000 F1020.00
G2 X-0.7500 Y63.0000 Z-2.5000 I0.0000 J0.7500 F1020.00
G1 X-0.7500 Y69.5000 Z-2.5000 F1020.00
G2 X-0.5511 Y70.0087 Z-2.5000 I0.7500 J0.0000 F1020.00
G1 X5.4489 Y76.5087 Z-2.5000 F1020.00
G2 X6.0000 Y76.7500 Z-2.5000 I0.5511 J-0.5087 F1020.00
G1 X12.0000 Y76.7500 Z-2.5000 F1020.00
G2 X12.5303 Y76.5303 Z-2.5000 I-0.0000 J-0.7500 F1020.00
G1 X12.5303 Y76.5303 Z-3.0000 F1020.00
G2 X12.7500 Y76.0000 Z-3.0000 I-0.5303 J-0.5303 F1020.00
G1 X12.7500 Y63.0000 Z-3.0000 F1020.00
G2 X12.0000 Y62.2500 Z-3.0000 I-0.7500 J0.0000 F1020.00
G1 X7.7500 Y62.2500 Z-3.0000 F1020.00
G1 X7.7500 Y46.2500 Z-3.0000 F1020.00
G1 X12.0000 Y46.2500 Z-3.0000 F1020.00
G2 X12.7500 Y45.5000 Z-3.0000 I-0.0000 J-0.7500 F1020.00
G1 X12.7500 Y30.5000 Z-3.0000 F1020.00
G2 X12.0000 Y29.7500 Z-3.0000 I-0.7500 J0.0000 F1020.00
G1 X7.7500 Y29.7500 Z-3.0000 F1020.00
G1 X7.7500 Y13.7500 Z-3.0000 F1020.00
G1 X12.0000 Y13.7500 Z-3.0000 F1020.00
G2 X12.7500 Y13.0000 Z-3.0000 I-0.0000 J-0.7500 F1020.00
G1 X12.7500 Y0.0000 Z-3.0000 F1020.00
G2 X12.0000 Y-0.7500 Z-3.0000 I-0.7500 J0.0000 F1020.00
G1 X6.0000 Y-0.7500 Z-3.0000 F1020.00
G2 X5.4489 Y-0.5087 Z-3.0000 I-0.0000 J0.7500 F1020.00
G1 X-0.5511 Y5.9913 Z-3.0000 F1020.00
G2 X-0.7500 Y6.5000 Z-3.0000 I0.5511 J0.5087 F1020.00
G1 X-0.7500 Y13.0000 Z-3.0000 F1020.00
G2 X0.0000 Y13.7500 Z-3.0000 I0.7500 J-0.0000 F1020.00
G1 X1.2500 Y13.7500 Z-3.0000 F1020.00
G1 X1.2500 Y13.8500 Z-3.0000 F1020.00
G1 X0.0000 Y13.8500 Z-3.0000 F1020.00
G2 X-0.7500 Y14.6000 Z-3.0000 I0.0000 J0.7500 F1020.00
G1 X-0.7500 Y25.1000 Z-3.0000 F1020.00
G2 X0.0000 Y25.8500 Z-3.0000 I0.7500 J-0.0000 F1020.00
G1 X1.2500 Y25.8500 Z-3.0000 F1020.00
G1 X1.2500 Y25.9500 Z-3.0000 F1020.00
G1 X0.0000 Y25.9500 Z-3.0000 F1020.00
G2 X-0.7500 Y26.7000 Z-3.0000 I0.0000 J0.7500 F1020.00
G1 X-0.7500 Y37.2000 Z-3.0000 F1020.00
G2 X0.0000 Y37.9500 Z-3.0000 I0.7500 J-0.0000 F1020.00
G1 X1.2500 Y37.9500 Z-3.0000 F1020.00
G1 X1.2500 Y38.0500 Z-3.0000 F1020.00
G1 X0.0000 Y38.0500 Z-3.0000 F1020.00
G2 X-0.7500 Y38.8000 Z-3.0000 I0.0000 J0.7500 F1020.00
G1 X-0.7500 Y49.3000 Z-3.0000 F1020.00
G2 X0.0000 Y50.0500 Z-3.0000 I0.7500 J-0.0000 F1020.00
G1 X1.2500 Y50.0500 Z-3.0000 F1020.00
G1 X1.2500 Y50.1500 Z-3.0000 F1020.00
G1 X0.0000 Y50.1500 Z-3.0000 F1020.00
G2 X-0.7500 Y50.9000 Z-3.0000 I0.0000 J0.7500 F1020.00
G1 X-0.7500 Y61.4000 Z-3.0000 F1020.00
G2 X0.0000 Y62.1500 Z-3.0000 I0.7500 J-0.0000 F1020.00
G1 X1.2500 Y62.1500 Z-3.0000 F1020.00
G1 X1.2500 Y62.2500 Z-3.0000 F1020.00
G1 X0.0000 Y62.2500 Z-3.0000 F1020.00
G2 X-0.7500 Y63.0000 Z-3.0000 I0.0000 J0.7500 F1020.00
G1 X-0.7500 Y69.5000 Z-3.0000 F1020.00
G2 X-0.5511 Y70.0087 Z-3.0000 I0.7500 J0.0000 F1020.00
G1 X5.4489 Y76.5087 Z-3.0000 F1020.00
G2 X6.0000 Y76.7500 Z-3.0000 I0.5511 J-0.5087 F1020.00
G1 X12.0000 Y76.7500 Z-3.0000 F1020.00
G2 X12.5303 Y76.5303 Z-3.0000 I-0.0000 J-0.7500 F1020.00
G1 X12.5303 Y76.5303 Z-3.5000 F1020.00
G2 X12.7500 Y76.0000 Z-3.5000 I-0.5303 J-0.5303 F1020.00
G1 X12.7500 Y63.0000 Z-3.5000 F1020.00
G2 X12.0000 Y62.2500 Z-3.5000 I-0.7500 J0.0000 F1020.00
G1 X7.7500 Y62.2500 Z-3.5000 F1020.00
G1 X7.7500 Y46.2500 Z-3.5000 F1020.00
G1 X12.0000 Y46.2500 Z-3.5000 F1020.00
G2 X12.7500 Y45.5000 Z-3.5000 I-0.0000 J-0.7500 F1020.00
G1 X12.7500 Y30.5000 Z-3.5000 F1020.00
G2 X12.0000 Y29.7500 Z-3.5000 I-0.7500 J0.0000 F1020.00
G1 X7.7500 Y29.7500 Z-3.5000 F1020.00
G1 X7.7500 Y13.7500 Z-3.5000 F1020.00
G1 X12.0000 Y13.7500 Z-3.5000 F1020.00
G2 X12.7500 Y13.0000 Z-3.5000 I-0.0000 J-0.7500 F1020.00
G1 X12.7500 Y0.0000 Z-3.5000 F1020.00
G2 X12.0000 Y-0.7500 Z-3.5000 I-0.7500 J0.0000 F1020.00
G1 X6.0000 Y-0.7500 Z-3.5000 F1020.00
G2 X5.4489 Y-0.5087 Z-3.5000 I-0.0000 J0.7500 F1020.00
G1 X-0.5511 Y5.9913 Z-3.5000 F1020.00
G2 X-0.7500 Y6.5000 Z-3.5000 I0.5511 J0.5087 F1020.00
G1 X-0.7500 Y13.0000 Z-3.5000 F1020.00
G2 X0.0000 Y13.7500 Z-3.5000 I0.7500 J-0.0000 F1020.00
G1 X1.2500 Y13.7500 Z-3.5000 F1020.00
G1 X1.2500 Y13.8500 Z-3.5000 F1020.00
G1 X0.0000 Y13.8500 Z-3.5000 F1020.00
G2 X-0.7500 Y14.6000 Z-3.5000 I0.0000 J0.7500 F1020.00
G1 X-0.7500 Y25.1000 Z-3.5000 F1020.00
G2 X0.0000 Y25.8500 Z-3.5000 I0.7500 J-0.0000 F1020.00
G1 X1.2500 Y25.8500 Z-3.5000 F1020.00
G1 X1.2500 Y25.9500 Z-3.5000 F1020.00
G1 X0.0000 Y25.9500 Z-3.5000 F1020.00
G2 X-0.7500 Y26.7000 Z-3.5000 I0.0000 J0.7500 F1020.00
G1 X-0.7500 Y37.2000 Z-3.5000 F1020.00
G2 X0.0000 Y37.9500 Z-3.5000 I0.7500 J-0.0000 F1020.00
G1 X1.2500 Y37.9500 Z-3.5000 F1020.00
G1 X1.2500 Y38.0500 Z-3.5000 F1020.00
G1 X0.0000 Y38.0500 Z-3.5000 F1020.00
G2 X-0.7500 Y38.8000 Z-3.5000 I0.0000 J0.7500 F1020.00
G1 X-0.7500 Y49.3000 Z-3.5000 F1020.00
G2 X0.0000 Y50.0500 Z-3.5000 I0.7500 J-0.0000 F1020.00
G1 X1.2500 Y50.0500 Z-3.5000 F1020.00
G1 X1.2500 Y50.1500 Z-3.5000 F1020.00
G1 X0.0000 Y50.1500 Z-3.5000 F1020.00
G2 X-0.7500 Y50.9000 Z-3.5000 I0.0000 J0.7500 F1020.00
G1 X-0.7500 Y61.4000 Z-3.5000 F1020.00
G2 X0.0000 Y62.1500 Z-3.5000 I0.7500 J-0.0000 F1020.00
G1 X1.2500 Y62.1500 Z-3.5000 F1020.00
G1 X1.2500 Y62.2500 Z-3.5000 F1020.00
G1 X0.0000 Y62.2500 Z-3.5000 F1020.00
G2 X-0.7500 Y63.0000 Z-3.5000 I0.0000 J0.7500 F1020.00
G1 X-0.7500 Y69.5000 Z-3.5000 F1020.00
G2 X-0.5511 Y70.0087 Z-3.5000 I0.7500 J0.0000 F1020.00
G1 X5.4489 Y76.5087 Z-3.5000 F1020.00
G2 X6.0000 Y76.7500 Z-3.5000 I0.5511 J-0.5087 F1020.00
G1 X12.0000 Y76.7500 Z-3.5000 F1020.00
G2 X12.5303 Y76.5303 Z-3.5000 I-0.0000 J-0.7500 F1020.00
G1 X12.5303 Y76.5303 Z-4.0000 F1020.00
G2 X12.7500 Y76.0000 Z-4.0000 I-0.5303 J-0.5303 F1020.00
G1 X12.7500 Y63.0000 Z-4.0000 F1020.00
G2 X12.0000 Y62.2500 Z-4.0000 I-0.7500 J0.0000 F1020.00
G1 X7.7500 Y62.2500 Z-4.0000 F1020.00
G1 X7.7500 Y46.2500 Z-4.0000 F1020.00
G1 X12.0000 Y46.2500 Z-4.0000 F1020.00
G2 X12.7500 Y45.5000 Z-4.0000 I-0.0000 J-0.7500 F1020.00
G1 X12.7500 Y30.5000 Z-4.0000 F1020.00
G2 X12.0000 Y29.7500 Z-4.0000 I-0.7500 J0.0000 F1020.00
G1 X7.7500 Y29.7500 Z-4.0000 F1020.00
G1 X7.7500 Y13.7500 Z-4.0000 F1020.00
G1 X12.0000 Y13.7500 Z-4.0000 F1020.00
G2 X12.7500 Y13.0000 Z-4.0000 I-0.0000 J-0.7500 F1020.00
G1 X12.7500 Y0.0000 Z-4.0000 F1020.00
G2 X12.0000 Y-0.7500 Z-4.0000 I-0.7500 J0.0000 F1020.00
G1 X6.0000 Y-0.7500 Z-4.0000 F1020.00
G2 X5.4489 Y-0.5087 Z-4.0000 I-0.0000 J0.7500 F1020.00
G1 X-0.5511 Y5.9913 Z-4.0000 F1020.00
G2 X-0.7500 Y6.5000 Z-4.0000 I0.5511 J0.5087 F1020.00
G1 X-0.7500 Y13.0000 Z-4.0000 F1020.00
G2 X0.0000 Y13.7500 Z-4.0000 I0.7500 J-0.0000 F1020.00
G1 X1.2500 Y13.7500 Z-4.0000 F1020.00
G1 X1.2500 Y13.8500 Z-4.0000 F1020.00
G1 X0.0000 Y13.8500 Z-4.0000 F1020.00
G2 X-0.7500 Y14.6000 Z-4.0000 I0.0000 J0.7500 F1020.00
G1 X-0.7500 Y25.1000 Z-4.0000 F1020.00
G2 X0.0000 Y25.8500 Z-4.0000 I0.7500 J-0.0000 F1020.00
G1 X1.2500 Y25.8500 Z-4.0000 F1020.00
G1 X1.2500 Y25.9500 Z-4.0000 F1020.00
G1 X0.0000 Y25.9500 Z-4.0000 F1020.00
G2 X-0.7500 Y26.7000 Z-4.0000 I0.0000 J0.7500 F1020.00
G1 X-0.7500 Y37.2000 Z-4.0000 F1020.00
G2 X0.0000 Y37.9500 Z-4.0000 I0.7500 J-0.0000 F1020.00
G1 X1.2500 Y37.9500 Z-4.0000 F1020.00
G1 X1.2500 Y38.0500 Z-4.0000 F1020.00
G1 X0.0000 Y38.0500 Z-4.0000 F1020.00
G2 X-0.7500 Y38.8000 Z-4.0000 I0.0000 J0.7500 F1020.00
G1 X-0.7500 Y49.3000 Z-4.0000 F1020.00
G2 X0.0000 Y50.0500 Z-4.0000 I0.7500 J-0.0000 F1020.00
G1 X1.2500 Y50.0500 Z-4.0000 F1020.00
G1 X1.2500 Y50.1500 Z-4.0000 F1020.00
G1 X0.0000 Y50.1500 Z-4.0000 F1020.00
G2 X-0.7500 Y50.9000 Z-4.0000 I0.0000 J0.7500 F1020.00
G1 X-0.7500 Y61.4000 Z-4.0000 F1020.00
G2 X0.0000 Y62.1500 Z-4.0000 I0.7500 J-0.0000 F1020.00
G1 X1.2500 Y62.1500 Z-4.0000 F1020.00
G1 X1.2500 Y62.2500 Z-4.0000 F1020.00
G1 X0.0000 Y62.2500 Z-4.0000 F1020.00
G2 X-0.7500 Y63.0000 Z-4.0000 I0.0000 J0.7500 F1020.00
G1 X-0.7500 Y69.5000 Z-4.0000 F1020.00
G2 X-0.5511 Y70.0087 Z-4.0000 I0.7500 J0.0000 F1020.00
G1 X5.4489 Y76.5087 Z-4.0000 F1020.00
G2 X6.0000 Y76.7500 Z-4.0000 I0.5511 J-0.5087 F1020.00
G1 X12.0000 Y76.7500 Z-4.0000 F1020.00
G2 X12.5303 Y76.5303 Z-4.0000 I-0.0000 J-0.7500 F1020.00
G1 X12.5303 Y76.5303 Z-4.5000 F1020.00
G2 X12.7500 Y76.0000 Z-4.5000 I-0.5303 J-0.5303 F1020.00
G1 X12.7500 Y63.0000 Z-4.5000 F1020.00
G2 X12.0000 Y62.2500 Z-4.5000 I-0.7500 J0.0000 F1020.00
G1 X7.7500 Y62.2500 Z-4.5000 F1020.00
G1 X7.7500 Y46.2500 Z-4.5000 F1020.00
G1 X12.0000 Y46.2500 Z-4.5000 F1020.00
G2 X12.7500 Y45.5000 Z-4.5000 I-0.0000 J-0.7500 F1020.00
G1 X12.7500 Y30.5000 Z-4.5000 F1020.00
G2 X12.0000 Y29.7500 Z-4.5000 I-0.7500 J0.0000 F1020.00
G1 X7.7500 Y29.7500 Z-4.5000 F1020.00
G1 X7.7500 Y13.7500 Z-4.5000 F1020.00
G1 X12.0000 Y13.7500 Z-4.5000 F1020.00
G2 X12.7500 Y13.0000 Z-4.5000 I-0.0000 J-0.7500 F1020.00
G1 X12.7500 Y0.0000 Z-4.5000 F1020.00
G2 X12.0000 Y-0.7500 Z-4.5000 I-0.7500 J0.0000 F1020.00
G1 X6.0000 Y-0.7500 Z-4.5000 F1020.00
G2 X5.4489 Y-0.5087 Z-4.5000 I-0.0000 J0.7500 F1020.00
G1 X-0.5511 Y5.9913 Z-4.5000 F1020.00
G2 X-0.7500 Y6.5000 Z-4.5000 I0.5511 J0.5087 F1020.00
G1 X-0.7500 Y13.0000 Z-4.5000 F1020.00
G2 X0.0000 Y13.7500 Z-4.5000 I0.7500 J-0.0000 F1020.00
G1 X1.2500 Y13.7500 Z-4.5000 F1020.00
G1 X1.2500 Y13.8500 Z-4.5000 F1020.00
G1 X0.0000 Y13.8500 Z-4.5000 F1020.00
G2 X-0.7500 Y14.6000 Z-4.5000 I0.0000 J0.7500 F1020.00
G1 X-0.7500 Y25.1000 Z-4.5000 F1020.00
G2 X0.0000 Y25.8500 Z-4.5000 I0.7500 J-0.0000 F1020.00
G1 X1.2500 Y25.8500 Z-4.5000 F1020.00
G1 X1.2500 Y25.9500 Z-4.5000 F1020.00
G1 X0.0000 Y25.9500 Z-4.5000 F1020.00
G2 X-0.7500 Y26.7000 Z-4.5000 I0.0000 J0.7500 F1020.00
G1 X-0.7500 Y37.2000 Z-4.5000 F1020.00
G2 X0.0000 Y37.9500 Z-4.5000 I0.7500 J-0.0000 F1020.00
G1 X1.2500 Y37.9500 Z-4.5000 F1020.00
G1 X1.2500 Y38.0500 Z-4.5000 F1020.00
G1 X0.0000 Y38.0500 Z-4.5000 F1020.00
G2 X-0.7500 Y38.8000 Z-4.5000 I0.0000 J0.7500 F1020.00
G1 X-0.7500 Y49.3000 Z-4.5000 F1020.00
G2 X0.0000 Y50.0500 Z-4.5000 I0.7500 J-0.0000 F1020.00
G1 X1.2500 Y50.0500 Z-4.5000 F1020.00
G1 X1.2500 Y50.1500 Z-4.5000 F1020.00
G1 X0.0000 Y50.1500 Z-4.5000 F1020.00
G2 X-0.7500 Y50.9000 Z-4.5000 I0.0000 J0.7500 F1020.00
G1 X-0.7500 Y61.4000 Z-4.5000 F1020.00
G2 X0.0000 Y62.1500 Z-4.5000 I0.7500 J-0.0000 F1020.00
G1 X1.2500 Y62.1500 Z-4.5000 F1020.00
G1 X1.2500 Y62.2500 Z-4.5000 F1020.00
G1 X0.0000 Y62.2500 Z-4.5000 F1020.00
G2 X-0.7500 Y63.0000 Z-4.5000 I0.0000 J0.7500 F1020.00
G1 X-0.7500 Y69.5000 Z-4.5000 F1020.00
G2 X-0.5511 Y70.0087 Z-4.5000 I0.7500 J0.0000 F1020.00
G1 X5.4489 Y76.5087 Z-4.5000 F1020.00
G2 X6.0000 Y76.7500 Z-4.5000 I0.5511 J-0.5087 F1020.00
G1 X12.0000 Y76.7500 Z-4.5000 F1020.00
G2 X12.5303 Y76.5303 Z-4.5000 I-0.0000 J-0.7500 F1020.00
G1 X12.5303 Y76.5303 Z-5.0000 F1020.00
G2 X12.7500 Y76.0000 Z-5.0000 I-0.5303 J-0.5303 F1020.00
G1 X12.7500 Y63.0000 Z-5.0000 F1020.00
G2 X12.0000 Y62.2500 Z-5.0000 I-0.7500 J0.0000 F1020.00
G1 X7.7500 Y62.2500 Z-5.0000 F1020.00
G1 X7.7500 Y46.2500 Z-5.0000 F1020.00
G1 X12.0000 Y46.2500 Z-5.0000 F1020.00
G2 X12.7500 Y45.5000 Z-5.0000 I-0.0000 J-0.7500 F1020.00
G1 X12.7500 Y30.5000 Z-5.0000 F1020.00
G2 X12.0000 Y29.7500 Z-5.0000 I-0.7500 J0.0000 F1020.00
G1 X7.7500 Y29.7500 Z-5.0000 F1020.00
G1 X7.7500 Y13.7500 Z-5.0000 F1020.00
G1 X12.0000 Y13.7500 Z-5.0000 F1020.00
G2 X12.7500 Y13.0000 Z-5.0000 I-0.0000 J-0.7500 F1020.00
G1 X12.7500 Y0.0000 Z-5.0000 F1020.00
G2 X12.0000 Y-0.7500 Z-5.0000 I-0.7500 J0.0000 F1020.00
G1 X6.0000 Y-0.7500 Z-5.0000 F1020.00
G2 X5.4489 Y-0.5087 Z-5.0000 I-0.0000 J0.7500 F1020.00
G1 X-0.5511 Y5.9913 Z-5.0000 F1020.00
G2 X-0.7500 Y6.5000 Z-5.0000 I0.5511 J0.5087 F1020.00
G1 X-0.7500 Y13.0000 Z-5.0000 F1020.00
G2 X0.0000 Y13.7500 Z-5.0000 I0.7500 J-0.0000 F1020.00
G1 X1.2500 Y13.7500 Z-5.0000 F1020.00
G1 X1.2500 Y13.8500 Z-5.0000 F1020.00
G1 X0.0000 Y13.8500 Z-5.0000 F1020.00
G2 X-0.7500 Y14.6000 Z-5.0000 I0.0000 J0.7500 F1020.00
G1 X-0.7500 Y25.1000 Z-5.0000 F1020.00
G2 X0.0000 Y25.8500 Z-5.0000 I0.7500 J-0.0000 F1020.00
G1 X1.2500 Y25.8500 Z-5.0000 F1020.00
G1 X1.2500 Y25.9500 Z-5.0000 F1020.00
G1 X0.0000 Y25.9500 Z-5.0000 F1020.00
G2 X-0.7500 Y26.7000 Z-5.0000 I0.0000 J0.7500 F1020.00
G1 X-0.7500 Y37.2000 Z-5.0000 F1020.00
G2 X0.0000 Y37.9500 Z-5.0000 I0.7500 J-0.0000 F1020.00
G1 X1.2500 Y37.9500 Z-5.0000 F1020.00
G1 X1.2500 Y38.0500 Z-5.0000 F1020.00
G1 X0.0000 Y38.0500 Z-5.0000 F1020.00
G2 X-0.7500 Y38.8000 Z-5.0000 I0.0000 J0.7500 F1020.00
G1 X-0.7500 Y49.3000 Z-5.0000 F1020.00
G2 X0.0000 Y50.0500 Z-5.0000 I0.7500 J-0.0000 F1020.00
G1 X1.2500 Y50.0500 Z-5.0000 F1020.00
G1 X1.2500 Y50.1500 Z-5.0000 F1020.00
G1 X0.0000 Y50.1500 Z-5.0000 F1020.00
G2 X-0.7500 Y50.9000 Z-5.0000 I0.0000 J0.7500 F1020.00
G1 X-0.7500 Y61.4000 Z-5.0000 F1020.00
G2 X0.0000 Y62.1500 Z-5.0000 I0.7500 J-0.0000 F1020.00
G1 X1.2500 Y62.1500 Z-5.0000 F1020.00
G1 X1.2500 Y62.2500 Z-5.0000 F1020.00
G1 X0.0000 Y62.2500 Z-5.0000 F1020.00
G2 X-0.7500 Y63.0000 Z-5.0000 I0.0000 J0.7500 F1020.00
G1 X-0.7500 Y69.5000 Z-5.0000 F1020.00
G2 X-0.5511 Y70.0087 Z-5.0000 I0.7500 J0.0000 F1020.00
G1 X5.4489 Y76.5087 Z-5.0000 F1020.00
G2 X6.0000 Y76.7500 Z-5.0000 I0.5511 J-0.5087 F1020.00
G1 X12.0000 Y76.7500 Z-5.0000 F1020.00
G2 X12.5303 Y76.5303 Z-5.0000 I-0.0000 J-0.7500 F1020.00
G1 X12.5303 Y76.5303 Z-5.5000 F1020.00
G2 X12.7500 Y76.0000 Z-5.5000 I-0.5303 J-0.5303 F1020.00
G1 X12.7500 Y63.0000 Z-5.5000 F1020.00
G2 X12.0000 Y62.2500 Z-5.5000 I-0.7500 J0.0000 F1020.00
G1 X7.7500 Y62.2500 Z-5.5000 F1020.00
G1 X7.7500 Y46.2500 Z-5.5000 F1020.00
G1 X12.0000 Y46.2500 Z-5.5000 F1020.00
G2 X12.7500 Y45.5000 Z-5.5000 I-0.0000 J-0.7500 F1020.00
G1 X12.7500 Y30.5000 Z-5.5000 F1020.00
G2 X12.0000 Y29.7500 Z-5.5000 I-0.7500 J0.0000 F1020.00
G1 X7.7500 Y29.7500 Z-5.5000 F1020.00
G1 X7.7500 Y13.7500 Z-5.5000 F1020.00
G1 X12.0000 Y13.7500 Z-5.5000 F1020.00
G2 X12.7500 Y13.0000 Z-5.5000 I-0.0000 J-0.7500 F1020.00
G1 X12.7500 Y0.0000 Z-5.5000 F1020.00
G2 X12.0000 Y-0.7500 Z-5.5000 I-0.7500 J0.0000 F1020.00
G1 X6.0000 Y-0.7500 Z-5.5000 F1020.00
G2 X5.4489 Y-0.5087 Z-5.5000 I-0.0000 J0.7500 F1020.00
G1 X-0.5511 Y5.9913 Z-5.5000 F1020.00
G2 X-0.7500 Y6.5000 Z-5.5000 I0.5511 J0.5087 F1020.00
G1 X-0.7500 Y13.0000 Z-5.5000 F1020.00
G2 X0.0000 Y13.7500 Z-5.5000 I0.7500 J-0.0000 F1020.00
G1 X1.2500 Y13.7500 Z-5.5000 F1020.00
G1 X1.2500 Y13.8500 Z-5.5000 F1020.00
G1 X0.0000 Y13.8500 Z-5.5000 F1020.00
G2 X-0.7500 Y14.6000 Z-5.5000 I0.0000 J0.7500 F1020.00
G1 X-0.7500 Y25.1000 Z-5.5000 F1020.00
G2 X0.0000 Y25.8500 Z-5.5000 I0.7500 J-0.0000 F1020.00
G1 X1.2500 Y25.8500 Z-5.5000 F1020.00
G1 X1.2500 Y25.9500 Z-5.5000 F1020.00
G1 X0.0000 Y25.9500 Z-5.5000 F1020.00
G2 X-0.7500 Y26.7000 Z-5.5000 I0.0000 J0.7500 F1020.00
G1 X-0.7500 Y37.2000 Z-5.5000 F1020.00
G2 X0.0000 Y37.9500 Z-5.5000 I0.7500 J-0.0000 F1020.00
G1 X1.2500 Y37.9500 Z-5.5000 F1020.00
G1 X1.2500 Y38.0500 Z-5.5000 F1020.00
G1 X0.0000 Y38.0500 Z-5.5000 F1020.00
G2 X-0.7500 Y38.8000 Z-5.5000 I0.0000 J0.7500 F1020.00
G1 X-0.7500 Y49.3000 Z-5.5000 F1020.00
G2 X0.0000 Y50.0500 Z-5.5000 I0.7500 J-0.0000 F1020.00
G1 X1.2500 Y50.0500 Z-5.5000 F1020.00
G1 X1.2500 Y50.1500 Z-5.5000 F1020.00
G1 X0.0000 Y50.1500 Z-5.5000 F1020.00
G2 X-0.7500 Y50.9000 Z-5.5000 I0.0000 J0.7500 F1020.00
G1 X-0.7500 Y61.4000 Z-5.5000 F1020.00
G2 X0.0000 Y62.1500 Z-5.5000 I0.7500 J-0.0000 F1020.00
G1 X1.2500 Y62.1500 Z-5.5000 F1020.00
G1 X1.2500 Y62.2500 Z-5.5000 F1020.00
G1 X0.0000 Y62.2500 Z-5.5000 F1020.00
G2 X-0.7500 Y63.0000 Z-5.5000 I0.0000 J0.7500 F1020.00
G1 X-0.7500 Y69.5000 Z-5.5000 F1020.00
G2 X-0.5511 Y70.0087 Z-5.5000 I0.7500 J0.0000 F1020.00
G1 X5.4489 Y76.5087 Z-5.5000 F1020.00
G2 X6.0000 Y76.7500 Z-5.5000 I0.5511 J-0.5087 F1020.00
G1 X12.0000 Y76.7500 Z-5.5000 F1020.00
G2 X12.5303 Y76.5303 Z-5.5000 I-0.0000 J-0.7500 F1020.00
G1 X12.5303 Y76.5303 Z-6.0000 F1020.00
G2 X12.7500 Y76.0000 Z-6.0000 I-0.5303 J-0.5303 F1020.00
G1 X12.7500 Y63.0000 Z-6.0000 F1020.00
G2 X12.0000 Y62.2500 Z-6.0000 I-0.7500 J0.0000 F1020.00
G1 X7.7500 Y62.2500 Z-6.0000 F1020.00
G1 X7.7500 Y46.2500 Z-6.0000 F1020.00
G1 X12.0000 Y46.2500 Z-6.0000 F1020.00
G2 X12.7500 Y45.5000 Z-6.0000 I-0.0000 J-0.7500 F1020.00
G1 X12.7500 Y30.5000 Z-6.0000 F1020.00
G2 X12.0000 Y29.7500 Z-6.0000 I-0.7500 J0.0000 F1020.00
G1 X7.7500 Y29.7500 Z-6.0000 F1020.00
G1 X7.7500 Y13.7500 Z-6.0000 F1020.00
G1 X12.0000 Y13.7500 Z-6.0000 F1020.00
G2 X12.7500 Y13.0000 Z-6.0000 I-0.0000 J-0.7500 F1020.00
G1 X12.7500 Y0.0000 Z-6.0000 F1020.00
G2 X12.0000 Y-0.7500 Z-6.0000 I-0.7500 J0.0000 F1020.00
G1 X6.0000 Y-0.7500 Z-6.0000 F1020.00
G2 X5.4489 Y-0.5087 Z-6.0000 I-0.0000 J0.7500 F1020.00
G1 X-0.5511 Y5.9913 Z-6.0000 F1020.00
G2 X-0.7500 Y6.5000 Z-6.0000 I0.5511 J0.5087 F1020.00
G1 X-0.7500 Y13.0000 Z-6.0000 F1020.00
G2 X0.0000 Y13.7500 Z-6.0000 I0.7500 J-0.0000 F1020.00
G1 X1.2500 Y13.7500 Z-6.0000 F1020.00
G1 X1.2500 Y13.8500 Z-6.0000 F1020.00
G1 X0.0000 Y13.8500 Z-6.0000 F1020.00
G2 X-0.7500 Y14.6000 Z-6.0000 I0.0000 J0.7500 F1020.00
G1 X-0.7500 Y25.1000 Z-6.0000 F1020.00
G2 X0.0000 Y25.8500 Z-6.0000 I0.7500 J-0.0000 F1020.00
G1 X1.2500 Y25.8500 Z-6.0000 F1020.00
G1 X1.2500 Y25.9500 Z-6.0000 F1020.00
G1 X0.0000 Y25.9500 Z-6.0000 F1020.00
G2 X-0.7500 Y26.7000 Z-6.0000 I0.0000 J0.7500 F1020.00
G1 X-0.7500 Y37.2000 Z-6.0000 F1020.00
G2 X0.0000 Y37.9500 Z-6.0000 I0.7500 J-0.0000 F1020.00
G1 X1.2500 Y37.9500 Z-6.0000 F1020.00
G1 X1.2500 Y38.0500 Z-6.0000 F1020.00
G1 X0.0000 Y38.0500 Z-6.0000 F1020.00
G2 X-0.7500 Y38.8000 Z-6.0000 I0.0000 J0.7500 F1020.00
G1 X-0.7500 Y49.3000 Z-6.0000 F1020.00
G2 X0.0000 Y50.0500 Z-6.0000 I0.7500 J-0.0000 F1020.00
G1 X1.2500 Y50.0500 Z-6.0000 F1020.00
G1 X1.2500 Y50.1500 Z-6.0000 F1020.00
G1 X0.0000 Y50.1500 Z-6.0000 F1020.00
G2 X-0.7500 Y50.9000 Z-6.0000 I0.0000 J0.7500 F1020.00
G1 X-0.7500 Y61.4000 Z-6.0000 F1020.00
G2 X0.0000 Y62.1500 Z-6.0000 I0.7500 J-0.0000 F1020.00
G1 X1.2500 Y62.1500 Z-6.0000 F1020.00
G1 X1.2500 Y62.2500 Z-6.0000 F1020.00
G1 X0.0000 Y62.2500 Z-6.0000 F1020.00
G2 X-0.7500 Y63.0000 Z-6.0000 I0.0000 J0.7500 F1020.00
G1 X-0.7500 Y69.5000 Z-6.0000 F1020.00
G2 X-0.5511 Y70.0087 Z-6.0000 I0.7500 J0.0000 F1020.00
G1 X5.4489 Y76.5087 Z-6.0000 F1020.00
G2 X6.0000 Y76.7500 Z-6.0000 I0.5511 J-0.5087 F1020.00
G1 X12.0000 Y76.7500 Z-6.0000 F1020.00
G2 X12.5303 Y76.5303 Z-6.0000 I-0.0000 J-0.7500 F1020.00
G0 Z5.0000
(finish operation: Contour001)
(begin postamble)
M5
G17 G90
; M2
