(Exported by FreeCAD)
(Post Processor: grbl_post)
(Output Time:2022-02-21 01:52:26.189539)
(begin preamble)
G17 G90
G21
(begin operation: T4: BALLMill)
(Path: T4: BALLMill)
(T4: BALLMill)
(begin toolchange)
; M6 T4
M3 S0.0000
(finish operation: T4: BALLMill)
(begin operation: Profile_Faces)
(Path: Profile_Faces)
(Profile_Faces)
(Compensated Tool Path. Diameter: 0.5)
G0 Z5.0000
G0 X48.7305 Y25.2091
G0 Z3.0000
G1 X48.7305 Y25.2091 Z-0.5000 F1020.00
G1 X49.2565 Y24.1044 Z-0.5000 F1020.00
G1 X47.7396 Y23.3821 Z-0.5000 F1020.00
G3 X47.4321 Y22.5158 Z-0.5000 I0.2794 J-0.5869 F1020.00
G1 X47.9045 Y21.5237 Z-0.5000 F1020.00
G1 X48.0330 Y20.7714 Z-0.5000 F1020.00
G3 X48.5482 Y20.2430 Z-0.5000 I0.6407 J0.1094 F1020.00
G1 X49.3739 Y20.0806 Z-0.5000 F1020.00
G1 X49.3739 Y18.8245 Z-0.5000 F1020.00
G1 X48.5683 Y18.7068 Z-0.5000 F1020.00
G3 X48.0177 Y18.1478 Z-0.5000 I0.0939 J-0.6432 F1020.00
G1 X47.8609 Y16.9470 Z-0.5000 F1020.00
G1 X47.2550 Y15.8932 Z-0.5000 F1020.00
G3 X47.4945 Y15.0057 Z-0.5000 I0.5635 J-0.3240 F1020.00
G1 X48.1882 Y14.6068 Z-0.5000 F1020.00
G1 X47.6368 Y13.5811 Z-0.5000 F1020.00
G1 X46.9481 Y13.9513 Z-0.5000 F1020.00
G3 X46.1248 Y13.7746 Z-0.5000 I-0.3078 J-0.5725 F1020.00
G1 X45.3685 Y12.7898 Z-0.5000 F1020.00
G1 X44.7757 Y12.2501 Z-0.5000 F1020.00
G3 X44.5680 Y11.6904 Z-0.5000 I0.4375 J-0.4807 F1020.00
G3 X44.9238 Y10.9053 Z-0.5000 I2.4044 J0.6161 F1020.00
G1 X43.7737 Y10.3198 Z-0.5000 F1020.00
G1 X43.3487 Y10.9133 Z-0.5000 F1020.00
G3 X42.5627 Y11.1316 Z-0.5000 I-0.5284 J-0.3785 F1020.00
G2 X40.5817 Y10.4695 Z-0.5000 I-3.8796 J8.3129 F1020.00
G3 X40.0930 Y9.9413 Z-0.5000 I0.1531 J-0.6317 F1020.00
G1 X39.9764 Y9.2181 Z-0.5000 F1020.00
G1 X38.7373 Y9.2181 Z-0.5000 F1020.00
G1 X38.6374 Y9.9319 Z-0.5000 F1020.00
G3 X38.1449 Y10.4739 Z-0.5000 I-0.6437 J-0.0901 F1020.00
G1 X36.6427 Y10.8332 Z-0.5000 F1020.00
G1 X35.8352 Y11.2145 Z-0.5000 F1020.00
G3 X35.1003 Y11.0886 Z-0.5000 I-0.2776 J-0.5878 F1020.00
G3 X34.6776 Y10.2854 Z-0.5000 I2.0663 J-1.6002 F1020.00
G1 X33.5917 Y10.9513 Z-0.5000 F1020.00
G1 X33.9887 Y11.5987 Z-0.5000 F1020.00
G3 X33.7744 Y12.4926 Z-0.5000 I-0.5541 J0.3398 F1020.00
G1 X32.9867 Y12.9757 Z-0.5000 F1020.00
G1 X32.3016 Y13.8563 Z-0.5000 F1020.00
G3 X31.6127 Y14.0757 Z-0.5000 I-0.4986 J-0.3746 F1020.00
G1 X32.8731 Y14.8709 Z-0.5000 F1020.00
G3 X35.7800 Y12.2915 Z-0.5000 I8.2987 J6.4248 F1020.00
G3 X41.2260 Y11.6114 Z-0.5000 I3.4338 J5.3516 F1020.00
G3 X45.8885 Y14.7686 Z-0.5000 I-4.5490 J11.7392 F1020.00
G1 X46.0347 Y14.9887 Z-0.5000 F1020.00
G3 X46.9626 Y19.3183 Z-0.5000 I-9.6680 J4.3362 F1020.00
G3 X45.2309 Y24.1658 Z-0.5000 I-7.1311 J0.1855 F1020.00
G3 X36.9907 Y26.6134 Z-0.5000 I-6.1830 J-5.7212 F1020.00
G3 X31.8855 Y22.8402 Z-0.5000 I1.7812 J-7.7505 F1020.00
G2 X32.4258 Y23.9942 Z-0.5000 I6.7386 J-2.4519 F1020.00
G2 X35.8402 Y27.3952 Z-0.5000 I7.0479 J-3.6612 F1020.00
G2 X41.3724 Y27.8551 Z-0.5000 I3.3111 J-6.3266 F1020.00
G2 X46.4262 Y24.5717 Z-0.5000 I-4.5863 J-12.5905 F1020.00
G3 X47.1518 Y24.4575 Z-0.5000 I0.4462 J0.4727 F1020.00
G1 X48.7305 Y25.2091 Z-0.5000 F1020.00
G0 X48.7305 Y25.2091 Z5.0000
G0 X42.7077 Y22.9032 Z5.0000
G0 X42.7077 Y22.9032 Z2.5000
G1 X42.7077 Y22.9032 Z-0.5000 F1020.00
G1 X43.2096 Y21.5924 Z-0.5000 F1020.00
G1 X38.5985 Y19.8270 Z-0.5000 F1020.00
G3 X38.4821 Y18.6714 Z-0.5000 I0.2324 J-0.6070 F1020.00
G1 X42.8960 Y15.8650 Z-0.5000 F1020.00
G1 X42.8960 Y15.5722 Z-0.5000 F1020.00
G1 X37.2349 Y19.1717 Z-0.5000 F1020.00
G3 X36.6537 Y19.2302 Z-0.5000 I-0.3488 J-0.5485 F1020.00
G1 X35.2190 Y18.6809 Z-0.5000 F1020.00
G3 X34.8014 Y18.0739 Z-0.5000 I0.2324 J-0.6070 F1020.00
G1 X34.8014 Y17.1327 Z-0.5000 F1020.00
G1 X34.5921 Y17.1327 Z-0.5000 F1020.00
G1 X34.5921 Y18.7634 Z-0.5000 F1020.00
G1 X42.2500 Y21.6954 Z-0.5000 F1020.00
G3 X42.6675 Y22.3132 Z-0.5000 I-0.2324 J0.6070 F1020.00
G3 X42.3806 Y23.1722 Z-0.5000 I-2.5791 J-0.3840 F1020.00
G1 X42.5761 Y23.2470 Z-0.5000 F1020.00
G1 X42.7077 Y22.9032 Z-0.5000 F1020.00
G1 X42.7077 Y22.9032 Z-1.0000 F1020.00
G1 X43.2096 Y21.5924 Z-1.0000 F1020.00
G1 X38.5985 Y19.8270 Z-1.0000 F1020.00
G3 X38.4821 Y18.6714 Z-1.0000 I0.2324 J-0.6070 F1020.00
G1 X42.8960 Y15.8650 Z-1.0000 F1020.00
G1 X42.8960 Y15.5722 Z-1.0000 F1020.00
G1 X37.2349 Y19.1717 Z-1.0000 F1020.00
G3 X36.6537 Y19.2302 Z-1.0000 I-0.3488 J-0.5485 F1020.00
G1 X35.2190 Y18.6809 Z-1.0000 F1020.00
G3 X34.8014 Y18.0739 Z-1.0000 I0.2324 J-0.6070 F1020.00
G1 X34.8014 Y17.1327 Z-1.0000 F1020.00
G1 X34.5921 Y17.1327 Z-1.0000 F1020.00
G1 X34.5921 Y18.7634 Z-1.0000 F1020.00
G1 X42.2500 Y21.6954 Z-1.0000 F1020.00
G3 X42.6675 Y22.3132 Z-1.0000 I-0.2324 J0.6070 F1020.00
G3 X42.3806 Y23.1722 Z-1.0000 I-2.5791 J-0.3840 F1020.00
G1 X42.5761 Y23.2470 Z-1.0000 F1020.00
G1 X42.7077 Y22.9032 Z-1.0000 F1020.00
G0 X42.7077 Y22.9032 Z5.0000
G0 X44.3926 Y24.9558 Z5.0000
G0 X44.3926 Y24.9558 Z2.0000
G1 X44.3926 Y24.9558 Z-1.0000 F1020.00
G3 X36.9907 Y26.6134 Z-1.0000 I-5.3447 J-6.5112 F1020.00
G3 X31.8855 Y22.8402 Z-1.0000 I1.7812 J-7.7505 F1020.00
G2 X32.4258 Y23.9942 Z-1.0000 I6.7386 J-2.4519 F1020.00
G2 X35.8402 Y27.3952 Z-1.0000 I7.0479 J-3.6612 F1020.00
G2 X41.3724 Y27.8551 Z-1.0000 I3.3111 J-6.3266 F1020.00
G2 X46.4262 Y24.5717 Z-1.0000 I-4.5863 J-12.5905 F1020.00
G3 X47.1518 Y24.4575 Z-1.0000 I0.4462 J0.4727 F1020.00
G1 X48.7305 Y25.2091 Z-1.0000 F1020.00
G1 X49.2565 Y24.1044 Z-1.0000 F1020.00
G1 X47.7396 Y23.3821 Z-1.0000 F1020.00
G3 X47.4321 Y22.5158 Z-1.0000 I0.2794 J-0.5869 F1020.00
G1 X47.9045 Y21.5237 Z-1.0000 F1020.00
G1 X48.0330 Y20.7714 Z-1.0000 F1020.00
G3 X48.5482 Y20.2430 Z-1.0000 I0.6407 J0.1094 F1020.00
G1 X49.3739 Y20.0806 Z-1.0000 F1020.00
G1 X49.3739 Y18.8245 Z-1.0000 F1020.00
G1 X48.5683 Y18.7068 Z-1.0000 F1020.00
G3 X48.0177 Y18.1478 Z-1.0000 I0.0939 J-0.6432 F1020.00
G1 X47.8609 Y16.9470 Z-1.0000 F1020.00
G1 X47.2550 Y15.8932 Z-1.0000 F1020.00
G3 X47.4945 Y15.0057 Z-1.0000 I0.5635 J-0.3240 F1020.00
G1 X48.1882 Y14.6068 Z-1.0000 F1020.00
G1 X47.6368 Y13.5811 Z-1.0000 F1020.00
G1 X46.9481 Y13.9513 Z-1.0000 F1020.00
G3 X46.1248 Y13.7746 Z-1.0000 I-0.3078 J-0.5725 F1020.00
G1 X45.3685 Y12.7898 Z-1.0000 F1020.00
G1 X44.7757 Y12.2501 Z-1.0000 F1020.00
G3 X44.5680 Y11.6904 Z-1.0000 I0.4375 J-0.4807 F1020.00
G3 X44.9238 Y10.9053 Z-1.0000 I2.4044 J0.6161 F1020.00
G1 X43.7737 Y10.3198 Z-1.0000 F1020.00
G1 X43.3487 Y10.9133 Z-1.0000 F1020.00
G3 X42.5627 Y11.1316 Z-1.0000 I-0.5284 J-0.3785 F1020.00
G2 X40.5817 Y10.4695 Z-1.0000 I-3.8796 J8.3129 F1020.00
G3 X40.0930 Y9.9413 Z-1.0000 I0.1531 J-0.6317 F1020.00
G1 X39.9764 Y9.2181 Z-1.0000 F1020.00
G1 X38.7373 Y9.2181 Z-1.0000 F1020.00
G1 X38.6374 Y9.9319 Z-1.0000 F1020.00
G3 X38.1449 Y10.4739 Z-1.0000 I-0.6437 J-0.0901 F1020.00
G1 X36.6427 Y10.8332 Z-1.0000 F1020.00
G1 X35.8352 Y11.2145 Z-1.0000 F1020.00
G3 X35.1003 Y11.0886 Z-1.0000 I-0.2776 J-0.5878 F1020.00
G3 X34.6776 Y10.2854 Z-1.0000 I2.0663 J-1.6002 F1020.00
G1 X33.5917 Y10.9513 Z-1.0000 F1020.00
G1 X33.9887 Y11.5987 Z-1.0000 F1020.00
G3 X33.7744 Y12.4926 Z-1.0000 I-0.5541 J0.3398 F1020.00
G1 X32.9867 Y12.9757 Z-1.0000 F1020.00
G1 X32.3016 Y13.8563 Z-1.0000 F1020.00
G3 X31.6127 Y14.0757 Z-1.0000 I-0.4986 J-0.3746 F1020.00
G1 X32.8731 Y14.8709 Z-1.0000 F1020.00
G3 X35.7800 Y12.2915 Z-1.0000 I8.2987 J6.4248 F1020.00
G3 X41.2260 Y11.6114 Z-1.0000 I3.4338 J5.3516 F1020.00
G3 X45.8885 Y14.7686 Z-1.0000 I-4.5490 J11.7392 F1020.00
G1 X46.0347 Y14.9887 Z-1.0000 F1020.00
G3 X46.9626 Y19.3183 Z-1.0000 I-9.6680 J4.3362 F1020.00
G3 X45.2309 Y24.1658 Z-1.0000 I-7.1311 J0.1855 F1020.00
G3 X44.3926 Y24.9558 Z-1.0000 I-6.1830 J-5.7212 F1020.00
G1 X44.3926 Y24.9558 Z-1.5000 F1020.00
G3 X36.9907 Y26.6134 Z-1.5000 I-5.3447 J-6.5112 F1020.00
G3 X31.8855 Y22.8402 Z-1.5000 I1.7812 J-7.7505 F1020.00
G2 X32.4258 Y23.9942 Z-1.5000 I6.7386 J-2.4519 F1020.00
G2 X35.8402 Y27.3952 Z-1.5000 I7.0479 J-3.6612 F1020.00
G2 X41.3724 Y27.8551 Z-1.5000 I3.3111 J-6.3266 F1020.00
G2 X46.4262 Y24.5717 Z-1.5000 I-4.5863 J-12.5905 F1020.00
G3 X47.1518 Y24.4575 Z-1.5000 I0.4462 J0.4727 F1020.00
G1 X48.7305 Y25.2091 Z-1.5000 F1020.00
G1 X49.2565 Y24.1044 Z-1.5000 F1020.00
G1 X47.7396 Y23.3821 Z-1.5000 F1020.00
G3 X47.4321 Y22.5158 Z-1.5000 I0.2794 J-0.5869 F1020.00
G1 X47.9045 Y21.5237 Z-1.5000 F1020.00
G1 X48.0330 Y20.7714 Z-1.5000 F1020.00
G3 X48.5482 Y20.2430 Z-1.5000 I0.6407 J0.1094 F1020.00
G1 X49.3739 Y20.0806 Z-1.5000 F1020.00
G1 X49.3739 Y18.8245 Z-1.5000 F1020.00
G1 X48.5683 Y18.7068 Z-1.5000 F1020.00
G3 X48.0177 Y18.1478 Z-1.5000 I0.0939 J-0.6432 F1020.00
G1 X47.8609 Y16.9470 Z-1.5000 F1020.00
G1 X47.2550 Y15.8932 Z-1.5000 F1020.00
G3 X47.4945 Y15.0057 Z-1.5000 I0.5635 J-0.3240 F1020.00
G1 X48.1882 Y14.6068 Z-1.5000 F1020.00
G1 X47.6368 Y13.5811 Z-1.5000 F1020.00
G1 X46.9481 Y13.9513 Z-1.5000 F1020.00
G3 X46.1248 Y13.7746 Z-1.5000 I-0.3078 J-0.5725 F1020.00
G1 X45.3685 Y12.7898 Z-1.5000 F1020.00
G1 X44.7757 Y12.2501 Z-1.5000 F1020.00
G3 X44.5680 Y11.6904 Z-1.5000 I0.4375 J-0.4807 F1020.00
G3 X44.9238 Y10.9053 Z-1.5000 I2.4044 J0.6161 F1020.00
G1 X43.7737 Y10.3198 Z-1.5000 F1020.00
G1 X43.3487 Y10.9133 Z-1.5000 F1020.00
G3 X42.5627 Y11.1316 Z-1.5000 I-0.5284 J-0.3785 F1020.00
G2 X40.5817 Y10.4695 Z-1.5000 I-3.8796 J8.3129 F1020.00
G3 X40.0930 Y9.9413 Z-1.5000 I0.1531 J-0.6317 F1020.00
G1 X39.9764 Y9.2181 Z-1.5000 F1020.00
G1 X38.7373 Y9.2181 Z-1.5000 F1020.00
G1 X38.6374 Y9.9319 Z-1.5000 F1020.00
G3 X38.1449 Y10.4739 Z-1.5000 I-0.6437 J-0.0901 F1020.00
G1 X36.6427 Y10.8332 Z-1.5000 F1020.00
G1 X35.8352 Y11.2145 Z-1.5000 F1020.00
G3 X35.1003 Y11.0886 Z-1.5000 I-0.2776 J-0.5878 F1020.00
G3 X34.6776 Y10.2854 Z-1.5000 I2.0663 J-1.6002 F1020.00
G1 X33.5917 Y10.9513 Z-1.5000 F1020.00
G1 X33.9887 Y11.5987 Z-1.5000 F1020.00
G3 X33.7744 Y12.4926 Z-1.5000 I-0.5541 J0.3398 F1020.00
G1 X32.9867 Y12.9757 Z-1.5000 F1020.00
G1 X32.3016 Y13.8563 Z-1.5000 F1020.00
G3 X31.6127 Y14.0757 Z-1.5000 I-0.4986 J-0.3746 F1020.00
G1 X32.8731 Y14.8709 Z-1.5000 F1020.00
G3 X35.7800 Y12.2915 Z-1.5000 I8.2987 J6.4248 F1020.00
G3 X41.2260 Y11.6114 Z-1.5000 I3.4338 J5.3516 F1020.00
G3 X45.8885 Y14.7686 Z-1.5000 I-4.5490 J11.7392 F1020.00
G1 X46.0347 Y14.9887 Z-1.5000 F1020.00
G3 X46.9626 Y19.3183 Z-1.5000 I-9.6680 J4.3362 F1020.00
G3 X45.2309 Y24.1658 Z-1.5000 I-7.1311 J0.1855 F1020.00
G3 X44.3926 Y24.9558 Z-1.5000 I-6.1830 J-5.7212 F1020.00
G0 X44.3926 Y24.9558 Z5.0000
G0 X42.5761 Y23.2470 Z5.0000
G0 X42.5761 Y23.2470 Z1.5000
G1 X42.5761 Y23.2470 Z-1.5000 F1020.00
G1 X43.2096 Y21.5924 Z-1.5000 F1020.00
G1 X38.5985 Y19.8270 Z-1.5000 F1020.00
G3 X38.4821 Y18.6714 Z-1.5000 I0.2324 J-0.6070 F1020.00
G1 X42.8960 Y15.8650 Z-1.5000 F1020.00
G1 X42.8960 Y15.5722 Z-1.5000 F1020.00
G1 X37.2349 Y19.1717 Z-1.5000 F1020.00
G3 X36.6537 Y19.2302 Z-1.5000 I-0.3488 J-0.5485 F1020.00
G1 X35.2190 Y18.6809 Z-1.5000 F1020.00
G3 X34.8014 Y18.0739 Z-1.5000 I0.2324 J-0.6070 F1020.00
G1 X34.8014 Y17.1327 Z-1.5000 F1020.00
G1 X34.5921 Y17.1327 Z-1.5000 F1020.00
G1 X34.5921 Y18.7634 Z-1.5000 F1020.00
G1 X42.2500 Y21.6954 Z-1.5000 F1020.00
G3 X42.6675 Y22.3132 Z-1.5000 I-0.2324 J0.6070 F1020.00
G3 X42.3806 Y23.1722 Z-1.5000 I-2.5791 J-0.3840 F1020.00
G1 X42.5761 Y23.2470 Z-1.5000 F1020.00
G0 Z5.0000
(finish operation: Profile_Faces)
(begin postamble)
M5
G17 G90
; M2
