(Exported by FreeCAD)
(Post Processor: grbl_post)
(Output Time:2022-02-21 01:51:54.012853)
(begin preamble)
G17 G90
G21
(begin operation: T3: 1/8inMILL)
(Path: T3: 1/8inMILL)
(T3: 1/8inMILL)
(begin toolchange)
; M6 T3
M3 S0.0000
(finish operation: T3: 1/8inMILL)
(begin operation: Helix)
(Path: Helix)
(Helix)
(helix cut operation)
G0 Z5.0000
G0 X9.4818 Y16.6832
G0 Z3.0000
G1 Z0.0000 F1080.00
G2 X6.5182 Y16.6832 Z-0.4286 I-1.4818 J0.0000 F1080.00
G2 X9.4818 Y16.6832 Z-0.8571 I1.4818 J0.0000 F1080.00
G2 X6.5182 Y16.6832 Z-1.2857 I-1.4818 J0.0000 F1080.00
G2 X9.4818 Y16.6832 Z-1.7143 I1.4818 J0.0000 F1080.00
G2 X6.5182 Y16.6832 Z-2.1429 I-1.4818 J0.0000 F1080.00
G2 X9.4818 Y16.6832 Z-2.5714 I1.4818 J0.0000 F1080.00
G2 X6.5182 Y16.6832 Z-3.0000 I-1.4818 J0.0000 F1080.00
G2 X9.4818 Y16.6832 Z-3.4286 I1.4818 J0.0000 F1080.00
G2 X6.5182 Y16.6832 Z-3.8571 I-1.4818 J0.0000 F1080.00
G2 X9.4818 Y16.6832 Z-4.2857 I1.4818 J0.0000 F1080.00
G2 X6.5182 Y16.6832 Z-4.7143 I-1.4818 J0.0000 F1080.00
G2 X9.4818 Y16.6832 Z-5.1429 I1.4818 J0.0000 F1080.00
G2 X6.5182 Y16.6832 Z-5.5714 I-1.4818 J0.0000 F1080.00
G2 X9.4818 Y16.6832 Z-6.0000 I1.4818 J0.0000 F1080.00
G2 X6.5182 Y16.6832 Z-6.0000 I-1.4818 J0.0000 F1080.00
G2 X9.4818 Y16.6832 Z-6.0000 I1.4818 J0.0000 F1080.00
G0 Z3.0000
G0 X20.2064 Y25.6822
G0 Z3.0000
G1 Z0.0000 F1080.00
G2 X17.2429 Y25.6822 Z-0.4286 I-1.4818 J0.0000 F1080.00
G2 X20.2064 Y25.6822 Z-0.8571 I1.4818 J0.0000 F1080.00
G2 X17.2429 Y25.6822 Z-1.2857 I-1.4818 J0.0000 F1080.00
G2 X20.2064 Y25.6822 Z-1.7143 I1.4818 J0.0000 F1080.00
G2 X17.2429 Y25.6822 Z-2.1429 I-1.4818 J0.0000 F1080.00
G2 X20.2064 Y25.6822 Z-2.5714 I1.4818 J0.0000 F1080.00
G2 X17.2429 Y25.6822 Z-3.0000 I-1.4818 J0.0000 F1080.00
G2 X20.2064 Y25.6822 Z-3.4286 I1.4818 J0.0000 F1080.00
G2 X17.2429 Y25.6822 Z-3.8571 I-1.4818 J0.0000 F1080.00
G2 X20.2064 Y25.6822 Z-4.2857 I1.4818 J0.0000 F1080.00
G2 X17.2429 Y25.6822 Z-4.7143 I-1.4818 J0.0000 F1080.00
G2 X20.2064 Y25.6822 Z-5.1429 I1.4818 J0.0000 F1080.00
G2 X17.2429 Y25.6822 Z-5.5714 I-1.4818 J0.0000 F1080.00
G2 X20.2064 Y25.6822 Z-6.0000 I1.4818 J0.0000 F1080.00
G2 X17.2429 Y25.6822 Z-6.0000 I-1.4818 J0.0000 F1080.00
G2 X20.2064 Y25.6822 Z-6.0000 I1.4818 J0.0000 F1080.00
G0 Z3.0000
G0 X30.4347 Y34.6812
G0 Z3.0000
G1 Z0.0000 F1080.00
G2 X28.4638 Y34.6812 Z-0.4286 I-0.9854 J0.0000 F1080.00
G2 X30.4347 Y34.6812 Z-0.8571 I0.9854 J0.0000 F1080.00
G2 X28.4638 Y34.6812 Z-1.2857 I-0.9854 J0.0000 F1080.00
G2 X30.4347 Y34.6812 Z-1.7143 I0.9854 J0.0000 F1080.00
G2 X28.4638 Y34.6812 Z-2.1429 I-0.9854 J0.0000 F1080.00
G2 X30.4347 Y34.6812 Z-2.5714 I0.9854 J0.0000 F1080.00
G2 X28.4638 Y34.6812 Z-3.0000 I-0.9854 J0.0000 F1080.00
G2 X30.4347 Y34.6812 Z-3.4286 I0.9854 J0.0000 F1080.00
G2 X28.4638 Y34.6812 Z-3.8571 I-0.9854 J0.0000 F1080.00
G2 X30.4347 Y34.6812 Z-4.2857 I0.9854 J0.0000 F1080.00
G2 X28.4638 Y34.6812 Z-4.7143 I-0.9854 J0.0000 F1080.00
G2 X30.4347 Y34.6812 Z-5.1429 I0.9854 J0.0000 F1080.00
G2 X28.4638 Y34.6812 Z-5.5714 I-0.9854 J0.0000 F1080.00
G2 X30.4347 Y34.6812 Z-6.0000 I0.9854 J0.0000 F1080.00
G2 X28.4638 Y34.6812 Z-6.0000 I-0.9854 J0.0000 F1080.00
G2 X30.4347 Y34.6812 Z-6.0000 I0.9854 J0.0000 F1080.00
G0 Z3.0000
G0 X41.1593 Y43.6803
G0 Z3.0000
G1 Z0.0000 F1080.00
G2 X39.1884 Y43.6803 Z-0.4286 I-0.9854 J0.0000 F1080.00
G2 X41.1593 Y43.6803 Z-0.8571 I0.9854 J0.0000 F1080.00
G2 X39.1884 Y43.6803 Z-1.2857 I-0.9854 J0.0000 F1080.00
G2 X41.1593 Y43.6803 Z-1.7143 I0.9854 J0.0000 F1080.00
G2 X39.1884 Y43.6803 Z-2.1429 I-0.9854 J0.0000 F1080.00
G2 X41.1593 Y43.6803 Z-2.5714 I0.9854 J0.0000 F1080.00
G2 X39.1884 Y43.6803 Z-3.0000 I-0.9854 J0.0000 F1080.00
G2 X41.1593 Y43.6803 Z-3.4286 I0.9854 J0.0000 F1080.00
G2 X39.1884 Y43.6803 Z-3.8571 I-0.9854 J0.0000 F1080.00
G2 X41.1593 Y43.6803 Z-4.2857 I0.9854 J0.0000 F1080.00
G2 X39.1884 Y43.6803 Z-4.7143 I-0.9854 J0.0000 F1080.00
G2 X41.1593 Y43.6803 Z-5.1429 I0.9854 J0.0000 F1080.00
G2 X39.1884 Y43.6803 Z-5.5714 I-0.9854 J0.0000 F1080.00
G2 X41.1593 Y43.6803 Z-6.0000 I0.9854 J0.0000 F1080.00
G2 X39.1884 Y43.6803 Z-6.0000 I-0.9854 J0.0000 F1080.00
G2 X41.1593 Y43.6803 Z-6.0000 I0.9854 J0.0000 F1080.00
G0 Z3.0000
G0 X28.3471 Y19.8272
G0 Z3.0000
G1 Z0.0000 F1080.00
G2 X26.3762 Y19.8272 Z-0.4286 I-0.9854 J0.0000 F1080.00
G2 X28.3471 Y19.8272 Z-0.8571 I0.9854 J0.0000 F1080.00
G2 X26.3762 Y19.8272 Z-1.2857 I-0.9854 J0.0000 F1080.00
G2 X28.3471 Y19.8272 Z-1.7143 I0.9854 J0.0000 F1080.00
G2 X26.3762 Y19.8272 Z-2.1429 I-0.9854 J0.0000 F1080.00
G2 X28.3471 Y19.8272 Z-2.5714 I0.9854 J0.0000 F1080.00
G2 X26.3762 Y19.8272 Z-3.0000 I-0.9854 J0.0000 F1080.00
G2 X28.3471 Y19.8272 Z-3.4286 I0.9854 J0.0000 F1080.00
G2 X26.3762 Y19.8272 Z-3.8571 I-0.9854 J0.0000 F1080.00
G2 X28.3471 Y19.8272 Z-4.2857 I0.9854 J0.0000 F1080.00
G2 X26.3762 Y19.8272 Z-4.7143 I-0.9854 J0.0000 F1080.00
G2 X28.3471 Y19.8272 Z-5.1429 I0.9854 J0.0000 F1080.00
G2 X26.3762 Y19.8272 Z-5.5714 I-0.9854 J0.0000 F1080.00
G2 X28.3471 Y19.8272 Z-6.0000 I0.9854 J0.0000 F1080.00
G2 X26.3762 Y19.8272 Z-6.0000 I-0.9854 J0.0000 F1080.00
G2 X28.3471 Y19.8272 Z-6.0000 I0.9854 J0.0000 F1080.00
G0 Z3.0000
G0 X28.4854 Y6.1969
G0 Z3.0000
G1 Z0.0000 F1080.00
G2 X26.5146 Y6.1969 Z-0.4286 I-0.9854 J0.0000 F1080.00
G2 X28.4854 Y6.1969 Z-0.8571 I0.9854 J0.0000 F1080.00
G2 X26.5146 Y6.1969 Z-1.2857 I-0.9854 J0.0000 F1080.00
G2 X28.4854 Y6.1969 Z-1.7143 I0.9854 J0.0000 F1080.00
G2 X26.5146 Y6.1969 Z-2.1429 I-0.9854 J0.0000 F1080.00
G2 X28.4854 Y6.1969 Z-2.5714 I0.9854 J0.0000 F1080.00
G2 X26.5146 Y6.1969 Z-3.0000 I-0.9854 J0.0000 F1080.00
G2 X28.4854 Y6.1969 Z-3.4286 I0.9854 J0.0000 F1080.00
G2 X26.5146 Y6.1969 Z-3.8571 I-0.9854 J0.0000 F1080.00
G2 X28.4854 Y6.1969 Z-4.2857 I0.9854 J0.0000 F1080.00
G2 X26.5146 Y6.1969 Z-4.7143 I-0.9854 J0.0000 F1080.00
G2 X28.4854 Y6.1969 Z-5.1429 I0.9854 J0.0000 F1080.00
G2 X26.5146 Y6.1969 Z-5.5714 I-0.9854 J0.0000 F1080.00
G2 X28.4854 Y6.1969 Z-6.0000 I0.9854 J0.0000 F1080.00
G2 X26.5146 Y6.1969 Z-6.0000 I-0.9854 J0.0000 F1080.00
G2 X28.4854 Y6.1969 Z-6.0000 I0.9854 J0.0000 F1080.00
G0 Z3.0000
G0 Z5.0000
(finish operation: Helix)
(begin operation: Contour)
(Path: Contour)
(Contour)
(Compensated Tool Path. Diameter: 2.0)
G0 Z5.0000
G0 X51.7169 Y68.1468
G0 Z3.0000
G1 X51.7169 Y68.1468 Z-0.7500 F1080.00
G2 X51.7071 Y67.7279 Z-0.7500 I-0.9824 J-0.1866 F1080.00
G3 X55.9275 Y11.0570 Z-0.7500 I86.5857 J-22.0444 F1080.00
G2 X55.1362 Y9.6925 Z-0.7500 I-0.9275 J-0.3738 F1080.00
G3 X37.6774 Y3.1282 Z-0.7500 I4.3414 J-38.0457 F1080.00
G2 X29.1665 Y-0.9886 Z-0.7500 I-10.1688 J10.1665 F1080.00
G2 X17.2974 Y3.1520 Z-0.7500 I-1.6675 J14.3015 F1080.00
G3 X-0.0649 Y9.6853 Z-0.7500 I-18.5279 J-22.9013 F1080.00
G2 X-1.0000 Y10.6832 Z-0.7500 I0.0649 J0.9979 F1080.00
G1 X-1.0000 Y22.6832 Z-0.7500 F1080.00
G2 X-0.6658 Y23.4293 Z-0.7500 I1.0000 J-0.0000 F1080.00
G1 X50.0686 Y68.7063 Z-0.7500 F1080.00
G2 X51.7169 Y68.1468 Z-0.7500 I0.6658 J-0.7461 F1080.00
G1 X51.7169 Y68.1468 Z-1.5000 F1080.00
G2 X51.7071 Y67.7279 Z-1.5000 I-0.9824 J-0.1866 F1080.00
G3 X55.9275 Y11.0570 Z-1.5000 I86.5857 J-22.0444 F1080.00
G2 X55.1362 Y9.6925 Z-1.5000 I-0.9275 J-0.3738 F1080.00
G3 X37.6774 Y3.1282 Z-1.5000 I4.3414 J-38.0457 F1080.00
G2 X29.1665 Y-0.9886 Z-1.5000 I-10.1688 J10.1665 F1080.00
G2 X17.2974 Y3.1520 Z-1.5000 I-1.6675 J14.3015 F1080.00
G3 X-0.0649 Y9.6853 Z-1.5000 I-18.5279 J-22.9013 F1080.00
G2 X-1.0000 Y10.6832 Z-1.5000 I0.0649 J0.9979 F1080.00
G1 X-1.0000 Y22.6832 Z-1.5000 F1080.00
G2 X-0.6658 Y23.4293 Z-1.5000 I1.0000 J-0.0000 F1080.00
G1 X50.0686 Y68.7063 Z-1.5000 F1080.00
G2 X51.7169 Y68.1468 Z-1.5000 I0.6658 J-0.7461 F1080.00
G1 X51.7169 Y68.1468 Z-2.2500 F1080.00
G2 X51.7071 Y67.7279 Z-2.2500 I-0.9824 J-0.1866 F1080.00
G3 X55.9275 Y11.0570 Z-2.2500 I86.5857 J-22.0444 F1080.00
G2 X55.1362 Y9.6925 Z-2.2500 I-0.9275 J-0.3738 F1080.00
G3 X37.6774 Y3.1282 Z-2.2500 I4.3414 J-38.0457 F1080.00
G2 X29.1665 Y-0.9886 Z-2.2500 I-10.1688 J10.1665 F1080.00
G2 X17.2974 Y3.1520 Z-2.2500 I-1.6675 J14.3015 F1080.00
G3 X-0.0649 Y9.6853 Z-2.2500 I-18.5279 J-22.9013 F1080.00
G2 X-1.0000 Y10.6832 Z-2.2500 I0.0649 J0.9979 F1080.00
G1 X-1.0000 Y22.6832 Z-2.2500 F1080.00
G2 X-0.6658 Y23.4293 Z-2.2500 I1.0000 J-0.0000 F1080.00
G1 X50.0686 Y68.7063 Z-2.2500 F1080.00
G2 X51.7169 Y68.1468 Z-2.2500 I0.6658 J-0.7461 F1080.00
G1 X51.7169 Y68.1468 Z-3.0000 F1080.00
G2 X51.7071 Y67.7279 Z-3.0000 I-0.9824 J-0.1866 F1080.00
G3 X55.9275 Y11.0570 Z-3.0000 I86.5857 J-22.0444 F1080.00
G2 X55.1362 Y9.6925 Z-3.0000 I-0.9275 J-0.3738 F1080.00
G3 X37.6774 Y3.1282 Z-3.0000 I4.3414 J-38.0457 F1080.00
G2 X29.1665 Y-0.9886 Z-3.0000 I-10.1688 J10.1665 F1080.00
G2 X17.2974 Y3.1520 Z-3.0000 I-1.6675 J14.3015 F1080.00
G3 X-0.0649 Y9.6853 Z-3.0000 I-18.5279 J-22.9013 F1080.00
G2 X-1.0000 Y10.6832 Z-3.0000 I0.0649 J0.9979 F1080.00
G1 X-1.0000 Y22.6832 Z-3.0000 F1080.00
G2 X-0.6658 Y23.4293 Z-3.0000 I1.0000 J-0.0000 F1080.00
G1 X50.0686 Y68.7063 Z-3.0000 F1080.00
G2 X51.7169 Y68.1468 Z-3.0000 I0.6658 J-0.7461 F1080.00
G1 X51.7169 Y68.1468 Z-3.7500 F1080.00
G2 X51.7071 Y67.7279 Z-3.7500 I-0.9824 J-0.1866 F1080.00
G3 X55.9275 Y11.0570 Z-3.7500 I86.5857 J-22.0444 F1080.00
G2 X55.1362 Y9.6925 Z-3.7500 I-0.9275 J-0.3738 F1080.00
G3 X37.6774 Y3.1282 Z-3.7500 I4.3414 J-38.0457 F1080.00
G2 X29.1665 Y-0.9886 Z-3.7500 I-10.1688 J10.1665 F1080.00
G2 X17.2974 Y3.1520 Z-3.7500 I-1.6675 J14.3015 F1080.00
G3 X-0.0649 Y9.6853 Z-3.7500 I-18.5279 J-22.9013 F1080.00
G2 X-1.0000 Y10.6832 Z-3.7500 I0.0649 J0.9979 F1080.00
G1 X-1.0000 Y22.6832 Z-3.7500 F1080.00
G2 X-0.6658 Y23.4293 Z-3.7500 I1.0000 J-0.0000 F1080.00
G1 X50.0686 Y68.7063 Z-3.7500 F1080.00
G2 X51.7169 Y68.1468 Z-3.7500 I0.6658 J-0.7461 F1080.00
G1 X51.7169 Y68.1468 Z-4.5000 F1080.00
G2 X51.7071 Y67.7279 Z-4.5000 I-0.9824 J-0.1866 F1080.00
G3 X55.9275 Y11.0570 Z-4.5000 I86.5857 J-22.0444 F1080.00
G2 X55.1362 Y9.6925 Z-4.5000 I-0.9275 J-0.3738 F1080.00
G3 X37.6774 Y3.1282 Z-4.5000 I4.3414 J-38.0457 F1080.00
G2 X29.1665 Y-0.9886 Z-4.5000 I-10.1688 J10.1665 F1080.00
G2 X17.2974 Y3.1520 Z-4.5000 I-1.6675 J14.3015 F1080.00
G3 X-0.0649 Y9.6853 Z-4.5000 I-18.5279 J-22.9013 F1080.00
G2 X-1.0000 Y10.6832 Z-4.5000 I0.0649 J0.9979 F1080.00
G1 X-1.0000 Y22.6832 Z-4.5000 F1080.00
G2 X-0.6658 Y23.4293 Z-4.5000 I1.0000 J-0.0000 F1080.00
G1 X50.0686 Y68.7063 Z-4.5000 F1080.00
G2 X51.7169 Y68.1468 Z-4.5000 I0.6658 J-0.7461 F1080.00
G1 X51.7169 Y68.1468 Z-5.2500 F1080.00
G2 X51.7071 Y67.7279 Z-5.2500 I-0.9824 J-0.1866 F1080.00
G3 X55.9275 Y11.0570 Z-5.2500 I86.5857 J-22.0444 F1080.00
G2 X55.1362 Y9.6925 Z-5.2500 I-0.9275 J-0.3738 F1080.00
G3 X37.6774 Y3.1282 Z-5.2500 I4.3414 J-38.0457 F1080.00
G2 X29.1665 Y-0.9886 Z-5.2500 I-10.1688 J10.1665 F1080.00
G2 X17.2974 Y3.1520 Z-5.2500 I-1.6675 J14.3015 F1080.00
G3 X-0.0649 Y9.6853 Z-5.2500 I-18.5279 J-22.9013 F1080.00
G2 X-1.0000 Y10.6832 Z-5.2500 I0.0649 J0.9979 F1080.00
G1 X-1.0000 Y22.6832 Z-5.2500 F1080.00
G2 X-0.6658 Y23.4293 Z-5.2500 I1.0000 J-0.0000 F1080.00
G1 X50.0686 Y68.7063 Z-5.2500 F1080.00
G2 X51.7169 Y68.1468 Z-5.2500 I0.6658 J-0.7461 F1080.00
G1 X51.7169 Y68.1468 Z-6.0000 F1080.00
G2 X51.7071 Y67.7279 Z-6.0000 I-0.9824 J-0.1866 F1080.00
G3 X55.9275 Y11.0570 Z-6.0000 I86.5857 J-22.0444 F1080.00
G2 X55.1362 Y9.6925 Z-6.0000 I-0.9275 J-0.3738 F1080.00
G3 X37.6774 Y3.1282 Z-6.0000 I4.3414 J-38.0457 F1080.00
G2 X29.1665 Y-0.9886 Z-6.0000 I-10.1688 J10.1665 F1080.00
G2 X17.2974 Y3.1520 Z-6.0000 I-1.6675 J14.3015 F1080.00
G3 X-0.0649 Y9.6853 Z-6.0000 I-18.5279 J-22.9013 F1080.00
G2 X-1.0000 Y10.6832 Z-6.0000 I0.0649 J0.9979 F1080.00
G1 X-1.0000 Y22.6832 Z-6.0000 F1080.00
G2 X-0.6658 Y23.4293 Z-6.0000 I1.0000 J-0.0000 F1080.00
G1 X50.0686 Y68.7063 Z-6.0000 F1080.00
G2 X51.7169 Y68.1468 Z-6.0000 I0.6658 J-0.7461 F1080.00
G0 Z5.0000
(finish operation: Contour)
(begin postamble)
M5
G17 G90
; M2
